;FLAVOR:Marlin
;TIME:2376
;Filament used: 0.617829m
;Layer height: 0.16
;MINX:94.013
;MINY:94.013
;MINZ:0.16
;MAXX:125.988
;MAXY:125.986
;MAXZ:35.04
;Generated with Cura_SteamEngine main
M82 ;absolute extrusion mode
; Ender 3 Custom Start G-code
G92 E0 ; Reset Extruder
G28 ; Home all axes
M104 S120 ; Start heating up the nozzle most of the way
M190 S64.0 ; Start heating the bed, wait until target temperature reached
M109 S250.0 ; Finish heating the nozzle
G1 Z2.0 F3000 ; Move Z Axis up little to prevent scratching of Heat Bed
G1 X0.1 Y20 Z0.3 F5000.0 ; Move to start position
G1 X0.1 Y200.0 Z0.3 F1500.0 E15 ; Draw the first line
G1 X0.4 Y200.0 Z0.3 F5000.0 ; Move to side a little
G1 X0.4 Y20 Z0.3 F1500.0 E30 ; Draw the second line
G92 E0 ; Reset Extruder
G1 Z2.0 F3000 ; Move Z Axis up little to prevent scratching of Heat Bed
G1 X5 Y20 Z0.3 F5000.0 ; Move over to prevent blob squish
G92 E0
G92 E0
G1 F2100 E-4
;LAYER_COUNT:219
;LAYER:0
M107
G0 F6000 X98.647 Y98.761 Z0.16
G0 X94.013 Y109.896
;TYPE:SKIRT
G1 F2100 E0
G1 F600 X94.04 Y109.245 E0.01699
G1 X94.079 Y108.698 E0.03129
G1 X94.138 Y108.061 E0.04797
G1 X94.272 Y107.132 E0.07245
G1 X94.439 Y106.384 E0.09243
G1 X94.659 Y105.541 E0.11515
G1 X94.935 Y104.645 E0.1396
G1 X95.268 Y103.812 E0.16299
G1 X95.493 Y103.311 E0.17731
G1 X95.763 Y102.743 E0.19371
G1 X96.207 Y101.916 E0.21819
G1 X96.562 Y101.356 E0.23548
G1 X96.875 Y100.894 E0.25003
G1 X97.239 Y100.381 E0.26643
G1 X97.819 Y99.643 E0.29091
G1 X98.276 Y99.143 E0.30857
G1 X98.647 Y98.761 E0.32245
G1 X99.093 Y98.321 E0.33879
G1 X99.792 Y97.696 E0.36324
G1 X100.316 Y97.292 E0.3805
G1 X100.791 Y96.948 E0.39579
G1 X101.329 Y96.577 E0.41283
G1 X102.127 Y96.086 E0.43726
G1 X102.672 Y95.801 E0.4533
G1 X103.14 Y95.573 E0.46687
G1 X103.777 Y95.281 E0.48515
G1 X104.649 Y94.935 E0.50961
G1 X105.25 Y94.744 E0.52605
G1 X106.095 Y94.507 E0.54894
G1 X106.412 Y94.427 E0.55746
G1 X107.331 Y94.237 E0.58193
G1 X107.963 Y94.152 E0.59856
G1 X108.519 Y94.094 E0.61314
G1 X109.156 Y94.042 E0.6298
G1 X110.094 Y94.013 E0.65427
G1 X110.751 Y94.04 E0.67142
G1 X111.327 Y94.081 E0.68648
G1 X111.979 Y94.143 E0.70356
G1 X112.907 Y94.279 E0.72801
G1 X113.634 Y94.443 E0.74745
G1 X114.481 Y94.665 E0.77028
G1 X115.377 Y94.942 E0.79474
G1 X116.304 Y95.32 E0.82084
G1 X117.077 Y95.677 E0.84304
G1 X117.911 Y96.106 E0.8675
G1 X118.635 Y96.556 E0.88973
G1 X119.094 Y96.867 E0.90418
G1 X119.621 Y97.241 E0.92104
G1 X120.358 Y97.822 E0.94551
G1 X120.849 Y98.27 E0.96284
G1 X121.252 Y98.661 E0.97748
G1 X121.71 Y99.127 E0.99452
G1 X122.333 Y99.827 E1.01895
G1 X122.71 Y100.316 E1.03505
G1 X123.018 Y100.74 E1.04872
G1 X123.407 Y101.303 E1.06656
G1 X123.899 Y102.102 E1.09103
G1 X124.187 Y102.65 E1.10717
G1 X124.432 Y103.152 E1.12174
G1 X124.717 Y103.775 E1.13961
G1 X125.065 Y104.646 E1.16406
G1 X125.262 Y105.269 E1.1811
G1 X125.401 Y105.757 E1.19433
G1 X125.567 Y106.391 E1.21142
G1 X125.76 Y107.309 E1.23588
G1 X125.848 Y107.963 E1.25309
G1 X125.904 Y108.5 E1.26717
G1 X125.956 Y109.129 E1.28363
G1 X125.988 Y110.067 E1.3081
G1 X125.96 Y110.753 E1.326
G1 X125.919 Y111.326 E1.34098
G1 X125.86 Y111.953 E1.3574
G1 X125.726 Y112.881 E1.38185
G1 X125.579 Y113.55 E1.39971
G1 X125.449 Y114.063 E1.41351
G1 X125.283 Y114.667 E1.42985
G1 X124.99 Y115.558 E1.45431
G1 X124.741 Y116.165 E1.47141
G1 X124.522 Y116.656 E1.48543
G1 X124.247 Y117.238 E1.50222
G1 X123.805 Y118.065 E1.52667
G1 X123.443 Y118.636 E1.5443
G1 X123.141 Y119.082 E1.55834
G1 X122.757 Y119.623 E1.57564
G1 X122.177 Y120.36 E1.6001
G1 X121.73 Y120.85 E1.61739
G1 X121.349 Y121.243 E1.63167
G1 X120.901 Y121.684 E1.64806
G1 X120.202 Y122.309 E1.67251
G1 X119.696 Y122.699 E1.68917
G1 X119.232 Y123.036 E1.70412
G1 X118.661 Y123.43 E1.72221
G1 X117.861 Y123.921 E1.74669
G1 X117.328 Y124.199 E1.76237
G1 X116.86 Y124.427 E1.77594
G1 X116.223 Y124.719 E1.79421
G1 X115.351 Y125.065 E1.81867
G1 X114.75 Y125.256 E1.83512
G1 X113.897 Y125.495 E1.85822
G1 X113.583 Y125.574 E1.86666
G1 X112.664 Y125.763 E1.89113
G1 X112.035 Y125.847 E1.90767
G1 X111.457 Y125.907 E1.92283
G1 X110.822 Y125.958 E1.93944
G1 X109.884 Y125.986 E1.96391
G1 X109.25 Y125.959 E1.98046
G1 X108.659 Y125.917 E1.99591
G1 X108.049 Y125.861 E2.01188
G1 X107.121 Y125.727 E2.03633
G1 X106.449 Y125.579 E2.05427
G1 X105.94 Y125.45 E2.06796
G1 X105.336 Y125.284 E2.0843
G1 X104.445 Y124.992 E2.10875
G1 X103.821 Y124.735 E2.12634
G1 X103.052 Y124.387 E2.14835
G1 X102.765 Y124.249 E2.15666
G1 X101.938 Y123.806 E2.18112
G1 X101.364 Y123.443 E2.19883
G1 X100.918 Y123.141 E2.21288
G1 X100.384 Y122.762 E2.22995
G1 X99.647 Y122.182 E2.25441
G1 X99.151 Y121.73 E2.27191
G1 X98.748 Y121.339 E2.28655
G1 X98.292 Y120.875 E2.30351
G1 X97.669 Y120.174 E2.32797
G1 X97.291 Y119.684 E2.3441
G1 X96.963 Y119.232 E2.35867
G1 X96.575 Y118.667 E2.37654
G1 X96.084 Y117.868 E2.40099
G1 X95.805 Y117.333 E2.41673
G1 X95.578 Y116.867 E2.43024
G1 X95.292 Y116.245 E2.44809
G1 X94.944 Y115.374 E2.47255
G1 X94.742 Y114.74 E2.4899
G1 X94.52 Y113.949 E2.51133
G1 X94.438 Y113.63 E2.51992
G1 X94.244 Y112.712 E2.54438
G1 X94.15 Y112.023 E2.56251
G1 X94.093 Y111.472 E2.57696
G1 X94.042 Y110.833 E2.59367
G1 X94.013 Y109.896 E2.61812
G0 F6000 X94.413 Y109.884
G1 F600 X94.439 Y109.273 E2.63407
G1 X94.504 Y108.419 E2.6564
G1 X94.536 Y108.101 E2.66473
G1 X94.668 Y107.19 E2.68874
G1 X94.827 Y106.485 E2.70758
G1 X95.047 Y105.642 E2.7303
G1 X95.317 Y104.762 E2.7543
G1 X95.633 Y103.976 E2.77639
G1 X95.858 Y103.475 E2.79071
G1 X96.124 Y102.917 E2.80683
G1 X96.56 Y102.106 E2.83084
G1 X96.893 Y101.581 E2.84705
G1 X97.206 Y101.119 E2.86161
G1 X97.564 Y100.614 E2.87775
G1 X98.134 Y99.891 E2.90176
G1 X98.563 Y99.422 E2.91833
G1 X99.142 Y98.831 E2.9399
G1 X99.372 Y98.607 E2.94828
G1 X100.059 Y97.994 E2.97228
G1 X100.551 Y97.616 E2.98846
G1 X101.026 Y97.272 E3.00376
G1 X101.553 Y96.909 E3.02044
G1 X102.337 Y96.427 E3.04444
G1 X102.848 Y96.161 E3.05946
G1 X103.622 Y95.789 E3.08186
G1 X103.941 Y95.646 E3.09097
G1 X104.797 Y95.307 E3.11498
G1 X105.36 Y95.128 E3.13038
G1 X105.87 Y94.982 E3.14422
G1 X106.51 Y94.815 E3.16146
G1 X107.412 Y94.629 E3.18548
G1 X108.004 Y94.55 E3.20105
G1 X108.56 Y94.492 E3.21563
G1 X109.186 Y94.441 E3.23201
G1 X110.106 Y94.413 E3.25601
G1 X110.723 Y94.439 E3.27211
G1 X111.299 Y94.48 E3.28717
G1 X111.938 Y94.541 E3.30391
G1 X112.849 Y94.675 E3.32792
G1 X113.532 Y94.83 E3.34618
G1 X114.379 Y95.052 E3.36901
G1 X115.259 Y95.324 E3.39303
G1 X116.136 Y95.683 E3.41774
G1 X116.909 Y96.04 E3.43994
G1 X117.728 Y96.462 E3.46397
G1 X118.411 Y96.888 E3.48496
G1 X118.87 Y97.199 E3.49942
G1 X119.387 Y97.566 E3.51595
G1 X120.11 Y98.136 E3.53996
G1 X120.57 Y98.557 E3.55622
G1 X120.973 Y98.948 E3.57086
G1 X121.423 Y99.405 E3.58758
G1 X122.034 Y100.093 E3.61158
G1 X122.386 Y100.551 E3.62664
G1 X122.694 Y100.975 E3.6403
G1 X123.075 Y101.528 E3.65782
G1 X123.558 Y102.312 E3.68183
G1 X123.827 Y102.826 E3.69695
G1 X124.072 Y103.328 E3.71152
G1 X124.352 Y103.939 E3.72905
G1 X124.693 Y104.794 E3.75305
G1 X124.878 Y105.378 E3.76902
G1 X125.017 Y105.866 E3.78225
G1 X125.18 Y106.49 E3.79907
G1 X125.368 Y107.391 E3.82307
G1 X125.45 Y108.005 E3.83923
G1 X125.506 Y108.542 E3.8533
G1 X125.557 Y109.16 E3.86947
G1 X125.587 Y110.08 E3.89348
G1 X125.561 Y110.725 E3.91031
G1 X125.52 Y111.298 E3.92529
G1 X125.462 Y111.913 E3.9414
G1 X125.33 Y112.824 E3.9654
G1 X125.191 Y113.452 E3.98217
G1 X125.061 Y113.965 E3.99597
G1 X124.898 Y114.558 E4.01201
G1 X124.61 Y115.433 E4.03603
G1 X124.376 Y116.002 E4.05207
G1 X124.157 Y116.493 E4.06609
G1 X123.887 Y117.064 E4.08256
G1 X123.452 Y117.876 E4.10658
G1 X123.112 Y118.411 E4.12311
G1 X122.634 Y119.11 E4.14519
G1 X122.433 Y119.389 E4.15416
G1 X121.862 Y120.112 E4.17818
G1 X121.443 Y120.571 E4.19439
G1 X120.842 Y121.185 E4.21679
G1 X120.623 Y121.398 E4.22476
G1 X119.935 Y122.01 E4.24877
G1 X119.461 Y122.376 E4.26438
G1 X118.997 Y122.713 E4.27934
G1 X118.437 Y123.098 E4.29706
G1 X117.652 Y123.579 E4.32107
G1 X117.152 Y123.839 E4.33576
G1 X116.378 Y124.211 E4.35815
G1 X116.059 Y124.354 E4.36727
G1 X115.203 Y124.693 E4.39128
G1 X114.64 Y124.872 E4.40668
G1 X114.13 Y125.018 E4.42052
G1 X113.485 Y125.186 E4.4379
G1 X112.584 Y125.371 E4.46188
G1 X111.993 Y125.449 E4.47742
G1 X111.084 Y125.539 E4.50124
G1 X110.793 Y125.56 E4.50885
G1 X109.873 Y125.586 E4.53285
G1 X109.279 Y125.56 E4.54835
G1 X108.377 Y125.492 E4.57194
G1 X108.089 Y125.463 E4.57949
G1 X107.178 Y125.331 E4.60349
G1 X106.547 Y125.191 E4.62035
G1 X105.771 Y124.991 E4.64124
G1 X105.444 Y124.899 E4.6501
G1 X104.57 Y124.611 E4.6741
G1 X103.985 Y124.37 E4.6906
G1 X103.489 Y124.148 E4.70477
G1 X102.939 Y123.888 E4.72063
G1 X102.127 Y123.453 E4.74465
G1 X101.589 Y123.112 E4.76126
G1 X101.143 Y122.81 E4.7753
G1 X100.617 Y122.437 E4.79212
G1 X99.894 Y121.867 E4.81613
G1 X99.43 Y121.443 E4.83252
G1 X99.027 Y121.052 E4.84716
G1 X98.579 Y120.597 E4.86381
G1 X97.968 Y119.908 E4.88782
G1 X97.615 Y119.449 E4.90292
G1 X97.287 Y118.997 E4.91748
G1 X96.906 Y118.443 E4.93502
G1 X96.425 Y117.659 E4.959
G1 X96.165 Y117.158 E4.97372
G1 X95.803 Y116.405 E4.9955
G1 X95.657 Y116.081 E5.00477
G1 X95.315 Y115.226 E5.02878
G1 X95.127 Y114.63 E5.04508
G1 X94.908 Y113.849 E5.06623
G1 X94.826 Y113.53 E5.07482
G1 X94.635 Y112.629 E5.09884
G1 X94.548 Y111.982 E5.11586
G1 X94.491 Y111.431 E5.1303
G1 X94.441 Y110.804 E5.14671
G1 X94.413 Y109.884 E5.17071
G0 F6000 X94.813 Y109.872
G1 F600 X94.838 Y109.302 E5.18558
G1 X94.902 Y108.459 E5.20763
G1 X94.934 Y108.141 E5.21596
G1 X95.064 Y107.247 E5.23952
G1 X95.214 Y106.586 E5.25719
G1 X95.434 Y105.743 E5.27991
G1 X95.7 Y104.88 E5.30346
G1 X95.998 Y104.14 E5.32426
G1 X96.223 Y103.639 E5.33858
G1 X96.484 Y103.091 E5.35441
G1 X96.912 Y102.296 E5.37796
G1 X97.225 Y101.805 E5.39314
G1 X97.538 Y101.343 E5.40769
G1 X97.889 Y100.848 E5.42351
G1 X98.448 Y100.139 E5.44706
G1 X98.85 Y99.701 E5.46256
G1 X99.421 Y99.118 E5.48384
G1 X99.651 Y98.894 E5.49221
G1 X100.326 Y98.293 E5.51578
G1 X100.785 Y97.94 E5.53088
G1 X101.26 Y97.596 E5.54617
G1 X101.777 Y97.24 E5.56254
G1 X102.547 Y96.768 E5.58609
G1 X103.023 Y96.52 E5.60008
G1 X103.491 Y96.292 E5.61366
G1 X104.105 Y96.011 E5.63127
G1 X104.944 Y95.679 E5.65479
G1 X105.47 Y95.513 E5.66918
G1 X105.98 Y95.367 E5.68301
G1 X106.608 Y95.203 E5.69994
G1 X107.493 Y95.021 E5.7235
G1 X108.046 Y94.948 E5.73804
G1 X108.602 Y94.89 E5.75262
G1 X109.215 Y94.84 E5.76865
G1 X110.118 Y94.813 E5.79221
G1 X110.694 Y94.838 E5.80725
G1 X111.598 Y94.907 E5.83089
G1 X111.897 Y94.938 E5.83873
G1 X112.79 Y95.071 E5.86227
G1 X113.431 Y95.217 E5.87941
G1 X114.278 Y95.439 E5.90224
G1 X115.141 Y95.707 E5.92581
G1 X115.969 Y96.046 E5.94914
G1 X116.742 Y96.403 E5.97134
G1 X117.544 Y96.817 E5.99487
G1 X118.186 Y97.219 E6.01463
G1 X118.888 Y97.699 E6.0368
G1 X119.153 Y97.89 E6.04532
G1 X119.862 Y98.45 E6.06888
G1 X120.292 Y98.844 E6.08409
G1 X120.695 Y99.235 E6.09873
G1 X121.136 Y99.683 E6.11512
G1 X121.735 Y100.359 E6.13867
G1 X122.062 Y100.786 E6.1527
G1 X122.37 Y101.21 E6.16636
G1 X122.744 Y101.752 E6.18353
G1 X123.217 Y102.522 E6.2071
G1 X123.468 Y103.001 E6.2212
G1 X123.713 Y103.503 E6.23577
G1 X123.987 Y104.103 E6.25297
G1 X124.321 Y104.942 E6.27651
G1 X124.493 Y105.488 E6.29144
G1 X124.632 Y105.976 E6.30467
G1 X124.792 Y106.588 E6.32117
G1 X124.976 Y107.473 E6.34474
G1 X125.052 Y108.046 E6.35981
G1 X125.108 Y108.583 E6.37389
G1 X125.158 Y109.19 E6.38977
G1 X125.187 Y110.093 E6.41333
G1 X125.162 Y110.696 E6.42907
G1 X125.121 Y111.269 E6.44405
G1 X125.064 Y111.873 E6.45987
G1 X124.934 Y112.766 E6.4834
G1 X124.803 Y113.354 E6.49911
G1 X124.604 Y114.127 E6.51992
G1 X124.513 Y114.45 E6.52867
G1 X124.23 Y115.308 E6.55223
G1 X124.01 Y115.839 E6.56722
G1 X123.791 Y116.33 E6.58124
G1 X123.526 Y116.891 E6.59741
G1 X123.099 Y117.687 E6.62097
G1 X122.781 Y118.187 E6.63642
G1 X122.479 Y118.633 E6.65046
G1 X122.108 Y119.155 E6.66716
G1 X121.548 Y119.864 E6.69072
G1 X121.155 Y120.293 E6.70589
G1 X120.563 Y120.898 E6.72797
G1 X120.344 Y121.111 E6.73593
G1 X119.669 Y121.711 E6.75948
G1 X119.226 Y122.052 E6.77406
G1 X118.762 Y122.389 E6.78901
G1 X118.213 Y122.767 E6.80639
G1 X117.443 Y123.238 E6.82993
G1 X116.977 Y123.48 E6.84362
G1 X116.509 Y123.708 E6.8572
G1 X115.895 Y123.989 E6.87481
G1 X115.056 Y124.321 E6.89833
G1 X114.53 Y124.487 E6.91272
G1 X113.702 Y124.719 E6.93514
G1 X113.388 Y124.798 E6.94358
G1 X112.503 Y124.979 E6.96714
G1 X111.952 Y125.051 E6.98163
G1 X111.055 Y125.14 E7.00513
G1 X110.764 Y125.161 E7.01274
G1 X109.861 Y125.186 E7.0363
G1 X109.307 Y125.161 E7.05076
G1 X108.417 Y125.094 E7.07403
G1 X108.129 Y125.065 E7.08158
G1 X107.235 Y124.935 E7.10513
G1 X106.645 Y124.803 E7.1209
G1 X105.88 Y124.606 E7.1415
G1 X105.553 Y124.514 E7.15036
G1 X104.695 Y124.231 E7.17392
G1 X104.148 Y124.005 E7.18935
G1 X103.652 Y123.783 E7.20352
G1 X103.112 Y123.528 E7.21909
G1 X102.316 Y123.101 E7.24264
G1 X101.813 Y122.781 E7.25819
G1 X101.367 Y122.479 E7.27224
G1 X100.851 Y122.113 E7.28873
G1 X100.142 Y121.553 E7.31229
G1 X99.708 Y121.156 E7.32763
G1 X99.305 Y120.765 E7.34227
G1 X98.866 Y120.319 E7.35859
G1 X98.267 Y119.643 E7.38214
G1 X97.939 Y119.214 E7.39622
G1 X97.611 Y118.762 E7.41078
G1 X97.238 Y118.22 E7.42794
G1 X96.766 Y117.449 E7.45151
G1 X96.524 Y116.983 E7.46521
G1 X96.297 Y116.517 E7.47872
G1 X96.022 Y115.916 E7.49596
G1 X95.687 Y115.078 E7.51949
G1 X95.511 Y114.521 E7.53472
G1 X95.364 Y114.005 E7.54871
G1 X95.213 Y113.43 E7.56421
G1 X95.027 Y112.547 E7.58775
G1 X94.946 Y111.941 E7.60369
G1 X94.889 Y111.39 E7.61813
G1 X94.839 Y110.775 E7.63422
G1 X94.813 Y109.872 E7.65778
G1 F2100 E3.65778
;MESH:Magnet Aligner.stl
G0 F6000 X109.377 Y113.539
;TYPE:WALL-INNER
G1 F2100 E7.65778
G1 F600 X109.999 Y113.594 E7.67406
G1 X110.621 Y113.54 E7.69034
G1 X111.228 Y113.377 E7.70673
G1 X111.792 Y113.11 E7.723
G1 X112.305 Y112.752 E7.73931
G1 X112.754 Y112.308 E7.75578
G1 X113.112 Y111.797 E7.77205
G1 X113.377 Y111.23 E7.78837
G1 X113.458 Y110.926 E7.79657
G1 X113.453 Y110.923 E7.79672
G1 X113.534 Y110.624 E7.8048
G1 X113.594 Y109.997 E7.82123
G1 X113.539 Y109.379 E7.83741
G1 X113.372 Y108.773 E7.8538
G1 X113.111 Y108.202 E7.87017
G1 X112.756 Y107.695 E7.88631
G1 X112.308 Y107.246 E7.90285
G1 X111.798 Y106.889 E7.91908
G1 X111.231 Y106.624 E7.9354
G1 X110.624 Y106.462 E7.95178
G1 X109.999 Y106.406 E7.96814
G1 X109.379 Y106.461 E7.98438
G1 X108.773 Y106.623 E8.00073
G1 X108.203 Y106.89 E8.01715
G1 X107.69 Y107.248 E8.03346
G1 X107.246 Y107.692 E8.04983
G1 X106.89 Y108.2 E8.06601
G1 X106.623 Y108.772 E8.08247
G1 X106.46 Y109.378 E8.09883
G1 X106.406 Y110.001 E8.11514
G1 X106.46 Y110.622 E8.13139
G1 X106.622 Y111.227 E8.14772
G1 X106.887 Y111.794 E8.16404
G1 X107.244 Y112.305 E8.1803
G1 X107.693 Y112.754 E8.19685
G1 X108.203 Y113.111 E8.21309
G1 X108.767 Y113.375 E8.22933
G1 X109.377 Y113.539 E8.2458
G0 F6000 X109.998 Y113.996
G1 F600 X110.691 Y113.935 E8.26394
G1 X111.365 Y113.754 E8.28214
G1 X111.993 Y113.459 E8.30023
G1 X112.564 Y113.06 E8.31839
G1 X113.061 Y112.566 E8.33667
G1 X113.459 Y111.998 E8.35475
G1 X113.754 Y111.367 E8.37291
G1 X113.931 Y110.694 E8.39106
G1 X113.995 Y109.997 E8.40931
G1 X113.935 Y109.309 E8.42732
G1 X113.751 Y108.635 E8.44554
G1 X113.459 Y108.001 E8.46374
G1 X113.063 Y107.437 E8.48171
G1 X112.566 Y106.938 E8.50007
G1 X111.998 Y106.541 E8.51814
G1 X111.368 Y106.247 E8.53627
G1 X110.694 Y106.066 E8.55447
G1 X109.999 Y106.005 E8.57266
G1 X109.309 Y106.065 E8.59072
G1 X108.635 Y106.246 E8.60892
G1 X108.003 Y106.541 E8.62711
G1 X107.433 Y106.94 E8.64525
G1 X106.938 Y107.434 E8.66349
G1 X106.543 Y107.999 E8.68146
G1 X106.246 Y108.634 E8.69974
G1 X106.065 Y109.309 E8.71797
G1 X106.004 Y110.001 E8.73608
G1 X106.065 Y110.691 E8.75414
G1 X106.245 Y111.364 E8.77231
G1 X106.54 Y111.995 E8.79047
G1 X106.937 Y112.563 E8.80854
G1 X107.434 Y113.062 E8.82691
G1 X108.002 Y113.459 E8.84498
G1 X108.629 Y113.752 E8.86302
G1 X109.307 Y113.934 E8.88133
G1 X109.998 Y113.996 E8.89942
G0 F6000 X109.998 Y114.397
G1 F600 X110.761 Y114.33 E8.91939
G1 X111.502 Y114.131 E8.9394
G1 X112.195 Y113.807 E8.95935
G1 X112.823 Y113.368 E8.97933
G1 X113.369 Y112.824 E8.99943
G1 X113.807 Y112.199 E9.01933
G1 X114.131 Y111.505 E9.0393
