;FLAVOR:Marlin
;TIME:2149
;Filament used: 0.442409m
;Layer height: 0.16
;MINX:83.094
;MINY:154.546
;MINZ:0.16
;MAXX:137.205
;MAXY:191.845
;MAXZ:10.88
;Generated with Cura_SteamEngine main
M82 ;absolute extrusion mode
; Ender 3 Custom Start G-code
G92 E0 ; Reset Extruder
G28 ; Home all axes
M104 S120 ; Start heating up the nozzle most of the way
M190 S70 ; Start heating the bed, wait until target temperature reached
M109 S252 ; Finish heating the nozzle
G1 Z2.0 F3000 ; Move Z Axis up little to prevent scratching of Heat Bed
G1 X0.1 Y20 Z0.3 F5000.0 ; Move to start position
G1 X0.1 Y200.0 Z0.3 F1500.0 E15 ; Draw the first line
G1 X0.4 Y200.0 Z0.3 F5000.0 ; Move to side a little
G1 X0.4 Y20 Z0.3 F1500.0 E30 ; Draw the second line
G92 E0 ; Reset Extruder
G1 Z2.0 F3000 ; Move Z Axis up little to prevent scratching of Heat Bed
G1 X5 Y20 Z0.3 F5000.0 ; Move over to prevent blob squish
G92 E0
G92 E0
G1 F1500 E-6.5
;LAYER_COUNT:68
;LAYER:0
M107
G0 F6000 X89.308 Y157.203 Z0.16
G0 X83.878 Y165.731
;TYPE:SKIRT
G1 F1500 E0
G1 F600 X84.081 Y164.651 E0.02924
G1 X84.293 Y163.738 E0.05418
G1 X84.582 Y162.845 E0.07915
G1 X84.946 Y161.981 E0.1041
G1 X85.383 Y161.151 E0.12906
G1 X85.888 Y160.361 E0.15401
G1 X86.459 Y159.617 E0.17896
G1 X87.091 Y158.924 E0.20392
G1 X87.78 Y158.288 E0.22887
G1 X88.521 Y157.713 E0.25382
G1 X89.308 Y157.203 E0.27878
G1 X90.136 Y156.761 E0.30375
G1 X90.998 Y156.392 E0.3287
G1 X91.888 Y156.098 E0.35364
G1 X92.892 Y155.863 E0.38108
G1 X95.917 Y155.304 E0.46293
G1 X98.324 Y154.795 E0.52839
G1 X99.249 Y154.64 E0.55335
G1 X100.436 Y154.558 E0.58501
G1 X101.343 Y154.546 E0.60914
G1 X114.53 Y154.548 E0.96002
G1 X115.226 Y154.558 E0.97854
G1 X116.162 Y154.612 E1.00349
G1 X117.091 Y154.745 E1.02846
G1 X118.004 Y154.956 E1.05339
G1 X118.57 Y155.129 E1.06914
G1 X119.845 Y155.557 E1.10493
G1 X122.301 Y156.347 E1.17358
G1 X124.699 Y157.044 E1.24002
G1 X127.246 Y157.706 E1.31004
G1 X128.676 Y158.054 E1.34921
G1 X129.577 Y158.314 E1.37416
G1 X130.452 Y158.65 E1.3991
G1 X131.296 Y159.059 E1.42405
G1 X132.102 Y159.539 E1.44901
G1 X132.864 Y160.086 E1.47397
G1 X133.576 Y160.696 E1.49892
G1 X134.235 Y161.364 E1.52389
G1 X134.833 Y162.086 E1.54883
G1 X135.359 Y162.83 E1.57308
G1 X135.89 Y163.727 E1.60081
G1 X136.299 Y164.571 E1.62577
G1 X136.633 Y165.447 E1.65071
G1 X136.892 Y166.349 E1.67568
G1 X137.074 Y167.269 E1.70064
G1 X137.176 Y168.201 E1.72558
G1 X137.199 Y168.757 E1.74039
G1 X137.205 Y169.134 E1.75042
G1 X137.18 Y170.071 E1.77536
G1 X137.122 Y170.662 E1.79116
G1 X137.05 Y171.231 E1.80642
G1 X136.793 Y173.025 E1.85465
G1 X136.509 Y175.515 E1.92133
G1 X136.284 Y178.134 E1.99127
G1 X136.181 Y179.637 E2.03136
G1 X136.077 Y180.569 E2.05631
G1 X135.895 Y181.489 E2.08127
G1 X135.634 Y182.39 E2.10623
G1 X135.298 Y183.266 E2.13119
G1 X134.888 Y184.109 E2.15613
G1 X134.408 Y184.915 E2.18109
G1 X133.861 Y185.677 E2.20605
G1 X133.251 Y186.389 E2.231
G1 X132.582 Y187.047 E2.25597
G1 X131.86 Y187.646 E2.28093
G1 X131.09 Y188.181 E2.30588
G1 X130.277 Y188.648 E2.33083
G1 X129.427 Y189.044 E2.35578
G1 X128.546 Y189.367 E2.38074
G1 X127.641 Y189.613 E2.4057
G1 X126.793 Y189.771 E2.42865
G1 X123.744 Y190.246 E2.51076
G1 X121.244 Y190.713 E2.57843
G1 X118.798 Y191.242 E2.64502
G1 X117.573 Y191.533 E2.67852
G1 X116.652 Y191.71 E2.70347
G1 X115.719 Y191.809 E2.72844
G1 X115.203 Y191.83 E2.74218
G1 X114.387 Y191.843 E2.76389
G1 X101.12 Y191.845 E3.1169
G1 X100.413 Y191.835 E3.13572
G1 X99.146 Y191.744 E3.16952
G1 X97.632 Y191.546 E3.21014
G1 X95.08 Y191.257 E3.27848
G1 X93.973 Y191.163 E3.30804
G1 X93.033 Y191.071 E3.33317
G1 X92.104 Y190.94 E3.35814
G1 X91.19 Y190.73 E3.38309
G1 X90.297 Y190.443 E3.40805
G1 X89.432 Y190.081 E3.433
G1 X88.6 Y189.647 E3.45797
G1 X87.809 Y189.144 E3.48291
G1 X87.063 Y188.575 E3.50787
G1 X86.369 Y187.944 E3.53283
G1 X85.731 Y187.257 E3.55778
G1 X85.154 Y186.518 E3.58273
G1 X84.641 Y185.732 E3.6077
G1 X84.198 Y184.906 E3.63264
G1 X83.827 Y184.044 E3.65761
G1 X83.53 Y183.155 E3.68255
G1 X83.31 Y182.243 E3.70751
G1 X83.169 Y181.316 E3.73246
G1 X83.109 Y180.447 E3.75564
G1 X83.094 Y179.784 E3.77329
G1 X83.095 Y171.206 E4.00153
G1 X83.106 Y170.5 E4.02032
G1 X83.161 Y169.563 E4.04529
G1 X83.321 Y168.504 E4.07379
G1 X83.878 Y165.731 E4.14905
G1 F1500 E-2.35095
G0 F6000 X83.895 Y171.218
G1 F1500 E4.14905
G1 F600 X83.906 Y170.512 E4.16784
G1 X83.96 Y169.611 E4.19185
G1 X84.105 Y168.661 E4.21742
G1 X84.667 Y165.864 E4.29333
G1 X84.867 Y164.799 E4.32217
G1 X85.073 Y163.919 E4.34621
G1 X85.355 Y163.062 E4.37022
G1 X85.713 Y162.232 E4.39427
G1 X86.142 Y161.438 E4.41829
G1 X86.64 Y160.684 E4.44233
G1 X87.203 Y159.978 E4.46636
G1 X87.826 Y159.324 E4.49039
G1 X88.504 Y158.728 E4.51441
G1 X89.233 Y158.194 E4.53845
G1 X90.005 Y157.727 E4.56246
G1 X90.817 Y157.33 E4.58651
G1 X91.66 Y157.006 E4.61054
G1 X92.528 Y156.758 E4.63456
G1 X93.038 Y156.65 E4.64843
G1 X96.064 Y156.091 E4.73031
G1 X98.489 Y155.578 E4.79626
G1 X99.38 Y155.43 E4.8203
G1 X100.448 Y155.358 E4.84878
G1 X101.343 Y155.346 E4.87259
G1 X114.519 Y155.348 E5.22318
G1 X115.215 Y155.358 E5.2417
G1 X116.116 Y155.411 E5.26572
G1 X117.009 Y155.543 E5.28974
G1 X118.316 Y155.888 E5.32571
G1 X119.576 Y156.311 E5.36107
G1 X122.064 Y157.111 E5.43061
G1 X124.508 Y157.821 E5.49833
G1 X127.005 Y158.471 E5.56698
G1 X128.486 Y158.831 E5.60754
G1 X129.354 Y159.083 E5.63159
G1 X130.195 Y159.411 E5.65561
G1 X131.004 Y159.812 E5.67963
G1 X131.775 Y160.283 E5.70367
G1 X132.501 Y160.82 E5.7277
G1 X133.176 Y161.419 E5.75171
G1 X133.796 Y162.076 E5.77575
G1 X134.356 Y162.785 E5.79979
G1 X134.742 Y163.357 E5.81815
G1 X135.201 Y164.135 E5.84219
G1 X135.591 Y164.95 E5.86623
G1 X135.906 Y165.796 E5.89025
G1 X136.145 Y166.667 E5.91428
G1 X136.307 Y167.555 E5.9383
G1 X136.399 Y168.77 E5.97072
G1 X136.405 Y169.147 E5.98075
G1 X136.379 Y170.049 E6.00476
G1 X136.329 Y170.564 E6.01853
G1 X136.284 Y170.927 E6.02826
G1 X136 Y172.92 E6.08183
G1 X135.713 Y175.432 E6.1491
G1 X135.487 Y178.063 E6.21936
G1 X135.383 Y179.583 E6.2599
G1 X135.282 Y180.48 E6.28392
G1 X135.101 Y181.365 E6.30796
G1 X134.843 Y182.23 E6.33198
G1 X134.51 Y183.07 E6.35602
G1 X134.103 Y183.876 E6.38004
G1 X133.627 Y184.643 E6.40406
G1 X133.085 Y185.366 E6.42811
G1 X132.481 Y186.037 E6.45213
G1 X131.819 Y186.652 E6.47617
G1 X131.107 Y187.207 E6.50019
G1 X130.347 Y187.696 E6.52424
G1 X129.548 Y188.116 E6.54826
G1 X128.715 Y188.464 E6.57228
G1 X127.854 Y188.737 E6.59631
G1 X126.678 Y188.979 E6.62826
G1 X123.615 Y189.457 E6.71074
G1 X121.105 Y189.925 E6.77868
G1 X118.545 Y190.479 E6.84838
G1 X117.388 Y190.754 E6.88002
G1 X116.501 Y190.924 E6.90405
G1 X115.19 Y191.03 E6.93905
G1 X114.374 Y191.043 E6.96076
G1 X101.278 Y191.046 E7.30922
G1 X100.425 Y191.035 E7.33192
G1 X99.25 Y190.95 E7.36327
G1 X97.77 Y190.757 E7.40298
G1 X95.168 Y190.462 E7.47266
G1 X94.187 Y190.379 E7.49885
G1 X93.11 Y190.274 E7.52765
G1 X92.216 Y190.147 E7.55167
G1 X91.337 Y189.941 E7.57569
G1 X90.48 Y189.657 E7.59972
G1 X89.65 Y189.299 E7.62377
G1 X88.856 Y188.87 E7.64778
G1 X88.103 Y188.371 E7.67182
G1 X87.397 Y187.808 E7.69585
G1 X86.744 Y187.185 E7.71986
G1 X86.148 Y186.506 E7.7439
G1 X85.615 Y185.777 E7.76793
G1 X85.148 Y185.004 E7.79196
G1 X84.751 Y184.193 E7.81598
G1 X84.428 Y183.349 E7.84003
G1 X84.18 Y182.481 E7.86405
G1 X84.011 Y181.594 E7.88808
G1 X83.908 Y180.424 E7.91933
G1 X83.894 Y179.784 E7.93636
G1 X83.895 Y171.218 E8.16429
G0 F6000 X83.495 Y171.212
G1 F600 X83.506 Y170.506 E8.18307
G1 X83.561 Y169.587 E8.20757
G1 X83.713 Y168.582 E8.23462
G1 X84.274 Y165.79 E8.31039
G1 X84.474 Y164.725 E8.33922
G1 X84.683 Y163.828 E8.36373
G1 X84.969 Y162.953 E8.38822
G1 X85.33 Y162.106 E8.41272
G1 X85.763 Y161.294 E8.43721
G1 X86.264 Y160.522 E8.4617
G1 X86.831 Y159.796 E8.48621
G1 X87.459 Y159.123 E8.5107
G1 X88.143 Y158.506 E8.53521
G1 X88.877 Y157.952 E8.55968
G1 X89.658 Y157.463 E8.5842
G1 X90.477 Y157.043 E8.60869
G1 X91.33 Y156.696 E8.63319
G1 X92.21 Y156.425 E8.65769
G1 X92.965 Y156.257 E8.67827
G1 X95.957 Y155.704 E8.75923
G1 X98.407 Y155.186 E8.82586
G1 X99.315 Y155.035 E8.85035
G1 X100.442 Y154.958 E8.88041
G1 X101.343 Y154.946 E8.90439
G1 X114.524 Y154.948 E9.25511
G1 X115.22 Y154.958 E9.27363
G1 X116.139 Y155.011 E9.29812
G1 X117.05 Y155.144 E9.32262
G1 X117.947 Y155.355 E9.34714
G1 X118.443 Y155.509 E9.36096
G1 X119.675 Y155.923 E9.39554
G1 X122.182 Y156.729 E9.46561
G1 X124.583 Y157.426 E9.53213
G1 X127.133 Y158.09 E9.60225
G1 X128.581 Y158.442 E9.6419
G1 X129.465 Y158.698 E9.66639
G1 X130.324 Y159.03 E9.69089
G1 X131.151 Y159.436 E9.7154
G1 X131.939 Y159.911 E9.73989
G1 X132.683 Y160.453 E9.76438
G1 X133.378 Y161.058 E9.7889
G1 X134.017 Y161.72 E9.81338
G1 X134.596 Y162.436 E9.83788
G1 X135.077 Y163.139 E9.86054
G1 X135.546 Y163.931 E9.88504
G1 X135.945 Y164.761 E9.90954
G1 X136.27 Y165.622 E9.93403
G1 X136.519 Y166.508 E9.95851
G1 X136.691 Y167.413 E9.98303
G1 X136.799 Y168.763 E10.01906
G1 X136.805 Y169.14 E10.02909
G1 X136.779 Y170.061 E10.05361
G1 X136.725 Y170.613 E10.06837
G1 X136.654 Y171.174 E10.08341
G1 X136.399 Y172.955 E10.13129
G1 X136.107 Y175.508 E10.19966
G1 X135.887 Y178.072 E10.26813
G1 X135.782 Y179.61 E10.30915
G1 X135.68 Y180.525 E10.33365
G1 X135.498 Y181.427 E10.35813
G1 X135.238 Y182.311 E10.38265
G1 X134.903 Y183.168 E10.40713
G1 X134.495 Y183.994 E10.43165
G1 X134.017 Y184.78 E10.45613
G1 X133.472 Y185.522 E10.48062
G1 X132.865 Y186.215 E10.50514
G1 X132.201 Y186.852 E10.52962
G1 X131.483 Y187.428 E10.55411
G1 X130.718 Y187.941 E10.57862
G1 X129.912 Y188.385 E10.6031
G1 X129.07 Y188.757 E10.6276
G1 X128.199 Y189.055 E10.65209
G1 X127.305 Y189.276 E10.6766
G1 X126.735 Y189.375 E10.69199
G1 X126.246 Y189.446 E10.70514
G1 X123.673 Y189.852 E10.77445
G1 X121.165 Y190.321 E10.84234
G1 X118.661 Y190.862 E10.9105
G1 X117.48 Y191.143 E10.9428
G1 X116.576 Y191.317 E10.9673
G1 X115.66 Y191.412 E10.9918
G1 X115.197 Y191.43 E11.00413
G1 X114.381 Y191.443 E11.02584
G1 X101.278 Y191.446 E11.37449
G1 X100.419 Y191.435 E11.39735
G1 X99.198 Y191.347 E11.42992
G1 X97.672 Y191.148 E11.47087
G1 X95.157 Y190.863 E11.53822
G1 X94.011 Y190.765 E11.56882
G1 X93.071 Y190.673 E11.59395
G1 X92.16 Y190.543 E11.61844
G1 X91.263 Y190.335 E11.64294
G1 X90.388 Y190.05 E11.66742
G1 X89.54 Y189.69 E11.69194
G1 X88.727 Y189.258 E11.71643
G1 X87.955 Y188.757 E11.74092
G1 X87.229 Y188.191 E11.76542
G1 X86.555 Y187.564 E11.78991
G1 X85.938 Y186.881 E11.8144
G1 X85.382 Y186.147 E11.8389
G1 X84.892 Y185.367 E11.86341
G1 X84.472 Y184.548 E11.8879
G1 X84.124 Y183.696 E11.91239
G1 X83.852 Y182.816 E11.9369
G1 X83.657 Y181.916 E11.9614
G1 X83.541 Y181.003 E11.98589
G1 X83.509 Y180.436 E12.001
G1 X83.494 Y179.784 E12.01835
G1 X83.495 Y171.212 E12.24644
G1 F1500 E5.74644
;MESH:void_switch-v18.stl
G0 F6000 X97.336 Y172.205
;TYPE:WALL-INNER
G1 F1500 E12.24644
G1 F421.1 X97.336 Y171.536 E12.27181
G1 F422.5 X96.973 Y171.65 E12.28618
G1 F425.5 X95.875 Y171.648 E12.32738
G1 F427 X95.576 Y171.573 E12.3389
G1 X95.575 Y172.209 E12.36268
G1 F425.5 X96.456 Y172.207 E12.39573
G1 F422.5 X97.337 Y172.205 E12.42902
G0 F6000 X97.821 Y172.815
G1 F600 X97.821 Y171.121 E12.47409
G1 X97.591 Y171.068 E12.48037
G1 X97.41 Y170.939 E12.48628
G1 X97.228 Y171.068 E12.49222
G1 X96.9 Y171.17 E12.50136
G1 X95.908 Y171.168 E12.52776
G1 X95.567 Y171.083 E12.53711
G1 X95.43 Y170.994 E12.54145
G1 X95.293 Y171.083 E12.5458
G1 X95.095 Y171.125 E12.55119
G1 X95.092 Y172.818 E12.59623
G1 X95.475 Y172.69 E12.60698
G1 X97.44 Y172.69 E12.65926
G1 X97.821 Y172.815 E12.66993
G0 F6000 X98.13 Y173.69
G1 F447.8 X98.175 Y173.345 E12.68234
G1 F539.3 X98.221 Y173 E12.69264
G1 F600 X98.221 Y170.834 E12.75027
G1 X98.184 Y170.77 E12.75224
G1 X98.034 Y170.77 E12.75623
G1 X97.768 Y170.709 E12.76349
G1 X97.612 Y170.598 E12.76859
G1 F562.1 X97.409 Y170.224 E12.78068
G1 X97.208 Y170.598 E12.79274
G1 F600 X97.051 Y170.709 E12.79785
G1 X96.857 Y170.77 E12.80326
G1 X95.935 Y170.769 E12.8278
G1 X95.731 Y170.718 E12.83339
G1 X95.575 Y170.617 E12.83834
G1 X95.43 Y170.322 E12.84708
G1 X95.284 Y170.617 E12.85584
G1 X95.129 Y170.718 E12.86076
G1 X94.882 Y170.77 E12.86748
G1 X94.731 Y170.77 E12.8715
G1 X94.694 Y170.857 E12.87401
G1 X94.692 Y173 E12.93103
G1 F539.3 X94.738 Y173.345 E12.94134
G1 F448.6 X94.785 Y173.69 E12.95373
G1 X94.949 Y173.45 E12.96407
G1 F539.3 X95.113 Y173.21 E12.97268
G1 F600 X95.475 Y173.09 E12.98282
G1 X97.44 Y173.09 E13.03511
G1 X97.803 Y173.209 E13.04527
G1 F539.3 X97.966 Y173.449 E13.05386
G1 F447.8 X98.13 Y173.69 E13.06426
G1 F1500 E6.56426
G0 F6000 X97.641 Y179.93
;TYPE:WALL-OUTER
G1 F1500 E13.06426
G1 F600 X98.621 Y179.93 E13.09033
G1 X98.621 Y170.726 E13.33523
G1 X98.414 Y170.37 E13.34619
G1 X98.034 Y170.37 E13.3563
G1 X97.893 Y170.313 E13.36035
G1 X97.834 Y170.188 E13.36403
G1 X97.833 Y166.87 E13.45231
G1 X96.985 Y166.87 E13.47488
G1 X96.985 Y170.188 E13.56316
G1 X96.926 Y170.313 E13.56684
G1 X96.816 Y170.368 E13.57011
G1 X95.916 Y170.37 E13.59406
G1 F505.3 X95.703 Y170.194 E13.60279
G1 F437.2 X95.702 Y166.944 E13.72148
G1 F438 X95.156 Y166.944 E13.74138
G1 F437.2 X95.156 Y170.194 E13.86007
G1 F505.3 X94.945 Y170.37 E13.86875
G1 F600 X94.501 Y170.37 E13.88057
G1 X94.294 Y170.726 E13.89152
G1 X94.294 Y170.857 E13.89501
G1 X94.295 Y179.931 E14.13645
G1 X95.275 Y179.93 E14.16253
G1 X95.275 Y173.69 E14.32856
G1 X95.354 Y173.53 E14.33331
G1 X95.475 Y173.49 E14.3367
G1 X97.44 Y173.49 E14.38899
G1 X97.561 Y173.529 E14.39237
G1 X97.64 Y173.69 E14.39714
G1 X97.641 Y179.93 E14.56317
G0 F6000 X98.131 Y179.44
;TYPE:WALL-INNER
G1 F413.8 X98.131 Y176.565 E14.6741
G1 F413.1 X98.13 Y173.69 E14.78521
G1 F1500 E8.28521
G0 F6000 X94.785 Y173.69
G1 F1500 E14.78521
G1 F413.8 X94.785 Y179.44 E15.00706
G1 F1500 E8.50706
G0 F6000 X97.409 Y170.224
G1 F1500 E15.00706
G1 F529.8 X97.409 Y168.759 E15.0512
G1 F532.2 X97.409 Y167.294 E15.09515
G1 F1500 E8.59515
G0 F6000 X101.218 Y167.441
G1 F1500 E15.09515
G1 F483.9 X102.065 Y166.595 E15.13465
G1 X101.218 Y166.595 E15.1626
G1 X101.218 Y167.441 E15.19051
G0 F6000 X100.864 Y168.583
G1 F442.8 X100.999 Y168.371 E15.19957
G1 F536.9 X101.134 Y168.158 E15.20707
G1 F600 X102.78 Y166.513 E15.26899
G1 F479 X103.084 Y166.247 E15.28245
G1 X102.629 Y166.147 E15.29798
G1 F600 X100.77 Y166.147 E15.34744
G1 X100.769 Y168.007 E15.39693
G1 F536.9 X100.816 Y168.295 E15.40561
G1 F442.8 X100.864 Y168.583 E15.41614
G1 F1500 E8.91614
G0 F6000 X100.794 Y172.215
G1 F1500 E15.41614
G1 F532.2 X100.858 Y172.056 E15.42128
G1 X101.339 Y171.575 E15.44169
G1 X101.116 Y171.353 E15.45113
G1 F456.3 X100.868 Y171.031 E15.46535
G1 X100.794 Y171.486 E15.48148
G1 F532.2 X100.794 Y172.215 E15.50335
G1 F1500 E9.00335
G0 F6000 X106.197 Y166.717
G1 F1500 E15.50335
G1 F528.6 X106.671 Y166.229 E15.52389
G1 F525.2 X106.76 Y166.183 E15.52694
G1 F528.6 X106.106 Y166.173 E15.54669
G1 F492.8 X105.819 Y166.207 E15.55605
G1 F430.9 X105.531 Y166.242 E15.5668
G1 X105.752 Y166.368 E15.57623
G1 F492.8 X105.974 Y166.494 E15.5845
G1 F531 X106.197 Y166.717 E15.59398
G1 F1500 E9.09398
G0 F6000 X114.066 Y171.741
G1 F1500 E15.59398
G1 F600 X114.066 Y166.947 E15.72154
G1 X109.368 Y166.947 E15.84654
G1 X113.93 Y171.509 E16.01821
G1 X114.066 Y171.741 E16.02537
G1 F1500 E9.52537
G0 F6000 X107.881 Y179.444
G1 F1500 E16.02537
G1 F600 X114.066 Y179.444 E16.18994
G1 X114.066 Y173.258 E16.35454
G1 X113.93 Y173.489 E16.36167
G1 X111.265 Y176.154 E16.46195
G1 X110.947 Y176.325 E16.47156
G1 X110.775 Y176.645 E16.48122
G1 X108.113 Y179.31 E16.58145
G1 X107.881 Y179.444 E16.58858
G1 F1500 E10.08858
G0 F6000 X106.362 Y179.444
G1 F1500 E16.58858
G1 F600 X106.13 Y179.31 E16.59571
G1 X101.569 Y174.748 E16.76736
G1 X101.569 Y179.445 E16.89233
G1 X106.362 Y179.444 E17.01987
G0 F6000 X106.075 Y179.844
G1 F582.5 X106.424 Y179.833 E17.02944
G1 F550.5 X106.773 Y179.822 E17.03956
G1 F520.6 X106.903 Y179.81 E17.04357
G1 F508.5 X107.34 Y179.809 E17.05729
G1 F521.7 X107.47 Y179.821 E17.06128
G1 F550.5 X107.819 Y179.832 E17.07141
G1 F582.5 X108.168 Y179.844 E17.08098
G1 F600 X114.466 Y179.844 E17.24856
G1 X114.466 Y173.545 E17.41616
G1 F582.5 X114.454 Y173.196 E17.42573
G1 F550.5 X114.442 Y172.847 E17.43586
G1 F521.7 X114.43 Y172.718 E17.43982
