;FLAVOR:Marlin
;TIME:1618
;Filament used: 0.426762m
;Layer height: 0.16
;MINX:83.095
;MINY:91.353
;MINZ:0.16
;MAXX:137.205
;MAXY:128.648
;MAXZ:10.24
;Generated with Cura_SteamEngine main
M82 ;absolute extrusion mode
; Ender 3 Custom Start G-code
G92 E0 ; Reset Extruder
G28 ; Home all axes
M104 S120 ; Start heating up the nozzle most of the way
M190 S68.0 ; Start heating the bed, wait until target temperature reached
M109 S250.0 ; Finish heating the nozzle
G1 Z2.0 F3000 ; Move Z Axis up little to prevent scratching of Heat Bed
G1 X0.1 Y20 Z0.3 F5000.0 ; Move to start position
G1 X0.1 Y200.0 Z0.3 F1500.0 E15 ; Draw the first line
G1 X0.4 Y200.0 Z0.3 F5000.0 ; Move to side a little
G1 X0.4 Y20 Z0.3 F1500.0 E30 ; Draw the second line
G92 E0 ; Reset Extruder
G1 Z2.0 F3000 ; Move Z Axis up little to prevent scratching of Heat Bed
G1 X5 Y20 Z0.3 F5000.0 ; Move over to prevent blob squish
G92 E0
G92 E0
G1 F1500 E-6.5
;LAYER_COUNT:64
;LAYER:0
M107
G0 F6000 X87.78 Y95.092 Z0.16
G0 X83.878 Y102.535
;TYPE:SKIRT
G1 F1500 E0
G1 F900 X84.081 Y101.455 E0.02924
G1 X84.293 Y100.542 E0.05418
G1 X84.582 Y99.649 E0.07915
G1 X84.946 Y98.785 E0.1041
G1 X85.383 Y97.955 E0.12906
G1 X85.888 Y97.165 E0.15401
G1 X86.459 Y96.421 E0.17896
G1 X87.091 Y95.728 E0.20392
G1 X87.78 Y95.092 E0.22887
G1 X88.521 Y94.517 E0.25382
G1 X89.308 Y94.007 E0.27878
G1 X90.136 Y93.565 E0.30375
G1 X90.998 Y93.196 E0.3287
G1 X91.888 Y92.902 E0.35364
G1 X93.009 Y92.646 E0.38424
G1 X93.627 Y92.539 E0.40092
G1 X96.139 Y92.07 E0.46892
G1 X98.318 Y91.606 E0.5282
G1 X99.243 Y91.45 E0.55316
G1 X100.431 Y91.366 E0.58485
G1 X101.24 Y91.353 E0.60638
G1 X114.512 Y91.355 E0.95952
G1 X115.246 Y91.367 E0.97905
G1 X116.182 Y91.423 E1.004
G1 X117.11 Y91.558 E1.02895
G1 X118.023 Y91.771 E1.0539
G1 X118.799 Y92.019 E1.07558
G1 X119.464 Y92.259 E1.09439
G1 X121.916 Y93.107 E1.16342
G1 X124.302 Y93.86 E1.23
G1 X126.746 Y94.552 E1.29758
G1 X128.837 Y95.088 E1.35502
G1 X129.735 Y95.359 E1.37998
G1 X130.606 Y95.706 E1.40492
G1 X131.445 Y96.126 E1.42989
G1 X132.245 Y96.616 E1.45485
G1 X133 Y97.172 E1.4798
G1 X133.705 Y97.79 E1.50475
G1 X134.355 Y98.466 E1.5297
G1 X134.945 Y99.195 E1.55465
G1 X135.471 Y99.972 E1.57962
G1 X136.097 Y101.125 E1.61453
G1 X136.512 Y102.108 E1.64292
G1 X136.802 Y103 E1.66788
G1 X137.015 Y103.913 E1.69282
G1 X137.149 Y104.842 E1.7178
G1 X137.205 Y105.951 E1.74734
G1 X137.205 Y106.335 E1.75756
G1 X137.165 Y107.272 E1.78252
G1 X137.096 Y107.879 E1.79877
G1 X136.742 Y110.379 E1.86595
G1 X136.454 Y112.911 E1.93376
G1 X136.239 Y115.438 E2.00124
G1 X136.18 Y116.272 E2.02349
G1 X136.074 Y117.204 E2.04845
G1 X135.889 Y118.123 E2.07339
G1 X135.626 Y119.024 E2.09837
G1 X135.287 Y119.898 E2.12331
G1 X134.875 Y120.741 E2.14827
G1 X134.393 Y121.545 E2.17322
G1 X133.844 Y122.306 E2.19819
G1 X133.232 Y123.016 E2.22313
G1 X132.562 Y123.673 E2.2481
G1 X131.838 Y124.269 E2.27305
G1 X131.066 Y124.802 E2.29801
G1 X130.252 Y125.267 E2.32295
G1 X129.401 Y125.661 E2.34791
G1 X128.52 Y125.982 E2.37285
G1 X127.614 Y126.226 E2.39782
G1 X127.034 Y126.339 E2.41354
G1 X125.84 Y126.54 E2.44576
G1 X123.244 Y127.02 E2.51601
G1 X120.834 Y127.535 E2.58158
G1 X118.389 Y128.141 E2.6486
G1 X117.574 Y128.336 E2.6709
G1 X116.653 Y128.515 E2.69587
G1 X115.721 Y128.615 E2.72081
G1 X115.22 Y128.636 E2.73415
G1 X114.479 Y128.648 E2.75387
G1 X101.132 Y128.645 E3.10901
G1 X100.427 Y128.634 E3.12777
G1 X99.491 Y128.579 E3.15272
G1 X98.891 Y128.502 E3.16881
G1 X98.191 Y128.392 E3.18767
G1 X96.779 Y128.151 E3.22578
G1 X94.185 Y127.783 E3.29549
G1 X92.728 Y127.599 E3.33457
G1 X91.804 Y127.442 E3.35951
G1 X90.896 Y127.207 E3.38446
G1 X90.011 Y126.895 E3.40943
G1 X89.156 Y126.509 E3.43439
G1 X88.337 Y126.052 E3.45935
G1 X87.56 Y125.527 E3.4843
G1 X86.831 Y124.937 E3.50925
G1 X86.154 Y124.288 E3.53421
G1 X85.536 Y123.583 E3.55915
G1 X84.979 Y122.828 E3.58412
G1 X84.489 Y122.029 E3.60906
G1 X84.069 Y121.19 E3.63402
G1 X83.722 Y120.319 E3.65897
G1 X83.45 Y119.421 E3.68394
G1 X83.255 Y118.504 E3.70888
G1 X83.14 Y117.573 E3.73384
G1 X83.109 Y117.002 E3.74906
G1 X83.095 Y116.374 E3.76577
G1 X83.095 Y108.01 E3.98832
G1 X83.106 Y107.304 E4.00711
G1 X83.161 Y106.367 E4.03208
G1 X83.321 Y105.308 E4.06058
G1 X83.878 Y102.535 E4.13584
G1 F1500 E-2.36416
G0 F6000 X83.895 Y108.022
G1 F1500 E4.13584
G1 F900 X83.906 Y107.316 E4.15463
G1 X83.96 Y106.415 E4.17864
G1 X84.105 Y105.465 E4.20422
G1 X84.667 Y102.668 E4.28013
G1 X84.867 Y101.603 E4.30896
G1 X85.073 Y100.723 E4.33301
G1 X85.355 Y99.866 E4.35701
G1 X85.713 Y99.036 E4.38106
G1 X86.142 Y98.242 E4.40508
G1 X86.64 Y97.488 E4.42912
G1 X87.203 Y96.782 E4.45315
G1 X87.826 Y96.128 E4.47718
G1 X88.504 Y95.532 E4.5012
G1 X89.233 Y94.998 E4.52525
G1 X90.005 Y94.531 E4.54925
G1 X90.817 Y94.134 E4.5733
G1 X91.66 Y93.81 E4.59733
G1 X92.528 Y93.562 E4.62135
G1 X93.146 Y93.435 E4.63814
G1 X93.676 Y93.343 E4.65245
G1 X96.326 Y92.848 E4.72419
G1 X98.484 Y92.389 E4.78289
G1 X99.375 Y92.24 E4.80693
G1 X100.444 Y92.166 E4.83544
G1 X101.419 Y92.152 E4.86138
G1 X114.499 Y92.155 E5.20942
G1 X115.233 Y92.167 E5.22895
G1 X116.134 Y92.222 E5.25297
G1 X117.027 Y92.356 E5.277
G1 X117.905 Y92.569 E5.30104
G1 X118.527 Y92.771 E5.31844
G1 X119.205 Y93.016 E5.33762
G1 X121.678 Y93.871 E5.40724
G1 X124.076 Y94.627 E5.47415
G1 X126.532 Y95.324 E5.54208
G1 X128.638 Y95.863 E5.59992
G1 X129.502 Y96.126 E5.62395
G1 X130.34 Y96.464 E5.64799
G1 X131.144 Y96.875 E5.67202
G1 X131.909 Y97.355 E5.69605
G1 X132.628 Y97.901 E5.72007
G1 X133.296 Y98.509 E5.74411
G1 X133.908 Y99.173 E5.76813
G1 X134.459 Y99.889 E5.79217
G1 X134.944 Y100.65 E5.81618
G1 X135.382 Y101.485 E5.84127
G1 X135.774 Y102.419 E5.86822
G1 X136.049 Y103.279 E5.89225
G1 X136.247 Y104.16 E5.91628
G1 X136.366 Y105.056 E5.94033
G1 X136.405 Y105.951 E5.96416
G1 X136.405 Y106.335 E5.97438
G1 X136.365 Y107.237 E5.9984
G1 X136.304 Y107.767 E6.0126
G1 X135.947 Y110.285 E6.08027
G1 X135.659 Y112.826 E6.14831
G1 X135.441 Y115.381 E6.21654
G1 X135.382 Y116.216 E6.23882
G1 X135.278 Y117.113 E6.26284
G1 X135.096 Y117.997 E6.28686
G1 X134.835 Y118.862 E6.3109
G1 X134.499 Y119.7 E6.33492
G1 X134.091 Y120.506 E6.35896
G1 X133.613 Y121.272 E6.38299
G1 X133.068 Y121.992 E6.40701
G1 X132.463 Y122.662 E6.43103
G1 X131.8 Y123.276 E6.45508
G1 X131.086 Y123.828 E6.47909
G1 X130.325 Y124.315 E6.50313
G1 X129.525 Y124.734 E6.52716
G1 X128.69 Y125.079 E6.5512
G1 X127.829 Y125.35 E6.57522
G1 X126.901 Y125.551 E6.60048
G1 X125.622 Y125.766 E6.63499
G1 X123.115 Y126.23 E6.70283
G1 X120.661 Y126.755 E6.7696
G1 X117.387 Y127.558 E6.8593
G1 X116.501 Y127.729 E6.88331
G1 X115.205 Y127.836 E6.91791
G1 X114.479 Y127.848 E6.93723
G1 X101.145 Y127.845 E7.29203
G1 X100.44 Y127.834 E7.31079
G1 X99.538 Y127.78 E7.33483
G1 X99.016 Y127.711 E7.34884
G1 X98.184 Y127.58 E7.37125
G1 X96.849 Y127.352 E7.40729
G1 X94.338 Y126.995 E7.47477
G1 X92.828 Y126.805 E7.51527
G1 X91.938 Y126.652 E7.5393
G1 X91.065 Y126.422 E7.56332
G1 X90.216 Y126.115 E7.58734
G1 X89.397 Y125.734 E7.61137
G1 X88.615 Y125.282 E7.63541
G1 X87.876 Y124.763 E7.65943
G1 X87.186 Y124.18 E7.68347
G1 X86.55 Y123.539 E7.7075
G1 X85.973 Y122.844 E7.73153
G1 X85.46 Y122.101 E7.75556
G1 X85.015 Y121.315 E7.77959
G1 X84.641 Y120.493 E7.80362
G1 X84.342 Y119.641 E7.82764
G1 X84.119 Y118.766 E7.85167
G1 X83.974 Y117.874 E7.87572
G1 X83.908 Y116.979 E7.8996
G1 X83.895 Y116.374 E7.9157
G1 X83.895 Y108.022 E8.13793
G0 F6000 X83.495 Y108.016
G1 F900 X83.506 Y107.31 E8.15672
G1 X83.561 Y106.391 E8.18121
G1 X83.713 Y105.386 E8.20826
G1 X84.274 Y102.594 E8.28403
G1 X84.474 Y101.529 E8.31287
G1 X84.683 Y100.632 E8.33737
G1 X84.969 Y99.757 E8.36187
G1 X85.33 Y98.91 E8.38637
G1 X85.763 Y98.098 E8.41085
G1 X86.264 Y97.326 E8.43534
G1 X86.831 Y96.6 E8.45985
G1 X87.459 Y95.927 E8.48434
G1 X88.143 Y95.31 E8.50885
G1 X88.877 Y94.756 E8.53332
G1 X89.658 Y94.267 E8.55784
G1 X90.477 Y93.847 E8.58233
G1 X91.33 Y93.5 E8.60683
G1 X92.21 Y93.229 E8.63133
G1 X93.077 Y93.041 E8.65494
G1 X93.612 Y92.948 E8.66939
G1 X96.217 Y92.462 E8.7399
G1 X98.401 Y91.997 E8.79931
G1 X99.309 Y91.845 E8.82381
G1 X100.438 Y91.766 E8.85392
G1 X101.247 Y91.753 E8.87545
G1 X114.505 Y91.755 E9.22822
G1 X115.239 Y91.767 E9.24775
G1 X116.158 Y91.822 E9.27225
G1 X117.069 Y91.957 E9.29676
G1 X117.965 Y92.17 E9.32126
G1 X118.663 Y92.395 E9.34077
G1 X119.347 Y92.642 E9.36013
G1 X121.77 Y93.48 E9.42834
G1 X124.21 Y94.249 E9.49642
G1 X126.653 Y94.942 E9.56398
G1 X128.738 Y95.476 E9.62125
G1 X129.619 Y95.743 E9.64575
G1 X130.473 Y96.085 E9.67022
G1 X131.295 Y96.5 E9.69473
G1 X132.078 Y96.985 E9.71923
G1 X132.815 Y97.537 E9.74373
G1 X133.502 Y98.15 E9.76823
G1 X134.133 Y98.82 E9.79272
G1 X134.704 Y99.542 E9.81721
G1 X135.209 Y100.312 E9.84172
G1 X135.739 Y101.304 E9.87164
G1 X136.143 Y102.264 E9.89936
G1 X136.425 Y103.14 E9.92384
G1 X136.631 Y104.037 E9.94833
G1 X136.758 Y104.949 E9.97283
G1 X136.805 Y105.951 E9.99952
G1 X136.805 Y106.335 E10.00974
G1 X136.765 Y107.255 E10.03424
G1 X136.7 Y107.823 E10.04945
G1 X136.342 Y110.35 E10.11736
G1 X136.06 Y112.833 E10.18386
G1 X135.838 Y115.446 E10.25364
G1 X135.781 Y116.244 E10.27492
G1 X135.676 Y117.159 E10.29943
G1 X135.492 Y118.061 E10.32392
G1 X135.23 Y118.943 E10.34841
G1 X134.893 Y119.8 E10.37291
G1 X134.483 Y120.624 E10.3974
G1 X134.003 Y121.409 E10.42188
G1 X133.456 Y122.15 E10.44639
G1 X132.847 Y122.841 E10.47089
G1 X132.181 Y123.476 E10.49538
G1 X131.461 Y124.051 E10.5199
G1 X130.695 Y124.561 E10.54438
G1 X129.888 Y125.003 E10.56887
G1 X129.045 Y125.373 E10.59336
G1 X128.173 Y125.669 E10.61786
G1 X126.967 Y125.945 E10.65078
G1 X125.767 Y126.147 E10.68316
G1 X123.158 Y126.629 E10.75376
G1 X120.751 Y127.144 E10.81925
G1 X117.481 Y127.947 E10.90885
G1 X116.577 Y128.122 E10.93335
G1 X115.213 Y128.236 E10.96977
G1 X114.479 Y128.248 E10.9893
G1 X101.139 Y128.245 E11.34425
G1 X100.434 Y128.234 E11.36301
G1 X99.515 Y128.179 E11.38751
G1 X98.953 Y128.106 E11.40259
G1 X98.117 Y127.974 E11.42511
G1 X96.837 Y127.756 E11.45966
G1 X94.226 Y127.385 E11.52983
G1 X92.778 Y127.202 E11.56866
G1 X91.871 Y127.047 E11.59315
G1 X90.98 Y126.814 E11.61765
G1 X90.113 Y126.505 E11.64214
G1 X89.276 Y126.122 E11.66663
G1 X88.475 Y125.667 E11.69115
G1 X87.717 Y125.145 E11.71564
G1 X87.007 Y124.559 E11.74013
G1 X86.351 Y123.913 E11.76463
G1 X85.753 Y123.213 E11.78913
G1 X85.218 Y122.464 E11.81362
G1 X84.75 Y121.671 E11.83812
G1 X84.352 Y120.84 E11.86263
G1 X84.029 Y119.979 E11.8871
G1 X83.781 Y119.092 E11.91161
G1 X83.611 Y118.187 E11.93611
G1 X83.508 Y116.991 E11.96805
G1 X83.495 Y116.374 E11.98447
G1 X83.495 Y108.016 E12.20686
G1 F1500 E5.70686
;MESH:void_switch-v19.stl
G0 F6000 X97.391 Y108.824
;TYPE:WALL-INNER
G1 F1500 E12.20686
G1 F780.9 X97.391 Y108.267 E12.22394
G1 X97.108 Y108.368 E12.23316
G1 F800 X96.785 Y108.394 E12.24286
G1 F814.5 X95.803 Y108.394 E12.27173
G1 F807.2 X95.519 Y108.31 E12.28052
G1 F803.6 X95.518 Y108.83 E12.29601
G1 F807.2 X96.152 Y108.832 E12.31482
G1 F814.5 X96.786 Y108.834 E12.33346
G1 F809 X97.088 Y108.829 E12.34241
G1 F791.2 X97.391 Y108.824 E12.35158
G0 F6000 X97.821 Y109.379
G1 F900 X97.821 Y107.925 E12.39027
G1 X97.591 Y107.872 E12.39655
G1 X97.41 Y107.743 E12.40246
G1 X97.228 Y107.872 E12.4084
G1 X96.941 Y107.974 E12.4165
G1 X95.865 Y107.974 E12.44513
G1 X95.567 Y107.887 E12.45339
G1 X95.43 Y107.798 E12.45774
G1 X95.293 Y107.887 E12.46209
G1 X95.095 Y107.929 E12.46747
G1 X95.092 Y109.382 E12.50613
G1 X95.475 Y109.254 E12.51688
G1 X97.44 Y109.254 E12.56916
G1 X97.821 Y109.379 E12.57983
G0 F6000 X98.13 Y110.254
G1 F671.6 X98.175 Y109.909 E12.59224
G1 F809 X98.221 Y109.564 E12.60254
G1 F900 X98.221 Y107.638 E12.65379
G1 X98.184 Y107.574 E12.65575
G1 X98.034 Y107.574 E12.65975
G1 X97.768 Y107.513 E12.66701
G1 X97.612 Y107.402 E12.6721
G1 F843.1 X97.409 Y107.028 E12.68419
G1 X97.208 Y107.402 E12.69625
G1 F900 X97.051 Y107.513 E12.70136
G1 X96.863 Y107.574 E12.70662
G1 X95.891 Y107.569 E12.73249
G1 X95.731 Y107.522 E12.73692
G1 X95.575 Y107.421 E12.74187
G1 X95.43 Y107.126 E12.75062
G1 X95.284 Y107.421 E12.75937
G1 X95.129 Y107.522 E12.7643
G1 X94.882 Y107.574 E12.77101
G1 X94.731 Y107.574 E12.77503
G1 X94.694 Y107.661 E12.77755
G1 X94.692 Y109.564 E12.82818
G1 F809 X94.738 Y109.909 E12.83848
G1 F672.9 X94.785 Y110.254 E12.85088
G1 X94.949 Y110.014 E12.86122
G1 F809 X95.113 Y109.774 E12.86982
G1 F900 X95.475 Y109.654 E12.87997
G1 X97.44 Y109.654 E12.93226
G1 X97.803 Y109.773 E12.94242
G1 F809 X97.966 Y110.013 E12.95101
G1 F671.6 X98.13 Y110.254 E12.9614
G1 F1500 E6.4614
G0 F6000 X97.641 Y116.494
;TYPE:WALL-OUTER
G1 F1500 E12.9614
G1 F900 X98.621 Y116.494 E12.98748
G1 X98.621 Y107.53 E13.22599
G1 X98.414 Y107.174 E13.23695
G1 X98.034 Y107.174 E13.24706
G1 X97.893 Y107.117 E13.25111
G1 X97.834 Y106.992 E13.25479
G1 X97.833 Y103.674 E13.34307
G1 X96.985 Y103.674 E13.36564
G1 X96.985 Y106.992 E13.45392
G1 X96.926 Y107.117 E13.4576
G1 X96.82 Y107.172 E13.46078
G1 X95.914 Y107.173 E13.48488
G1 F757.9 X95.703 Y106.998 E13.49355
G1 F655.7 X95.703 Y105.372 E13.55293
G1 F658.1 X95.703 Y103.746 E13.61209
G1 X95.156 Y103.747 E13.632
G1 X95.156 Y105.373 E13.69116
G1 F655.7 X95.156 Y106.999 E13.75054
G1 F757.9 X94.945 Y107.174 E13.7592
G1 F900 X94.501 Y107.174 E13.77102
G1 X94.294 Y107.53 E13.78197
G1 X94.294 Y107.661 E13.78546
G1 X94.295 Y116.494 E14.02049
G1 X95.275 Y116.494 E14.04657
G1 X95.275 Y110.254 E14.2126
G1 X95.354 Y110.094 E14.21735
G1 X95.475 Y110.054 E14.22074
G1 X97.44 Y110.054 E14.27302
G1 X97.561 Y110.093 E14.27641
G1 X97.64 Y110.254 E14.28118
G1 X97.641 Y116.494 E14.44721
G0 F6000 X98.131 Y116.004
;TYPE:WALL-INNER
G1 F620.7 X98.131 Y113.129 E14.55814
G1 F619.6 X98.13 Y110.254 E14.66925
G1 F1500 E8.16925
G0 F6000 X97.409 Y107.028
G1 F1500 E14.66925
G1 F794.7 X97.409 Y105.563 E14.71339
G1 F798.2 X97.409 Y104.098 E14.75735
G1 F1500 E8.25735
G0 F6000 X94.785 Y110.254
G1 F1500 E14.75735
G1 F620.7 X94.785 Y116.004 E14.97919
G1 F1500 E8.47919
G0 F6000 X100.819 Y108.865
G1 F1500 E14.97919
G1 F720 X101.422 Y108.261 E15.00758
G1 X101.141 Y107.98 E15.0208
G1 F628.3 X100.888 Y107.643 E15.03686
G1 X100.82 Y108.113 E15.05496
G1 F720 X100.819 Y108.865 E15.07997
G1 F1500 E8.57997
G0 F6000 X101.215 Y104.238
G1 F1500 E15.07997
G1 F733.2 X102.055 Y103.398 E15.11877
G1 X101.215 Y103.398 E15.14621
G1 X101.215 Y104.238 E15.17364
G0 F6000 X100.885 Y105.331
G1 F627.2 X101.03 Y105.119 E15.18345
G1 F786 X101.176 Y104.906 E15.19132
G1 F900 X102.724 Y103.358 E15.24957
G1 F691 X103.025 Y103.072 E15.26396
G1 X102.556 Y102.953 E15.28073
G1 F900 X100.77 Y102.953 E15.32825
G1 X100.77 Y104.738 E15.37574
G1 F786 X100.827 Y105.034 E15.38493
G1 F627.2 X100.885 Y105.331 E15.39648
G1 F1500 E8.89648
G0 F6000 X106.079 Y103.605
G1 F1500 E15.39648
G1 F720 X106.654 Y103.015 E15.42388
G1 X105.93 Y103.002 E15.44797
G1 F678 X105.634 Y103.035 E15.45849
G1 F603 X105.338 Y103.068 E15.47031
G1 X105.568 Y103.195 E15.48075
G1 F678 X105.798 Y103.323 E15.49005
G1 F721.4 X106.079 Y103.605 E15.50326
G1 F1500 E9.00326
G0 F6000 X114.066 Y108.545
G1 F1500 E15.50326
G1 F900 X114.066 Y103.754 E15.63074
G1 X109.373 Y103.754 E15.75561
G1 X113.93 Y108.313 E15.92713
G1 X114.066 Y108.545 E15.93428
G1 F1500 E9.43428
G0 F6000 X107.88 Y116.247
G1 F1500 E15.93428
G1 F900 X114.066 Y116.248 E16.09888
G1 X114.066 Y110.062 E16.26348
G1 X113.93 Y110.293 E16.27061
G1 X111.265 Y112.958 E16.37089
G1 X110.947 Y113.129 E16.3805
G1 X110.774 Y113.451 E16.39023
G1 X108.112 Y116.113 E16.4904
G1 X107.88 Y116.247 E16.49752
G1 F1500 E9.99752
G0 F6000 X106.361 Y116.247
G1 F1500 E16.49752
G1 F900 X106.13 Y116.113 E16.50463
G1 X101.569 Y111.552 E16.67626
G1 X101.569 Y116.246 E16.80116
G1 X106.361 Y116.247 E16.92866
G0 F6000 X106.075 Y116.646
G1 F873.8 X106.424 Y116.635 E16.93823
G1 F825.7 X106.773 Y116.623 E16.94836
G1 F782.6 X106.902 Y116.611 E16.95233
G1 F762.7 X107.34 Y116.611 E16.96608
G1 F782.6 X107.469 Y116.624 E16.97004
G1 F825.7 X107.818 Y116.635 E16.98017
G1 F873.8 X108.167 Y116.647 E16.98974
G1 F900 X114.466 Y116.648 E17.15735
G1 X114.466 Y110.349 E17.32495
G1 F873.8 X114.454 Y110 E17.33452
G1 F825.7 X114.442 Y109.651 E17.34465
G1 F782.6 X114.43 Y109.522 E17.34861
