;FLAVOR:Marlin
;TIME:1542
;Filament used: 0.412172m
;Layer height: 0.16
;MINX:83.095
;MINY:91.353
;MINZ:0.16
;MAXX:137.207
;MAXY:128.648
;MAXZ:10.56
;Generated with Cura_SteamEngine main
M82 ;absolute extrusion mode
; Ender 3 Custom Start G-code
G92 E0 ; Reset Extruder
G28 ; Home all axes
M104 S120 ; Start heating up the nozzle most of the way
M190 S68.0 ; Start heating the bed, wait until target temperature reached
M109 S252.0 ; Finish heating the nozzle
G1 Z2.0 F3000 ; Move Z Axis up little to prevent scratching of Heat Bed
G1 X0.1 Y20 Z0.3 F5000.0 ; Move to start position
G1 X0.1 Y200.0 Z0.3 F1500.0 E15 ; Draw the first line
G1 X0.4 Y200.0 Z0.3 F5000.0 ; Move to side a little
G1 X0.4 Y20 Z0.3 F1500.0 E30 ; Draw the second line
G92 E0 ; Reset Extruder
G1 Z2.0 F3000 ; Move Z Axis up little to prevent scratching of Heat Bed
G1 X5 Y20 Z0.3 F5000.0 ; Move over to prevent blob squish
G92 E0
G92 E0
G1 F1500 E-6.5
;LAYER_COUNT:66
;LAYER:0
M107
G0 F6000 X87.78 Y95.092 Z0.16
G0 X83.878 Y102.535
;TYPE:SKIRT
G1 F1500 E0
G1 F900 X84.081 Y101.455 E0.02924
G1 X84.293 Y100.542 E0.05418
G1 X84.582 Y99.649 E0.07915
G1 X84.946 Y98.785 E0.1041
G1 X85.383 Y97.955 E0.12906
G1 X85.888 Y97.165 E0.15401
G1 X86.459 Y96.421 E0.17896
G1 X87.091 Y95.728 E0.20392
G1 X87.78 Y95.092 E0.22887
G1 X88.521 Y94.517 E0.25382
G1 X89.308 Y94.007 E0.27878
G1 X90.136 Y93.565 E0.30375
G1 X90.998 Y93.196 E0.3287
G1 X91.888 Y92.902 E0.35364
G1 X93.009 Y92.646 E0.38424
G1 X93.627 Y92.539 E0.40092
G1 X96.139 Y92.07 E0.46892
G1 X98.318 Y91.606 E0.5282
G1 X99.243 Y91.45 E0.55316
G1 X100.431 Y91.366 E0.58485
G1 X101.24 Y91.353 E0.60638
G1 X114.334 Y91.354 E0.95478
G1 X115.303 Y91.373 E0.98057
G1 X116.239 Y91.433 E1.00553
G1 X117.166 Y91.573 E1.03047
G1 X118.48 Y91.914 E1.06659
G1 X119.309 Y92.185 E1.0898
G1 X120.538 Y92.609 E1.12439
G1 X122.964 Y93.372 E1.19206
G1 X125.374 Y94.056 E1.25872
G1 X127.293 Y94.549 E1.31144
G1 X128.404 Y94.821 E1.34187
G1 X129.017 Y94.986 E1.35876
G1 X129.909 Y95.276 E1.38372
G1 X130.773 Y95.641 E1.40868
G1 X131.603 Y96.078 E1.43364
G1 X132.392 Y96.585 E1.45859
G1 X133.136 Y97.156 E1.48355
G1 X134.165 Y98.133 E1.5213
G1 X134.856 Y98.938 E1.54953
G1 X135.403 Y99.699 E1.57447
G1 X135.884 Y100.504 E1.59942
G1 X136.294 Y101.348 E1.62439
G1 X136.631 Y102.223 E1.64934
G1 X136.893 Y103.124 E1.6743
G1 X137.076 Y104.043 E1.69924
G1 X137.181 Y104.975 E1.72419
G1 X137.207 Y105.794 E1.74599
G1 X137.205 Y106.166 E1.75589
G1 X137.16 Y107.103 E1.78085
G1 X137.096 Y107.651 E1.79553
G1 X136.742 Y110.147 E1.86261
G1 X136.458 Y112.646 E1.92953
G1 X136.236 Y115.253 E1.99915
G1 X136.18 Y116.038 E2.02009
G1 X136.074 Y116.97 E2.04505
G1 X135.889 Y117.89 E2.07002
G1 X135.627 Y118.79 E2.09496
G1 X135.288 Y119.665 E2.11993
G1 X134.876 Y120.507 E2.14487
G1 X134.394 Y121.312 E2.16984
G1 X133.845 Y122.072 E2.19478
G1 X133.234 Y122.783 E2.21973
G1 X132.564 Y123.44 E2.2447
G1 X131.84 Y124.037 E2.26967
G1 X131.069 Y124.57 E2.29461
G1 X130.255 Y125.035 E2.31955
G1 X129.404 Y125.429 E2.3445
G1 X128.522 Y125.75 E2.36948
G1 X127.379 Y126.045 E2.40089
G1 X126.773 Y126.167 E2.41733
G1 X125.297 Y126.443 E2.45729
G1 X122.821 Y126.978 E2.52469
G1 X120.417 Y127.568 E2.59055
G1 X118.967 Y127.972 E2.63061
G1 X117.817 Y128.275 E2.66225
G1 X116.9 Y128.475 E2.68722
G1 X115.97 Y128.596 E2.71218
G1 X115.22 Y128.636 E2.73216
G1 X114.479 Y128.648 E2.75188
G1 X101.131 Y128.645 E3.10705
G1 X100.43 Y128.634 E3.1257
G1 X99.38 Y128.567 E3.1537
G1 X96.846 Y128.284 E3.22154
G1 X94.242 Y128.063 E3.29108
G1 X93.332 Y127.999 E3.31535
G1 X92.4 Y127.893 E3.34031
G1 X91.481 Y127.709 E3.36525
G1 X90.58 Y127.446 E3.39022
G1 X89.705 Y127.108 E3.41518
G1 X88.862 Y126.697 E3.44013
G1 X88.058 Y126.215 E3.46508
G1 X87.297 Y125.667 E3.49003
G1 X86.586 Y125.056 E3.51497
G1 X85.929 Y124.386 E3.53994
G1 X85.332 Y123.663 E3.56489
G1 X84.798 Y122.891 E3.58987
G1 X84.332 Y122.077 E3.61482
G1 X83.938 Y121.227 E3.63975
G1 X83.617 Y120.345 E3.66473
G1 X83.372 Y119.44 E3.68967
G1 X83.206 Y118.517 E3.71463
G1 X83.109 Y117.364 E3.74541
G1 X83.095 Y116.734 E3.76218
G1 X83.095 Y108.01 E3.99431
G1 X83.106 Y107.304 E4.0131
G1 X83.161 Y106.367 E4.03807
G1 X83.321 Y105.308 E4.06657
G1 X83.878 Y102.535 E4.14183
G1 F1500 E-2.35817
G0 F6000 X83.895 Y108.022
G1 F1500 E4.14183
G1 F900 X83.906 Y107.316 E4.16062
G1 X83.96 Y106.415 E4.18463
G1 X84.105 Y105.465 E4.2102
G1 X84.673 Y102.637 E4.28695
G1 X84.867 Y101.603 E4.31495
G1 X85.073 Y100.723 E4.339
G1 X85.355 Y99.866 E4.363
G1 X85.713 Y99.036 E4.38705
G1 X86.142 Y98.242 E4.41107
G1 X86.64 Y97.488 E4.43511
G1 X87.203 Y96.782 E4.45914
G1 X87.826 Y96.128 E4.48317
G1 X88.504 Y95.532 E4.50719
G1 X89.233 Y94.998 E4.53123
G1 X90.005 Y94.531 E4.55524
G1 X90.817 Y94.134 E4.57929
G1 X91.66 Y93.81 E4.60332
G1 X92.528 Y93.562 E4.62734
G1 X93.146 Y93.435 E4.64413
G1 X93.676 Y93.343 E4.65844
G1 X96.326 Y92.848 E4.73017
G1 X98.484 Y92.389 E4.78888
G1 X99.375 Y92.24 E4.81292
G1 X100.444 Y92.166 E4.84143
G1 X101.419 Y92.152 E4.86737
G1 X114.556 Y92.156 E5.21692
G1 X115.286 Y92.172 E5.23635
G1 X116.187 Y92.232 E5.26038
G1 X117.079 Y92.371 E5.2844
G1 X118.231 Y92.675 E5.3161
G1 X119.226 Y93.002 E5.34397
G1 X120.278 Y93.366 E5.37359
G1 X122.716 Y94.132 E5.44159
G1 X125.198 Y94.836 E5.51023
G1 X127.076 Y95.319 E5.56183
G1 X128.214 Y95.598 E5.59301
G1 X128.802 Y95.757 E5.60921
G1 X129.661 Y96.038 E5.63326
G1 X130.491 Y96.393 E5.65728
G1 X131.286 Y96.821 E5.68131
G1 X132.041 Y97.317 E5.70534
G1 X132.749 Y97.878 E5.72938
G1 X133.588 Y98.686 E5.76037
G1 X134.247 Y99.458 E5.78738
G1 X134.771 Y100.194 E5.81142
G1 X135.227 Y100.973 E5.83544
G1 X135.613 Y101.79 E5.85948
G1 X135.925 Y102.637 E5.8835
G1 X136.161 Y103.509 E5.90754
G1 X136.319 Y104.398 E5.93156
G1 X136.398 Y105.298 E5.9556
G1 X136.407 Y105.79 E5.96869
G1 X136.405 Y106.162 E5.97859
G1 X136.36 Y107.064 E6.00262
G1 X136.304 Y107.539 E6.01535
G1 X135.947 Y110.057 E6.08302
G1 X135.662 Y112.556 E6.14994
G1 X135.438 Y115.195 E6.22041
G1 X135.382 Y115.982 E6.24141
G1 X135.279 Y116.879 E6.26543
G1 X135.096 Y117.764 E6.28948
G1 X134.836 Y118.628 E6.31349
G1 X134.501 Y119.467 E6.33752
G1 X134.092 Y120.272 E6.36155
G1 X133.614 Y121.038 E6.38557
G1 X133.07 Y121.759 E6.40961
G1 X132.464 Y122.429 E6.43364
G1 X131.802 Y123.043 E6.45767
G1 X131.088 Y123.596 E6.4817
G1 X130.327 Y124.083 E6.50574
G1 X129.527 Y124.501 E6.52976
G1 X128.693 Y124.847 E6.55378
G1 X127.831 Y125.118 E6.57782
G1 X127.221 Y125.26 E6.59449
G1 X126.478 Y125.409 E6.61465
G1 X125.124 Y125.662 E6.6513
G1 X122.638 Y126.199 E6.71898
G1 X120.234 Y126.789 E6.78484
G1 X118.909 Y127.159 E6.82145
G1 X117.613 Y127.501 E6.85711
G1 X116.73 Y127.693 E6.88115
G1 X115.834 Y127.805 E6.90518
G1 X115.205 Y127.836 E6.92194
G1 X114.479 Y127.848 E6.94126
G1 X101.144 Y127.845 E7.29608
G1 X100.443 Y127.834 E7.31473
G1 X99.469 Y127.772 E7.3407
G1 X96.93 Y127.488 E7.40868
G1 X94.294 Y127.265 E7.47907
G1 X93.388 Y127.201 E7.50324
G1 X92.491 Y127.098 E7.52726
G1 X91.606 Y126.916 E7.5513
G1 X90.741 Y126.656 E7.57533
G1 X89.903 Y126.321 E7.59935
G1 X89.097 Y125.913 E7.62338
G1 X88.331 Y125.435 E7.64741
G1 X87.61 Y124.891 E7.67144
G1 X86.939 Y124.286 E7.69548
G1 X86.325 Y123.624 E7.71951
G1 X85.772 Y122.91 E7.74354
G1 X85.284 Y122.15 E7.76757
G1 X84.866 Y121.35 E7.79159
G1 X84.519 Y120.516 E7.81562
G1 X84.248 Y119.654 E7.83966
G1 X84.055 Y118.772 E7.86369
G1 X83.94 Y117.876 E7.88772
G1 X83.909 Y117.339 E7.90204
G1 X83.895 Y116.734 E7.91814
G1 X83.895 Y108.022 E8.14995
G0 F6000 X83.495 Y108.016
G1 F900 X83.506 Y107.31 E8.16874
G1 X83.561 Y106.391 E8.19323
G1 X83.713 Y105.386 E8.22028
G1 X84.274 Y102.594 E8.29605
G1 X84.474 Y101.529 E8.32489
G1 X84.683 Y100.632 E8.34939
G1 X84.969 Y99.757 E8.37389
G1 X85.33 Y98.91 E8.39839
G1 X85.763 Y98.098 E8.42287
G1 X86.264 Y97.326 E8.44736
G1 X86.831 Y96.6 E8.47187
G1 X87.459 Y95.927 E8.49636
G1 X88.143 Y95.31 E8.52087
G1 X88.877 Y94.756 E8.54534
G1 X89.658 Y94.267 E8.56986
G1 X90.477 Y93.847 E8.59435
G1 X91.33 Y93.5 E8.61885
G1 X92.21 Y93.229 E8.64335
G1 X93.077 Y93.041 E8.66696
G1 X93.618 Y92.947 E8.68157
G1 X96.217 Y92.462 E8.75192
G1 X98.401 Y91.997 E8.81133
G1 X99.309 Y91.845 E8.83583
G1 X100.438 Y91.766 E8.86594
G1 X101.247 Y91.753 E8.88747
G1 X114.334 Y91.754 E9.23569
G1 X115.294 Y91.773 E9.26124
G1 X116.213 Y91.833 E9.28575
G1 X117.123 Y91.972 E9.31024
G1 X118.356 Y92.295 E9.34415
G1 X119.357 Y92.624 E9.37219
G1 X120.424 Y92.993 E9.40223
G1 X122.807 Y93.742 E9.4687
G1 X125.281 Y94.444 E9.53712
G1 X127.281 Y94.958 E9.59207
G1 X128.309 Y95.21 E9.62023
G1 X128.91 Y95.372 E9.63679
G1 X129.785 Y95.657 E9.66128
G1 X130.632 Y96.017 E9.68577
G1 X131.445 Y96.45 E9.71028
G1 X132.217 Y96.951 E9.73477
G1 X132.943 Y97.517 E9.75926
G1 X133.877 Y98.41 E9.79364
G1 X134.551 Y99.198 E9.82123
G1 X135.087 Y99.947 E9.84574
G1 X135.556 Y100.739 E9.87023
G1 X135.954 Y101.569 E9.89473
G1 X136.279 Y102.431 E9.91924
G1 X136.528 Y103.317 E9.94373
G1 X136.698 Y104.222 E9.96823
G1 X136.79 Y105.138 E9.99272
G1 X136.807 Y105.792 E10.01013
G1 X136.805 Y106.164 E10.02003
G1 X136.76 Y107.084 E10.04454
G1 X136.7 Y107.595 E10.05823
G1 X136.347 Y110.086 E10.12517
G1 X136.061 Y112.599 E10.19247
G1 X135.832 Y115.285 E10.2642
G1 X135.781 Y116.01 E10.28354
G1 X135.677 Y116.925 E10.30804
G1 X135.493 Y117.827 E10.33253
G1 X135.231 Y118.71 E10.35704
G1 X134.894 Y119.566 E10.38152
G1 X134.484 Y120.391 E10.40603
G1 X134.004 Y121.176 E10.43051
G1 X133.458 Y121.917 E10.45501
G1 X132.849 Y122.608 E10.47951
G1 X132.183 Y123.243 E10.504
G1 X131.464 Y123.818 E10.5285
G1 X130.697 Y124.329 E10.55302
G1 X129.89 Y124.771 E10.5775
G1 X129.047 Y125.141 E10.602
G1 X128.175 Y125.437 E10.6265
G1 X127.3 Y125.653 E10.65048
G1 X126.694 Y125.775 E10.66693
G1 X125.21 Y126.053 E10.7071
G1 X122.746 Y126.585 E10.77417
G1 X120.31 Y127.182 E10.84091
G1 X118.865 Y127.585 E10.88083
G1 X117.715 Y127.888 E10.91247
G1 X116.815 Y128.084 E10.93698
G1 X115.902 Y128.201 E10.96147
G1 X115.213 Y128.236 E10.97983
G1 X114.479 Y128.248 E10.99936
G1 X101.138 Y128.245 E11.35434
G1 X100.437 Y128.234 E11.37299
G1 X99.425 Y128.169 E11.39998
G1 X96.891 Y127.886 E11.46782
G1 X94.3 Y127.666 E11.53701
G1 X93.36 Y127.6 E11.56208
G1 X92.445 Y127.495 E11.58659
G1 X91.543 Y127.312 E11.61108
G1 X90.66 Y127.051 E11.63558
G1 X89.803 Y126.714 E11.66008
G1 X88.979 Y126.305 E11.68456
G1 X88.193 Y125.825 E11.70906
G1 X87.452 Y125.279 E11.73356
G1 X86.761 Y124.671 E11.75805
G1 X86.125 Y124.005 E11.78255
G1 X85.55 Y123.286 E11.80705
G1 X85.039 Y122.52 E11.83155
G1 X84.596 Y121.713 E11.85604
G1 X84.226 Y120.87 E11.88054
G1 X83.929 Y119.998 E11.90505
G1 X83.71 Y119.104 E11.92954
G1 X83.569 Y118.194 E11.95404
G1 X83.509 Y117.351 E11.97653
G1 X83.495 Y116.734 E11.99295
G1 X83.495 Y108.016 E12.22492
G1 F1500 E5.72492
;MESH:void_switch-v28.stl
G0 F6000 X97.421 Y109.224
;TYPE:WALL-INNER
G1 F1500 E12.22492
G1 F900 X97.421 Y108.224 E12.25153
G1 X96.911 Y108.374 E12.26567
G1 X95.932 Y108.374 E12.29172
G1 X95.495 Y108.273 E12.30366
G1 X95.494 Y109.224 E12.32896
G1 X97.421 Y109.224 E12.38024
G0 F6000 X97.821 Y109.75
G1 F900 X97.821 Y107.925 E12.4288
G1 X97.591 Y107.872 E12.43508
G1 X97.41 Y107.743 E12.44099
G1 X97.228 Y107.872 E12.44693
G1 X96.876 Y107.974 E12.45668
G1 X95.945 Y107.974 E12.48145
G1 X95.567 Y107.887 E12.49177
G1 X95.43 Y107.798 E12.49612
G1 X95.293 Y107.887 E12.50046
G1 X95.095 Y107.929 E12.50585
G1 X95.092 Y109.752 E12.55436
G1 X95.475 Y109.624 E12.5651
G1 X97.441 Y109.624 E12.61741
G1 X97.821 Y109.75 E12.62806
G0 F6000 X98.131 Y110.624
G1 F672.9 X98.176 Y110.279 E12.64045
G1 F809 X98.221 Y109.934 E12.65075
G1 F900 X98.221 Y107.638 E12.71184
G1 X98.184 Y107.574 E12.7138
G1 X98.034 Y107.574 E12.7178
G1 X97.768 Y107.513 E12.72506
G1 X97.612 Y107.402 E12.73015
G1 F843.1 X97.409 Y107.028 E12.74224
G1 X97.208 Y107.402 E12.7543
G1 F900 X97.051 Y107.513 E12.75942
G1 X96.853 Y107.571 E12.76491
G1 X95.957 Y107.574 E12.78875
G1 X95.731 Y107.522 E12.79492
G1 X95.575 Y107.421 E12.79986
G1 X95.43 Y107.126 E12.80861
G1 X95.284 Y107.421 E12.81737
G1 X95.129 Y107.522 E12.82229
G1 X94.882 Y107.574 E12.829
G1 X94.731 Y107.574 E12.83302
G1 X94.694 Y107.638 E12.83499
G1 X94.692 Y109.934 E12.89608
G1 F809 X94.738 Y110.279 E12.90638
G1 F672.9 X94.785 Y110.624 E12.91878
G1 X94.949 Y110.384 E12.92912
G1 F809 X95.113 Y110.144 E12.93773
G1 F900 X95.475 Y110.024 E12.94787
G1 X97.441 Y110.024 E13.00018
G1 X97.802 Y110.143 E13.0103
G1 F809 X97.966 Y110.383 E13.0189
G1 F672.9 X98.131 Y110.624 E13.0293
G1 F1500 E6.5293
G0 F6000 X97.641 Y116.834
;TYPE:WALL-OUTER
G1 F1500 E13.0293
G1 F900 X98.621 Y116.834 E13.05537
G1 X98.621 Y107.53 E13.30294
G1 X98.414 Y107.174 E13.31389
G1 X98.034 Y107.174 E13.324
G1 X97.893 Y107.117 E13.32805
G1 X97.834 Y106.992 E13.33173
G1 X97.833 Y103.674 E13.42001
G1 X96.985 Y103.674 E13.44258
G1 X96.985 Y106.992 E13.53086
G1 X96.926 Y107.117 E13.53454
G1 X96.808 Y107.173 E13.53802
G1 X95.916 Y107.174 E13.56175
G1 F757.9 X95.703 Y106.998 E13.57048
G1 F655.7 X95.703 Y105.372 E13.62986
G1 F658.1 X95.703 Y103.746 E13.68903
G1 X95.156 Y103.747 E13.70893
G1 X95.156 Y105.373 E13.7681
G1 F655.7 X95.156 Y106.999 E13.82748
G1 F757.9 X94.945 Y107.174 E13.83614
G1 F900 X94.501 Y107.174 E13.84795
G1 X94.294 Y107.53 E13.85891
G1 X94.295 Y116.834 E14.10647
G1 X95.275 Y116.834 E14.13255
G1 X95.275 Y110.624 E14.29778
G1 X95.354 Y110.464 E14.30253
G1 X95.475 Y110.424 E14.30592
G1 X97.441 Y110.424 E14.35823
G1 X97.562 Y110.463 E14.36162
G1 X97.641 Y110.624 E14.36639
G1 X97.641 Y116.834 E14.53162
G0 F6000 X98.131 Y116.344
;TYPE:WALL-INNER
G1 F620.7 X98.131 Y110.624 E14.75231
G1 F1500 E8.25231
G0 F6000 X94.785 Y110.624
G1 F1500 E14.75231
G1 F620.7 X94.785 Y116.344 E14.973
G1 F1500 E8.473
G0 F6000 X97.409 Y107.028
G1 F1500 E14.973
G1 F794.7 X97.409 Y105.563 E15.01715
G1 F798.2 X97.409 Y104.098 E15.0611
G1 F1500 E8.5611
G0 F6000 X96.992 Y108.795
;TYPE:SKIN
G1 F1500 E15.0611
G1 F671.6 X96.456 Y108.797 E15.08021
G1 F676.7 X95.92 Y108.799 E15.09918
G1 F1500 E8.59918
G0 F6000 X101.169 Y104.618
;TYPE:WALL-INNER
G1 F1500 E15.09918
G1 F900 X102.434 Y103.352 E15.1468
G1 X101.17 Y103.353 E15.18043
G1 X101.169 Y104.618 E15.21409
G0 F6000 X101.582 Y103.723
G1 F1052.6 X101.519 Y103.759 E15.21574
G1 X101.498 Y103.723 E15.21669
G1 X101.56 Y103.687 E15.21832
G1 F1500 E8.71832
G0 F6000 X100.846 Y109.412
G1 F1500 E15.21832
G1 F647.5 X101.044 Y108.932 E15.23752
G1 X101.516 Y108.46 E15.26221
G1 F661.8 X101.275 Y108.219 E15.27454
G1 F786 X101.139 Y107.809 E15.2877
G1 F942.4 X101.138 Y107.032 E15.30745
G1 F947.4 X101.137 Y106.255 E15.32709
G1 F952.4 X101.135 Y105.478 E15.34663
G1 F927.8 X101.298 Y105.055 E15.35833
G1 F900 X102.872 Y103.479 E15.41759
G1 F920.7 X103.194 Y103.321 E15.42692
G1 F947.4 X104.36 Y103.319 E15.4564
G1 F954.9 X105.526 Y103.316 E15.48564
G1 F867.5 X105.778 Y103.384 E15.49284
G1 F730.2 X106.032 Y103.453 E15.50147
G1 F663 X106.278 Y103.699 E15.51404
G1 F648.6 X106.751 Y103.226 E15.53874
G1 F644 X107.113 Y103.034 E15.55397
G1 X106.278 Y103.03 E15.58502
G1 F676.7 X106.168 Y103.007 E15.589
G1 F757.9 X105.847 Y102.974 E15.5992
G1 F880.2 X105.525 Y102.941 E15.608
G1 F957.4 X103.297 Y102.941 E15.66373
G1 F942.4 X102.975 Y102.947 E15.67191
G1 F913.7 X102.653 Y102.953 E15.68035
G1 F900 X100.77 Y102.953 E15.73046
G1 X100.769 Y104.836 E15.78056
G1 F913.7 X100.763 Y105.158 E15.789
G1 F942.4 X100.757 Y105.48 E15.79718
G1 F952.4 X100.757 Y106.267 E15.81697
G1 F947.4 X100.758 Y107.055 E15.83689
G1 F942.4 X100.759 Y107.843 E15.85692
G1 F867.5 X100.791 Y108.096 E15.86396
G1 F753.1 X100.824 Y108.35 E15.8721
G1 F675.4 X100.847 Y108.46 E15.87608
G1 F647.5 X100.846 Y109.412 E15.91129
G1 F1500 E9.41129
G0 F6000 X106.473 Y116.246
G1 F1500 E15.91129
G1 F900 X106.239 Y116.11 E15.9185
G1 X101.57 Y111.439 E16.09423
G1 X101.569 Y116.246 E16.22213
G1 X106.473 Y116.246 E16.35262
G1 F1500 E9.85262
G0 F6000 X107.987 Y116.246
G1 F1500 E16.35262
G1 F900 X114.066 Y116.248 E16.51437
G1 X114.066 Y110.167 E16.67617
G1 X113.928 Y110.403 E16.68345
G1 X111.492 Y112.839 E16.77511
G1 X111.29 Y113.005 E16.78207
G1 X110.975 Y113.157 E16.79137
G1 X110.823 Y113.472 E16.80068
G1 X110.657 Y113.674 E16.80764
