;FLAVOR:Marlin
;TIME:1526
;Filament used: 0.417705m
;Layer height: 0.16
;MINX:27.397
;MINY:138.835
;MINZ:0.16
;MAXX:81.509
;MAXY:176.134
;MAXZ:10.56
;Generated with Cura_SteamEngine main
M82 ;absolute extrusion mode
; Ender 3 Custom Start G-code
G92 E0 ; Reset Extruder
G28 ; Home all axes
M104 S120 ; Start heating up the nozzle most of the way
M190 S68.0 ; Start heating the bed, wait until target temperature reached
M109 S250.0 ; Finish heating the nozzle
G1 Z2.0 F3000 ; Move Z Axis up little to prevent scratching of Heat Bed
G1 X0.1 Y20 Z0.3 F5000.0 ; Move to start position
G1 X0.1 Y200.0 Z0.3 F1500.0 E15 ; Draw the first line
G1 X0.4 Y200.0 Z0.3 F5000.0 ; Move to side a little
G1 X0.4 Y20 Z0.3 F1500.0 E30 ; Draw the second line
G92 E0 ; Reset Extruder
G1 Z2.0 F3000 ; Move Z Axis up little to prevent scratching of Heat Bed
G1 X5 Y20 Z0.3 F5000.0 ; Move over to prevent blob squish
G92 E0
G92 E0
G1 F1500 E-6.5
;LAYER_COUNT:66
;LAYER:0
M107
G0 F6000 X36.19 Y140.387 Z0.16
G0 X28.18 Y150.02
;TYPE:SKIRT
G1 F1500 E0
G1 F900 X28.383 Y148.94 E0.02924
G1 X28.595 Y148.027 E0.05418
G1 X28.884 Y147.134 E0.07915
G1 X29.248 Y146.27 E0.1041
G1 X29.685 Y145.44 E0.12906
G1 X30.19 Y144.65 E0.15401
G1 X30.761 Y143.906 E0.17896
G1 X31.393 Y143.213 E0.20392
G1 X32.082 Y142.577 E0.22887
G1 X32.823 Y142.002 E0.25382
G1 X33.61 Y141.492 E0.27878
G1 X34.438 Y141.05 E0.30375
G1 X35.3 Y140.681 E0.3287
G1 X36.19 Y140.387 E0.35364
G1 X37.311 Y140.131 E0.38424
G1 X37.929 Y140.024 E0.40092
G1 X40.441 Y139.555 E0.46892
G1 X42.62 Y139.091 E0.5282
G1 X43.545 Y138.935 E0.55316
G1 X44.735 Y138.851 E0.5849
G1 X45.551 Y138.838 E0.60662
G1 X58.624 Y138.835 E0.95446
G1 X59.49 Y138.846 E0.97751
G1 X60.426 Y138.899 E1.00245
G1 X61.355 Y139.032 E1.02742
G1 X62.269 Y139.243 E1.05238
G1 X62.822 Y139.412 E1.06777
G1 X63.699 Y139.707 E1.09239
G1 X64.836 Y140.108 E1.12447
G1 X67.233 Y140.879 E1.19147
G1 X69.668 Y141.586 E1.25893
G1 X72.143 Y142.229 E1.32697
G1 X72.94 Y142.426 E1.34882
G1 X73.84 Y142.689 E1.37377
G1 X74.714 Y143.028 E1.39871
G1 X75.557 Y143.44 E1.42368
G1 X76.361 Y143.923 E1.44863
G1 X77.141 Y144.488 E1.47426
G1 X77.344 Y144.649 E1.48116
G1 X78.054 Y145.262 E1.50611
G1 X78.708 Y145.934 E1.53106
G1 X79.303 Y146.659 E1.55602
G1 X79.834 Y147.432 E1.58097
G1 X80.297 Y148.248 E1.60594
G1 X80.689 Y149.1 E1.63089
G1 X81.007 Y149.982 E1.65584
G1 X81.249 Y150.888 E1.68079
G1 X81.412 Y151.812 E1.70576
G1 X81.497 Y152.746 E1.73071
G1 X81.509 Y153.317 E1.74591
G1 X81.507 Y153.758 E1.75764
G1 X81.417 Y155.11 E1.7937
G1 X81.325 Y155.817 E1.81267
G1 X81.097 Y157.388 E1.85491
G1 X80.805 Y159.907 E1.92238
G1 X80.565 Y162.677 E1.99636
G1 X80.48 Y163.865 E2.02805
G1 X80.373 Y164.797 E2.05301
G1 X80.187 Y165.716 E2.07796
G1 X79.923 Y166.616 E2.10292
G1 X79.584 Y167.49 E2.12786
G1 X79.171 Y168.333 E2.15284
G1 X78.688 Y169.137 E2.1778
G1 X78.139 Y169.897 E2.20274
G1 X77.526 Y170.607 E2.2277
G1 X76.856 Y171.263 E2.25265
G1 X76.132 Y171.859 E2.2776
G1 X75.36 Y172.391 E2.30255
G1 X74.545 Y172.856 E2.32752
G1 X73.694 Y173.249 E2.35246
G1 X72.812 Y173.569 E2.37742
G1 X71.906 Y173.812 E2.40238
G1 X71.243 Y173.939 E2.42035
G1 X69.026 Y174.293 E2.48008
G1 X66.522 Y174.761 E2.54786
G1 X64.096 Y175.285 E2.6139
G1 X62.946 Y175.569 E2.64542
G1 X61.796 Y175.837 E2.67684
G1 X60.874 Y176.011 E2.70181
G1 X59.475 Y176.123 E2.73915
G1 X58.786 Y176.134 E2.75749
G1 X45.448 Y176.133 E3.11238
G1 X44.747 Y176.123 E3.13104
G1 X43.514 Y176.036 E3.16393
G1 X42.597 Y175.918 E3.18853
G1 X41.55 Y175.768 E3.21667
G1 X39.117 Y175.489 E3.28183
G1 X37.325 Y175.318 E3.32973
G1 X36.396 Y175.186 E3.3547
G1 X35.482 Y174.975 E3.37966
G1 X34.589 Y174.688 E3.40462
G1 X33.725 Y174.325 E3.42955
G1 X32.894 Y173.89 E3.45451
G1 X32.103 Y173.386 E3.47947
G1 X31.358 Y172.816 E3.50443
G1 X30.664 Y172.185 E3.52938
G1 X30.026 Y171.497 E3.55435
G1 X29.45 Y170.758 E3.57928
G1 X28.938 Y169.971 E3.60426
G1 X28.496 Y169.145 E3.62919
G1 X28.125 Y168.283 E3.65416
G1 X27.829 Y167.393 E3.67912
G1 X27.61 Y166.481 E3.70407
G1 X27.47 Y165.554 E3.72902
G1 X27.411 Y164.709 E3.75156
G1 X27.397 Y164.079 E3.76832
G1 X27.397 Y155.495 E3.99673
G1 X27.408 Y154.789 E4.01552
G1 X27.463 Y153.852 E4.04049
G1 X27.623 Y152.793 E4.06899
G1 X28.18 Y150.02 E4.14425
G1 F1500 E-2.35575
G0 F6000 X28.197 Y155.507
G1 F1500 E4.14425
G1 F900 X28.208 Y154.801 E4.16303
G1 X28.262 Y153.9 E4.18705
G1 X28.407 Y152.95 E4.21262
G1 X28.969 Y150.153 E4.28853
G1 X29.169 Y149.088 E4.31737
G1 X29.375 Y148.208 E4.34141
G1 X29.657 Y147.351 E4.36542
G1 X30.015 Y146.521 E4.38947
G1 X30.444 Y145.727 E4.41348
G1 X30.942 Y144.973 E4.43753
G1 X31.505 Y144.267 E4.46155
G1 X32.128 Y143.613 E4.48559
G1 X32.806 Y143.017 E4.50961
G1 X33.535 Y142.483 E4.53365
G1 X34.307 Y142.016 E4.55766
G1 X35.119 Y141.619 E4.58171
G1 X35.962 Y141.295 E4.60574
G1 X36.83 Y141.047 E4.62976
G1 X37.448 Y140.92 E4.64655
G1 X37.978 Y140.828 E4.66086
G1 X40.628 Y140.333 E4.73259
G1 X42.786 Y139.874 E4.7913
G1 X43.677 Y139.725 E4.81533
G1 X44.748 Y139.651 E4.8439
G1 X45.564 Y139.638 E4.86561
G1 X58.624 Y139.635 E5.21312
G1 X59.479 Y139.646 E5.23587
G1 X60.38 Y139.699 E5.25988
G1 X61.274 Y139.831 E5.28393
G1 X62.569 Y140.171 E5.31955
G1 X63.433 Y140.461 E5.3438
G1 X64.61 Y140.876 E5.37701
G1 X67.008 Y141.647 E5.44403
G1 X69.454 Y142.357 E5.5118
G1 X71.925 Y143 E5.57974
G1 X72.748 Y143.203 E5.6023
G1 X73.614 Y143.457 E5.62631
G1 X74.455 Y143.788 E5.65036
G1 X75.263 Y144.191 E5.67438
G1 X76.032 Y144.665 E5.69842
G1 X76.644 Y145.114 E5.71862
G1 X76.847 Y145.275 E5.72551
G1 X77.529 Y145.867 E5.74954
G1 X78.156 Y146.517 E5.77357
G1 X78.723 Y147.22 E5.7976
G1 X79.226 Y147.97 E5.82163
G1 X79.66 Y148.762 E5.84566
G1 X80.023 Y149.589 E5.86969
G1 X80.311 Y150.445 E5.89372
G1 X80.522 Y151.323 E5.91775
G1 X80.655 Y152.217 E5.9418
G1 X80.709 Y153.313 E5.971
G1 X80.707 Y153.754 E5.98273
G1 X80.624 Y155.008 E6.01617
G1 X80.556 Y155.537 E6.03036
G1 X80.303 Y157.289 E6.07746
G1 X80.01 Y159.812 E6.14505
G1 X79.768 Y162.617 E6.21996
G1 X79.682 Y163.808 E6.25173
G1 X79.577 Y164.705 E6.27576
G1 X79.394 Y165.589 E6.29978
G1 X79.133 Y166.454 E6.32383
G1 X78.796 Y167.292 E6.34786
G1 X78.387 Y168.097 E6.37188
G1 X77.908 Y168.863 E6.39592
G1 X77.364 Y169.583 E6.41993
G1 X76.757 Y170.252 E6.44397
G1 X76.094 Y170.865 E6.468
G1 X75.38 Y171.417 E6.49201
G1 X74.619 Y171.904 E6.51605
G1 X73.818 Y172.322 E6.54009
G1 X72.983 Y172.667 E6.56413
G1 X72.122 Y172.936 E6.58813
G1 X71.117 Y173.149 E6.61547
G1 X68.903 Y173.503 E6.67513
G1 X66.383 Y173.973 E6.74333
G1 X63.905 Y174.509 E6.81079
G1 X62.899 Y174.758 E6.83837
G1 X61.614 Y175.058 E6.87348
G1 X60.726 Y175.224 E6.89752
G1 X59.462 Y175.323 E6.93125
G1 X58.773 Y175.334 E6.94959
G1 X45.46 Y175.333 E7.30382
G1 X44.759 Y175.323 E7.32248
G1 X43.615 Y175.242 E7.35299
G1 X42.711 Y175.126 E7.37724
G1 X41.686 Y174.979 E7.4048
G1 X39.146 Y174.688 E7.47282
G1 X37.403 Y174.522 E7.51941
G1 X36.509 Y174.393 E7.54344
G1 X35.63 Y174.186 E7.56747
G1 X34.773 Y173.902 E7.59149
G1 X33.944 Y173.543 E7.61553
G1 X33.15 Y173.113 E7.63956
G1 X32.398 Y172.614 E7.66357
G1 X31.692 Y172.05 E7.68762
G1 X31.039 Y171.426 E7.71165
G1 X30.444 Y170.747 E7.73567
G1 X29.911 Y170.017 E7.75972
G1 X29.445 Y169.244 E7.78374
G1 X29.049 Y168.432 E7.80778
G1 X28.727 Y167.589 E7.83179
G1 X28.48 Y166.72 E7.85583
G1 X28.311 Y165.833 E7.87985
G1 X28.211 Y164.684 E7.91054
G1 X28.197 Y164.079 E7.92664
G1 X28.197 Y155.507 E8.15473
G0 F6000 X27.797 Y155.501
G1 F900 X27.808 Y154.795 E8.17351
G1 X27.863 Y153.876 E8.19801
G1 X28.015 Y152.871 E8.22506
G1 X28.576 Y150.079 E8.30083
G1 X28.776 Y149.014 E8.32966
G1 X28.985 Y148.117 E8.35417
G1 X29.271 Y147.242 E8.37866
G1 X29.632 Y146.395 E8.40316
G1 X30.065 Y145.583 E8.42765
G1 X30.566 Y144.811 E8.45214
G1 X31.133 Y144.085 E8.47665
G1 X31.761 Y143.412 E8.50114
G1 X32.445 Y142.795 E8.52565
G1 X33.179 Y142.241 E8.55012
G1 X33.96 Y141.752 E8.57464
G1 X34.779 Y141.332 E8.59913
G1 X35.632 Y140.985 E8.62363
G1 X36.512 Y140.714 E8.64813
G1 X37.379 Y140.526 E8.67174
G1 X37.914 Y140.433 E8.68619
G1 X40.519 Y139.947 E8.7567
G1 X42.703 Y139.482 E8.81611
G1 X43.611 Y139.33 E8.84061
G1 X44.741 Y139.251 E8.87075
G1 X45.557 Y139.238 E8.89246
G1 X58.624 Y139.235 E9.24015
G1 X59.484 Y139.246 E9.26304
G1 X60.404 Y139.299 E9.28756
G1 X61.315 Y139.432 E9.31205
G1 X62.211 Y139.643 E9.33655
G1 X62.696 Y139.792 E9.35005
G1 X63.566 Y140.084 E9.37446
G1 X64.718 Y140.491 E9.40697
G1 X67.147 Y141.271 E9.47485
G1 X69.519 Y141.96 E9.54058
G1 X72.044 Y142.617 E9.61
G1 X72.844 Y142.814 E9.63192
G1 X73.727 Y143.073 E9.65641
G1 X74.585 Y143.408 E9.68092
G1 X75.41 Y143.816 E9.70541
G1 X76.197 Y144.294 E9.72991
G1 X76.893 Y144.801 E9.75282
G1 X77.096 Y144.962 E9.75971
G1 X77.792 Y145.565 E9.78421
G1 X78.432 Y146.226 E9.8087
G1 X79.014 Y146.94 E9.83321
G1 X79.53 Y147.702 E9.85769
G1 X79.979 Y148.505 E9.88217
G1 X80.357 Y149.345 E9.90668
G1 X80.66 Y150.215 E9.93119
G1 X80.887 Y151.107 E9.95569
G1 X81.035 Y152.015 E9.98016
G1 X81.109 Y153.315 E10.01481
G1 X81.107 Y153.756 E10.02655
G1 X81.02 Y155.059 E10.06129
G1 X80.929 Y155.76 E10.0801
G1 X80.697 Y157.356 E10.12301
G1 X80.411 Y159.826 E10.18918
G1 X80.164 Y162.687 E10.26558
G1 X80.081 Y163.836 E10.29624
G1 X79.975 Y164.751 E10.32075
G1 X79.79 Y165.653 E10.34525
G1 X79.528 Y166.535 E10.36973
G1 X79.19 Y167.392 E10.39424
G1 X78.779 Y168.216 E10.41874
G1 X78.298 Y169.001 E10.44324
G1 X77.751 Y169.741 E10.46772
G1 X77.142 Y170.431 E10.49221
G1 X76.475 Y171.066 E10.51672
G1 X75.755 Y171.64 E10.54122
G1 X74.989 Y172.15 E10.5657
G1 X74.181 Y172.592 E10.59021
G1 X73.337 Y172.961 E10.61472
G1 X72.465 Y173.256 E10.63921
G1 X71.18 Y173.544 E10.67425
G1 X68.961 Y173.898 E10.73404
G1 X66.443 Y174.369 E10.8022
G1 X64.013 Y174.894 E10.86835
G1 X62.995 Y175.146 E10.89626
G1 X61.705 Y175.447 E10.9315
G1 X60.8 Y175.617 E10.95601
G1 X59.468 Y175.723 E10.99156
G1 X58.779 Y175.734 E11.00989
G1 X45.454 Y175.733 E11.36445
G1 X44.753 Y175.723 E11.3831
G1 X43.565 Y175.639 E11.41479
G1 X42.654 Y175.522 E11.43923
G1 X41.62 Y175.374 E11.46702
G1 X39.13 Y175.088 E11.53371
G1 X37.364 Y174.92 E11.58092
G1 X36.453 Y174.789 E11.6054
G1 X35.556 Y174.581 E11.62991
G1 X34.681 Y174.295 E11.6544
G1 X33.834 Y173.934 E11.6789
G1 X33.021 Y173.501 E11.70341
G1 X32.249 Y173 E11.7279
G1 X31.524 Y172.433 E11.75239
G1 X30.85 Y171.805 E11.7769
G1 X30.233 Y171.122 E11.80139
G1 X29.679 Y170.387 E11.82588
G1 X29.189 Y169.607 E11.85039
G1 X28.77 Y168.787 E11.87489
G1 X28.423 Y167.935 E11.89937
G1 X28.151 Y167.055 E11.92388
G1 X27.957 Y166.155 E11.94837
G1 X27.842 Y165.242 E11.97286
G1 X27.811 Y164.696 E11.98741
G1 X27.797 Y164.079 E12.00383
G1 X27.797 Y155.501 E12.23208
G1 F1500 E5.73208
;MESH:void_switch-v20.stl
G0 F6000 X41.647 Y156.463
;TYPE:WALL-INNER
G1 F1500 E12.23208
G1 F652.2 X41.647 Y155.814 E12.25591
G1 F655.7 X41.281 Y155.93 E12.26993
G1 F661.8 X40.16 Y155.926 E12.31049
G1 F664.2 X39.868 Y155.851 E12.32136
G1 X39.868 Y156.467 E12.34357
G1 F663 X40.461 Y156.466 E12.36499
G1 F658.1 X41.054 Y156.465 E12.38657
G1 F654.5 X41.647 Y156.463 E12.40827
G0 F6000 X42.123 Y157.065
G1 F900 X42.123 Y155.41 E12.4523
G1 X41.893 Y155.357 E12.45858
G1 X41.712 Y155.228 E12.4645
G1 X41.53 Y155.357 E12.47043
G1 X41.208 Y155.459 E12.47942
G1 X40.198 Y155.457 E12.50629
G1 X39.869 Y155.372 E12.51534
G1 X39.732 Y155.283 E12.51968
G1 X39.595 Y155.372 E12.52403
G1 X39.397 Y155.414 E12.52941
G1 X39.394 Y157.067 E12.5734
G1 X39.777 Y156.939 E12.58414
G1 X41.743 Y156.939 E12.63645
G1 X42.123 Y157.065 E12.64711
G0 F6000 X42.433 Y157.939
G1 F672.9 X42.478 Y157.594 E12.65949
G1 F809 X42.523 Y157.249 E12.66979
G1 F900 X42.523 Y155.123 E12.72636
G1 X42.486 Y155.059 E12.72832
G1 X42.336 Y155.059 E12.73232
G1 X42.07 Y154.998 E12.73958
G1 X41.914 Y154.887 E12.74467
G1 F843.1 X41.711 Y154.513 E12.75676
G1 X41.51 Y154.887 E12.76882
G1 F900 X41.353 Y154.998 E12.77393
G1 X41.159 Y155.059 E12.77935
G1 X40.23 Y155.058 E12.80406
G1 X40.033 Y155.007 E12.80948
G1 X39.877 Y154.906 E12.81442
G1 X39.732 Y154.611 E12.82317
G1 X39.586 Y154.906 E12.83193
G1 X39.431 Y155.007 E12.83685
G1 X39.184 Y155.059 E12.84357
G1 X39.033 Y155.059 E12.84758
G1 X38.996 Y155.123 E12.84955
G1 X38.994 Y157.249 E12.90612
G1 F809 X39.04 Y157.594 E12.91642
G1 F672.9 X39.087 Y157.939 E12.92882
G1 X39.251 Y157.699 E12.93916
G1 F809 X39.415 Y157.459 E12.94776
G1 F900 X39.777 Y157.339 E12.95791
G1 X41.743 Y157.339 E13.01022
G1 X42.104 Y157.458 E13.02034
G1 F809 X42.268 Y157.698 E13.02894
G1 F672.9 X42.433 Y157.939 E13.03934
G1 F1500 E6.53934
G0 F6000 X42.923 Y164.179
;TYPE:WALL-OUTER
G1 F1500 E13.03934
G1 F900 X42.923 Y155.015 E13.28317
G1 X42.716 Y154.659 E13.29413
G1 X42.336 Y154.659 E13.30424
G1 X42.195 Y154.602 E13.30829
G1 X42.136 Y154.477 E13.31197
G1 X42.135 Y151.159 E13.40025
G1 X41.287 Y151.159 E13.42282
G1 X41.287 Y154.477 E13.5111
G1 X41.228 Y154.602 E13.51478
G1 X41.12 Y154.657 E13.518
G1 X40.218 Y154.659 E13.542
G1 F757.9 X40.005 Y154.483 E13.55074
G1 F655.7 X40.005 Y152.857 E13.61012
G1 F658.1 X40.005 Y151.231 E13.66928
G1 X39.458 Y151.232 E13.68918
G1 X39.458 Y152.858 E13.74835
G1 F655.7 X39.458 Y154.484 E13.80773
G1 F757.9 X39.247 Y154.659 E13.81639
G1 F900 X38.803 Y154.659 E13.82821
G1 X38.596 Y155.015 E13.83916
G1 X38.597 Y164.179 E14.083
G1 X39.577 Y164.179 E14.10908
G1 X39.577 Y157.939 E14.27511
G1 X39.656 Y157.779 E14.27986
G1 X39.777 Y157.739 E14.28325
G1 X41.743 Y157.739 E14.33556
G1 X41.864 Y157.778 E14.33894
G1 X41.943 Y157.939 E14.34372
G1 X41.943 Y164.179 E14.50975
G1 X42.923 Y164.179 E14.53583
G0 F6000 X42.433 Y163.689
;TYPE:WALL-INNER
G1 F620.7 X42.433 Y157.939 E14.75767
G1 F1500 E8.25767
G0 F6000 X39.087 Y157.939
G1 F1500 E14.75767
G1 F620.7 X39.087 Y163.689 E14.97952
G1 F1500 E8.47952
G0 F6000 X41.711 Y154.513
G1 F1500 E14.97952
G1 F794.7 X41.711 Y153.048 E15.02366
G1 F798.2 X41.711 Y151.583 E15.06761
G1 F1500 E8.56761
G0 F6000 X45.549 Y151.862
G1 F1500 E15.06761
G1 F648.6 X46.496 Y150.914 E15.11708
G1 X45.548 Y150.914 E15.15208
G1 X45.549 Y151.862 E15.18708
G1 F1500 E8.68708
G0 F6000 X45.148 Y156.897
G1 F1500 E15.18708
G1 F651 X45.348 Y156.42 E15.20611
G1 F654.5 X45.809 Y155.958 E15.22999
G1 F672.9 X45.556 Y155.705 E15.24272
G1 F812.6 X45.417 Y155.286 E15.25573
G1 F986.3 X45.415 Y154.114 E15.28418
G1 F994.5 X45.412 Y152.942 E15.31241
G1 F947.4 X45.567 Y152.518 E15.32382
G1 F900 X47.153 Y150.932 E15.3835
G1 F939.9 X47.477 Y150.782 E15.39259
G1 F989 X48.649 Y150.78 E15.42097
G1 F997.2 X49.821 Y150.777 E15.44912
G1 F900 X50.077 Y150.846 E15.45617
G1 F750 X50.334 Y150.915 E15.46467
G1 F672.9 X50.593 Y151.174 E15.4777
G1 F654.5 X51.054 Y150.713 E15.50156
G1 F646.3 X51.415 Y150.519 E15.51674
G1 F642.9 X51.004 Y150.515 E15.53205
G1 F651 X50.593 Y150.511 E15.54717
G1 F692.3 X50.451 Y150.482 E15.55218
G1 F787.7 X50.136 Y150.45 E15.56181
G1 F918.4 X49.821 Y150.417 E15.57007
G1 F997.2 X48.633 Y150.418 E15.5986
G1 F989 X47.445 Y150.419 E15.62736
G1 F939.9 X46.948 Y150.437 E15.64003
G1 F900 X45.071 Y150.437 E15.68998
G1 X45.072 Y152.313 E15.73989
G1 F923.1 X45.062 Y152.628 E15.74807
G1 F973 X45.051 Y152.943 E15.75583
G1 F994.5 X45.052 Y154.13 E15.78441
G1 F986.3 X45.053 Y155.317 E15.81323
G1 F906.8 X45.085 Y155.566 E15.81986
G1 F784.3 X45.117 Y155.815 E15.82753
G1 F692.3 X45.146 Y155.958 E15.83257
G1 F651 X45.148 Y156.897 E15.86711
G1 F1500 E9.36711
G0 F6000 X50.783 Y163.735
G1 F1500 E15.86711
G1 F900 X50.541 Y163.594 E15.87457
G1 X45.872 Y158.924 E16.05028
G1 X45.871 Y163.732 E16.17821
G1 X50.783 Y163.735 E16.30891
G1 F1500 E9.80891
G0 F6000 X58.368 Y163.735
G1 F1500 E16.30891
G1 F900 X58.368 Y157.652 E16.47077
G1 X58.23 Y157.888 E16.47804
G1 X55.794 Y160.324 E16.56971
G1 X55.591 Y160.49 E16.57668
G1 X55.277 Y160.643 E16.58598
G1 X55.124 Y160.957 E16.59527
G1 X54.959 Y161.158 E16.60219
G1 X52.523 Y163.594 E16.69386
G1 X52.28 Y163.735 E16.70133
G1 X58.368 Y163.735 E16.86332
G1 F1500 E10.36332
G0 F6000 X58.368 Y156.144
G1 F1500 E16.86332
G1 F900 X58.368 Y151.235 E16.99394
G1 X53.559 Y151.237 E17.1219
G1 X58.229 Y155.906 E17.29761
G1 X58.368 Y156.144 E17.30494
G1 F1500 E10.80494
G0 F6000 X58.768 Y164.135
G1 F1500 E17.30494
