;FLAVOR:Marlin
;TIME:1486
;Filament used: 0.428475m
;Layer height: 0.16
;MINX:133.345
;MINY:126.147
;MINZ:0.16
;MAXX:187.456
;MAXY:164.238
;MAXZ:10.4
;Generated with Cura_SteamEngine main
M82 ;absolute extrusion mode
; Ender 3 Custom Start G-code
G92 E0 ; Reset Extruder
G28 ; Home all axes
M104 S120 ; Start heating up the nozzle most of the way
M190 S68.0 ; Start heating the bed, wait until target temperature reached
M109 S252.0 ; Finish heating the nozzle
G1 Z2.0 F3000 ; Move Z Axis up little to prevent scratching of Heat Bed
G1 X0.1 Y20 Z0.3 F5000.0 ; Move to start position
G1 X0.1 Y200.0 Z0.3 F1500.0 E15 ; Draw the first line
G1 X0.4 Y200.0 Z0.3 F5000.0 ; Move to side a little
G1 X0.4 Y20 Z0.3 F1500.0 E30 ; Draw the second line
G92 E0 ; Reset Extruder
G1 Z2.0 F3000 ; Move Z Axis up little to prevent scratching of Heat Bed
G1 X5 Y20 Z0.3 F5000.0 ; Move over to prevent blob squish
G92 E0
G92 E0
G1 F1500 E-4
;LAYER_COUNT:65
;LAYER:0
M106 S25.5
G0 F7500 X137.341 Y130.073 Z0.16
G0 X134.123 Y136.91
;TYPE:SKIRT
G1 F1500 E0
G1 X134.331 Y135.8 E0.03005
G1 X134.543 Y134.886 E0.05501
G1 X134.832 Y133.994 E0.07996
G1 X135.196 Y133.13 E0.10491
G1 X135.633 Y132.299 E0.12989
G1 X136.138 Y131.509 E0.15484
G1 X136.709 Y130.765 E0.1798
G1 X137.341 Y130.073 E0.20473
G1 X138.03 Y129.436 E0.2297
G1 X138.771 Y128.861 E0.25466
G1 X139.558 Y128.351 E0.27961
G1 X140.385 Y127.909 E0.30456
G1 X141.247 Y127.54 E0.32951
G1 X142.138 Y127.245 E0.35448
G1 X143.05 Y127.028 E0.37943
G1 X144.02 Y126.884 E0.40552
G1 X146.325 Y126.647 E0.46717
G1 X147.913 Y126.432 E0.50981
G1 X148.132 Y126.412 E0.51566
G1 X149.395 Y126.249 E0.54955
G1 X150.645 Y126.16 E0.58289
G1 X151.513 Y126.149 E0.60599
G1 X164.518 Y126.147 E0.95203
G1 X165.371 Y126.158 E0.97473
G1 X166.307 Y126.212 E0.99967
G1 X167.236 Y126.345 E1.02465
G1 X167.87 Y126.483 E1.04191
G1 X168.131 Y126.548 E1.04907
G1 X168.76 Y126.724 E1.06645
G1 X169.303 Y126.894 E1.08159
G1 X170.816 Y127.391 E1.12396
G1 X173.206 Y128.102 E1.19031
G1 X175.632 Y128.75 E1.25712
G1 X178.695 Y129.467 E1.34083
G1 X179.598 Y129.72 E1.36578
G1 X180.476 Y130.048 E1.39072
G1 X181.195 Y130.384 E1.41183
G1 X181.463 Y130.521 E1.41984
G1 X182.279 Y130.983 E1.44479
G1 X183.053 Y131.513 E1.46975
G1 X183.779 Y132.107 E1.49471
G1 X184.451 Y132.76 E1.51965
G1 X185.066 Y133.469 E1.54462
G1 X185.618 Y134.227 E1.56957
G1 X186.103 Y135.029 E1.59451
G1 X186.518 Y135.87 E1.61946
G1 X186.86 Y136.744 E1.64443
G1 X187.127 Y137.643 E1.66939
G1 X187.315 Y138.562 E1.69435
G1 X187.425 Y139.493 E1.71929
G1 X187.456 Y140.315 E1.74118
G1 X187.456 Y140.795 E1.75395
G1 X187.416 Y141.732 E1.77891
G1 X187.349 Y142.328 E1.79486
G1 X187.029 Y144.603 E1.85599
G1 X186.747 Y147.079 E1.9223
G1 X186.52 Y149.733 E1.99318
G1 X186.43 Y150.998 E2.02692
G1 X186.324 Y151.93 E2.05188
G1 X186.139 Y152.849 E2.07682
G1 X185.876 Y153.75 E2.1018
G1 X185.537 Y154.624 E2.12674
G1 X185.125 Y155.467 E2.15171
G1 X184.643 Y156.271 E2.17665
G1 X184.094 Y157.032 E2.20162
G1 X183.482 Y157.742 E2.22656
G1 X182.812 Y158.399 E2.25153
G1 X182.088 Y158.995 E2.27648
G1 X181.316 Y159.528 E2.30144
G1 X180.502 Y159.993 E2.32638
G1 X179.651 Y160.388 E2.35135
G1 X178.769 Y160.708 E2.37631
G1 X177.864 Y160.952 E2.40125
G1 X177.332 Y161.057 E2.41568
G1 X176.526 Y161.196 E2.43745
G1 X173.952 Y161.679 E2.50713
G1 X171.494 Y162.212 E2.57405
G1 X167.931 Y163.106 E2.6718
G1 X167.012 Y163.296 E2.69677
G1 X166.081 Y163.406 E2.72171
G1 X165.407 Y163.436 E2.73966
G1 X164.535 Y163.447 E2.76287
G1 X161.689 Y163.447 E2.83859
G1 X159.081 Y163.484 E2.90799
G1 X156.56 Y163.591 E2.97513
G1 X154.092 Y163.766 E3.04097
G1 X151.397 Y164.035 E3.11303
G1 X150.312 Y164.159 E3.14209
G1 X149.382 Y164.225 E3.1669
G1 X148.79 Y164.238 E3.18265
G1 X144.912 Y164.238 E3.28584
G1 X144.213 Y164.229 E3.30444
G1 X143.277 Y164.177 E3.32938
G1 X142.348 Y164.045 E3.35435
G1 X141.434 Y163.835 E3.3793
G1 X140.542 Y163.548 E3.40424
G1 X139.677 Y163.186 E3.42919
G1 X138.846 Y162.751 E3.45414
G1 X138.055 Y162.247 E3.4791
G1 X137.309 Y161.677 E3.50408
G1 X136.615 Y161.047 E3.52902
G1 X135.978 Y160.359 E3.55397
G1 X135.401 Y159.619 E3.57894
G1 X134.889 Y158.833 E3.6039
G1 X134.446 Y158.007 E3.62884
G1 X134.075 Y157.145 E3.65381
G1 X133.779 Y156.255 E3.67876
G1 X133.56 Y155.343 E3.70372
G1 X133.419 Y154.416 E3.72867
G1 X133.36 Y153.555 E3.75163
G1 X133.345 Y152.892 E3.76928
G1 X133.346 Y142.368 E4.0493
G1 X133.356 Y141.666 E4.06798
G1 X133.409 Y140.73 E4.09293
G1 X133.571 Y139.655 E4.12186
G1 X134.123 Y136.91 E4.19636
G1 F1500 E0.19636
G0 F7500 X134.146 Y142.38
G1 F1500 E4.19636
G1 X134.156 Y141.678 E4.21504
G1 X134.209 Y140.776 E4.23908
G1 X134.355 Y139.813 E4.265
G1 X134.921 Y136.999 E4.34137
G1 X135.118 Y135.947 E4.36985
G1 X135.323 Y135.068 E4.39387
G1 X135.606 Y134.21 E4.4179
G1 X135.963 Y133.381 E4.44192
G1 X136.392 Y132.586 E4.46596
G1 X136.89 Y131.833 E4.48998
G1 X137.453 Y131.126 E4.51403
G1 X138.076 Y130.472 E4.53806
G1 X138.754 Y129.876 E4.56208
G1 X139.482 Y129.342 E4.5861
G1 X140.255 Y128.874 E4.61015
G1 X141.066 Y128.477 E4.63417
G1 X141.909 Y128.153 E4.6582
G1 X142.777 Y127.905 E4.68222
G1 X144.102 Y127.68 E4.71798
G1 X146.423 Y127.442 E4.78007
G1 X148.021 Y127.225 E4.82298
G1 X148.208 Y127.208 E4.82797
G1 X149.497 Y127.042 E4.86255
G1 X150.657 Y126.96 E4.8935
G1 X151.513 Y126.949 E4.91627
G1 X164.518 Y126.947 E5.26231
G1 X165.359 Y126.958 E5.28469
G1 X166.261 Y127.011 E5.30873
G1 X167.154 Y127.144 E5.33276
G1 X167.938 Y127.324 E5.35416
G1 X168.521 Y127.488 E5.37027
G1 X169.205 Y127.703 E5.38935
G1 X170.58 Y128.156 E5.42787
G1 X172.991 Y128.873 E5.4948
G1 X175.437 Y129.526 E5.56216
G1 X178.512 Y130.246 E5.6462
G1 X179.382 Y130.491 E5.67025
G1 X180.226 Y130.811 E5.69426
G1 X180.831 Y131.096 E5.71206
G1 X181.099 Y131.233 E5.72007
G1 X181.884 Y131.679 E5.74409
G1 X182.626 Y132.193 E5.76811
G1 X183.321 Y132.771 E5.79216
G1 X183.961 Y133.407 E5.81617
G1 X184.543 Y134.098 E5.84021
G1 X185.061 Y134.838 E5.86424
G1 X185.512 Y135.621 E5.88828
G1 X185.891 Y136.44 E5.9123
G1 X186.197 Y137.29 E5.93633
G1 X186.426 Y138.163 E5.96035
G1 X186.578 Y139.054 E5.9844
G1 X186.656 Y140.315 E6.01802
G1 X186.656 Y140.795 E6.03079
G1 X186.616 Y141.697 E6.05481
G1 X186.556 Y142.217 E6.06874
G1 X186.237 Y144.482 E6.1296
G1 X185.952 Y146.99 E6.19677
G1 X185.722 Y149.675 E6.26847
G1 X185.632 Y150.942 E6.30227
G1 X185.528 Y151.839 E6.32629
G1 X185.346 Y152.723 E6.35031
G1 X185.085 Y153.588 E6.37435
G1 X184.749 Y154.426 E6.39837
G1 X184.341 Y155.232 E6.42241
G1 X183.863 Y155.998 E6.44644
G1 X183.318 Y156.718 E6.47046
G1 X182.713 Y157.388 E6.49448
G1 X182.05 Y158.002 E6.51853
G1 X181.336 Y158.554 E6.54254
G1 X180.575 Y159.042 E6.5666
G1 X179.775 Y159.46 E6.59061
G1 X178.94 Y159.805 E6.61465
G1 X178.079 Y160.076 E6.63867
G1 X177.196 Y160.269 E6.66272
G1 X176.317 Y160.421 E6.68645
G1 X173.805 Y160.892 E6.75446
G1 X171.316 Y161.432 E6.82223
G1 X167.736 Y162.33 E6.92044
G1 X166.851 Y162.511 E6.94447
G1 X165.954 Y162.613 E6.96849
G1 X165.396 Y162.636 E6.98335
G1 X164.535 Y162.647 E7.00626
G1 X161.677 Y162.647 E7.08231
G1 X159.071 Y162.684 E7.15166
G1 X156.504 Y162.793 E7.22002
G1 X154.029 Y162.968 E7.28604
G1 X151.292 Y163.241 E7.35923
G1 X150.221 Y163.364 E7.38791
G1 X149.359 Y163.426 E7.41091
G1 X148.79 Y163.438 E7.42605
G1 X144.923 Y163.438 E7.52895
G1 X144.224 Y163.429 E7.54755
G1 X143.322 Y163.378 E7.57159
G1 X142.429 Y163.246 E7.59561
G1 X141.55 Y163.037 E7.61965
G1 X140.694 Y162.75 E7.64367
G1 X139.866 Y162.389 E7.6677
G1 X139.073 Y161.956 E7.69174
G1 X138.322 Y161.455 E7.71576
G1 X137.618 Y160.889 E7.7398
G1 X136.967 Y160.263 E7.76383
G1 X136.374 Y159.582 E7.78786
G1 X135.844 Y158.851 E7.81188
G1 X135.38 Y158.076 E7.83592
G1 X134.986 Y157.263 E7.85996
G1 X134.666 Y156.419 E7.88397
G1 X134.422 Y155.549 E7.90802
G1 X134.256 Y154.662 E7.93203
G1 X134.159 Y153.532 E7.96221
G1 X134.145 Y152.892 E7.97924
G1 X134.146 Y142.38 E8.25894
G0 F7500 X133.746 Y142.374
G1 F1500 X133.756 Y141.672 E8.27762
G1 X133.809 Y140.753 E8.30212
G1 X133.963 Y139.734 E8.32954
G1 X134.538 Y136.874 E8.40716
G1 X134.725 Y135.874 E8.43423
G1 X134.933 Y134.977 E8.45873
G1 X135.219 Y134.102 E8.48322
G1 X135.58 Y133.255 E8.50772
G1 X136.013 Y132.442 E8.53223
G1 X136.514 Y131.67 E8.55672
G1 X137.081 Y130.945 E8.58121
G1 X137.709 Y130.271 E8.60572
G1 X138.392 Y129.654 E8.63021
G1 X139.127 Y129.1 E8.6547
G1 X139.907 Y128.61 E8.67921
G1 X140.727 Y128.191 E8.70372
G1 X141.579 Y127.844 E8.72819
G1 X142.459 Y127.572 E8.7527
G1 X143.359 Y127.378 E8.7772
G1 X144.061 Y127.282 E8.79605
G1 X146.359 Y127.046 E8.85752
G1 X147.967 Y126.828 E8.9007
G1 X148.193 Y126.807 E8.90674
G1 X149.446 Y126.646 E8.94035
G1 X150.651 Y126.56 E8.97249
G1 X151.513 Y126.549 E8.99543
G1 X164.518 Y126.547 E9.34147
G1 X165.365 Y126.558 E9.36401
G1 X166.284 Y126.611 E9.3885
G1 X167.195 Y126.744 E9.413
G1 X167.774 Y126.871 E9.42877
G1 X168.035 Y126.936 E9.43593
G1 X168.64 Y127.106 E9.45265
G1 X169.33 Y127.323 E9.4719
G1 X170.714 Y127.779 E9.51067
G1 X173.103 Y128.49 E9.57699
G1 X175.527 Y129.137 E9.64375
G1 X178.604 Y129.857 E9.72783
G1 X179.49 Y130.105 E9.75231
G1 X180.352 Y130.43 E9.77683
G1 X181.013 Y130.74 E9.79625
G1 X181.281 Y130.877 E9.80426
G1 X182.082 Y131.331 E9.82876
G1 X182.84 Y131.853 E9.85325
G1 X183.55 Y132.439 E9.87774
G1 X184.207 Y133.084 E9.90224
G1 X184.805 Y133.784 E9.92674
G1 X185.34 Y134.533 E9.95123
G1 X185.808 Y135.326 E9.97573
G1 X186.206 Y136.156 E10.00022
G1 X186.53 Y137.018 E10.02473
G1 X186.778 Y137.904 E10.04921
G1 X186.948 Y138.809 E10.07371
G1 X187.04 Y139.725 E10.0982
G1 X187.056 Y140.315 E10.11391
G1 X187.056 Y140.795 E10.12668
G1 X187.016 Y141.715 E10.15118
G1 X186.953 Y142.273 E10.16612
G1 X186.633 Y144.547 E10.22723
G1 X186.346 Y147.068 E10.29474
G1 X186.124 Y149.669 E10.3642
G1 X186.031 Y150.97 E10.3989
G1 X185.926 Y151.885 E10.42341
G1 X185.742 Y152.787 E10.4479
G1 X185.48 Y153.669 E10.47239
G1 X185.143 Y154.526 E10.49689
G1 X184.733 Y155.35 E10.52138
G1 X184.252 Y156.136 E10.5459
G1 X183.706 Y156.876 E10.57037
G1 X183.097 Y157.567 E10.59488
G1 X182.43 Y158.202 E10.61938
G1 X181.711 Y158.777 E10.64388
G1 X180.945 Y159.287 E10.66836
G1 X180.137 Y159.729 E10.69287
G1 X179.295 Y160.099 E10.71734
G1 X178.423 Y160.395 E10.74184
G1 X177.264 Y160.663 E10.7735
G1 X176.463 Y160.802 E10.79513
G1 X173.859 Y161.29 E10.86562
G1 X171.402 Y161.823 E10.93252
G1 X167.833 Y162.718 E11.03042
G1 X166.931 Y162.903 E11.05492
G1 X166.017 Y163.01 E11.07941
G1 X165.401 Y163.036 E11.09581
G1 X164.535 Y163.047 E11.11886
G1 X161.683 Y163.047 E11.19474
G1 X159.058 Y163.084 E11.2646
G1 X156.551 Y163.191 E11.33136
G1 X154.058 Y163.367 E11.39786
G1 X151.31 Y163.642 E11.47135
G1 X150.266 Y163.761 E11.49931
G1 X149.37 Y163.825 E11.52321
G1 X148.79 Y163.838 E11.53864
G1 X144.918 Y163.838 E11.64167
G1 X144.219 Y163.829 E11.66027
G1 X143.299 Y163.777 E11.68479
G1 X142.388 Y163.646 E11.70928
G1 X141.492 Y163.436 E11.73377
G1 X140.617 Y163.149 E11.75827
G1 X139.77 Y162.787 E11.78278
G1 X138.958 Y162.353 E11.80728
G1 X138.187 Y161.851 E11.83176
G1 X137.462 Y161.283 E11.85626
G1 X136.789 Y160.654 E11.88077
G1 X136.174 Y159.97 E11.90525
G1 X135.62 Y159.235 E11.92974
G1 X135.132 Y158.454 E11.95424
G1 X134.713 Y157.634 E11.97874
G1 X134.367 Y156.781 E12.00324
G1 X134.097 Y155.901 E12.02773
G1 X133.904 Y155.001 E12.05222
G1 X133.79 Y154.087 E12.07673
G1 X133.76 Y153.543 E12.09123
G1 X133.745 Y152.892 E12.10855
G1 X133.746 Y142.374 E12.38842
G1 F1500 E8.38842
;MESH:void_switch-v35.stl
G0 F7500 X143.68 Y144.868
G0 X145.746 Y144.868
;TYPE:WALL-INNER
G1 F1500 E12.38842
G1 X147.672 Y144.868 E12.43966
G1 X147.672 Y142.568 E12.50086
G1 X147.036 Y142.718 E12.51825
G1 X146.227 Y142.718 E12.53978
G1 X145.745 Y142.615 E12.55289
G1 X145.746 Y144.868 E12.61284
G0 F7500 X145.343 Y145.396
G1 F1500 X145.726 Y145.268 E12.62358
G1 X147.691 Y145.268 E12.67587
G1 X148.072 Y145.393 E12.68654
G1 X148.072 Y142.269 E12.76966
G1 X147.842 Y142.216 E12.77594
G1 X147.661 Y142.087 E12.78186
G1 X147.479 Y142.216 E12.78779
G1 X147.036 Y142.318 E12.79989
G1 X146.227 Y142.318 E12.82141
G1 X145.817 Y142.231 E12.83257
G1 X145.68 Y142.142 E12.83691
G1 X145.543 Y142.231 E12.84126
G1 X145.345 Y142.273 E12.84665
G1 X145.343 Y145.396 E12.92974
G0 F7500 X145.036 Y146.268
G1 F1121.5 X145.2 Y146.028 E12.94009
G1 F1348.3 X145.364 Y145.788 E12.94869
G1 F1500 X145.726 Y145.668 E12.95884
G1 X147.691 Y145.668 E13.01112
G1 X148.054 Y145.787 E13.02129
G1 F1348.3 X148.217 Y146.027 E13.02988
G1 F1119.4 X148.381 Y146.268 E13.04027
G1 X148.426 Y145.923 E13.05268
G1 F1348.3 X148.472 Y145.578 E13.06298
G1 F1500 X148.472 Y141.982 E13.15866
G1 X148.435 Y141.918 E13.16063
G1 X148.285 Y141.918 E13.16462
G1 X148.019 Y141.857 E13.17188
G1 X147.863 Y141.746 E13.17698
G1 F1405.2 X147.66 Y141.372 E13.18906
G1 X147.459 Y141.746 E13.20112
G1 F1500 X147.302 Y141.857 E13.20624
G1 X147.036 Y141.918 E13.2135
G1 X146.227 Y141.918 E13.23503
G1 X145.981 Y141.866 E13.24172
G1 X145.825 Y141.765 E13.24666
G1 X145.68 Y141.472 E13.25536
G1 X145.535 Y141.765 E13.26406
G1 X145.379 Y141.866 E13.269
G1 X145.133 Y141.918 E13.27569
G1 X144.982 Y141.918 E13.27971
G1 X144.945 Y141.982 E13.28168
G1 X144.943 Y145.578 E13.37736
G1 F1348.3 X144.989 Y145.923 E13.38766
G1 F1121.5 X145.036 Y146.268 E13.40006
G1 F1500 E9.40006
G0 F7500 X143.68 Y146.268
G0 X143.68 Y153.039
G0 X144.546 Y153.039
;TYPE:WALL-OUTER
G1 F1500 E13.40006
G1 X145.526 Y153.038 E13.42613
G1 X145.526 Y146.268 E13.60627
G1 X145.605 Y146.108 E13.61102
G1 X145.726 Y146.068 E13.61441
G1 X147.691 Y146.068 E13.66669
G1 X147.812 Y146.107 E13.67008
G1 X147.891 Y146.268 E13.67485
G1 X147.892 Y153.038 E13.85498
G1 X148.872 Y153.038 E13.88106
G1 X148.872 Y141.874 E14.17811
G1 X148.665 Y141.518 E14.18907
G1 X148.285 Y141.518 E14.19918
G1 X148.144 Y141.461 E14.20323
G1 X148.085 Y141.336 E14.20691
G1 X148.084 Y138.018 E14.29519
G1 X147.236 Y138.018 E14.31776
G1 X147.236 Y141.336 E14.40604
G1 X147.177 Y141.461 E14.40972
G1 X147.036 Y141.518 E14.41377
G1 X146.166 Y141.518 E14.43691
G1 F1265.8 X145.953 Y141.342 E14.44563
G1 F1094.9 X145.953 Y138.091 E14.56414
G1 F1096.9 X145.407 Y138.091 E14.584
G1 F1094.9 X145.407 Y141.342 E14.70251
G1 F1265.8 X145.194 Y141.518 E14.71122
G1 F1500 X144.752 Y141.518 E14.72299
G1 X144.545 Y141.874 E14.73394
G1 X144.546 Y153.039 E15.03102
G0 F7500 X145.036 Y152.548
;TYPE:WALL-INNER
G1 F1034.5 X145.036 Y146.268 E15.27332
G1 F1500 E11.27332
G0 F7500 X146.379 Y146.921
G0 X147.038 Y146.921
G0 X148.381 Y146.268
G1 F1500 E15.27332
G1 F1032.7 X148.381 Y149.408 E15.39467
G1 F1034.5 X148.382 Y152.548 E15.51582
G1 F1500 E11.51582
G0 F7500 X147.027 Y152.549
G0 X147.039 Y153.891
G0 X149.725 Y153.892
G0 X149.735 Y141.64
G0 X149.161 Y140.659
G0 X147.66 Y141.372
G1 F1500 E15.51582
G1 F1324.5 X147.66 Y139.907 E15.55996
G1 F1330.4 X147.66 Y138.442 E15.60391
G1 F1500 E11.60391
G0 F7500 X148.949 Y138.441
G0 X148.937 Y137.165
G0 X144.481 Y137.165
G0 X143.682 Y141.64
G0 X143.68 Y144.508
G0 X146.106 Y144.508
;TYPE:SKIN
G1 F1500 E15.60391
G1 X147.312 Y144.508 E15.636
G1 X147.312 Y143.019 E15.67562
G1 X147.032 Y143.078 E15.68324
G1 X146.192 Y143.075 E15.70559
G1 X146.106 Y143.057 E15.70793
G1 X146.106 Y144.508 E15.74653
G0 F7500 X146.571 Y144.308
G1 F1500 X146.305 Y144.042 E15.75654
G0 F7500 X146.305 Y143.476
G1 F1500 X147.111 Y144.283 E15.78689
G0 F7500 X147.111 Y143.717
G1 F1500 X146.671 Y143.277 E15.80345
G1 F1500 E11.80345
G0 F7500 X149.675 Y141.534
G0 X149.756 Y139.177
G0 X151.5 Y139.177
;TYPE:WALL-INNER
G1 F1500 E15.80345
G1 F1079.1 X152.45 Y138.228 E15.85311
G1 X151.5 Y138.228 E15.88825
G1 X151.5 Y139.177 E15.92335
G1 F1500 E11.92335
G0 F7500 X151.071 Y144.212
G1 F1500 E15.92335
G1 F1181.1 X151.161 Y143.977 E15.93185
G1 F1151.6 X151.251 Y143.742 E15.94057
G1 F1136.4 X151.723 Y143.271 E15.96399
G1 F1160.5 X151.493 Y143.042 E15.97515
G1 F1379.3 X151.361 Y142.642 E15.98734
G1 F1662 X151.36 Y141.851 E16.00634
G1 F1671.3 X151.358 Y141.06 E16.02523
G1 F1680.7 X151.356 Y140.269 E16.04401
G1 F1587.3 X151.509 Y139.844 E16.05537
G1 F1500 X153.117 Y138.237 E16.11586
G1 F1574.8 X153.442 Y138.089 E16.12491
G1 F1662 X154.629 Y138.087 E16.15341
