;FLAVOR:Marlin
;TIME:828
;Filament used: 0.209409m
;Layer height: 0.16
;MINX:92.5
;MINY:92.5
;MINZ:0.16
;MAXX:127.5
;MAXY:127.5
;MAXZ:8.8
;Generated with Cura_SteamEngine main
M82 ;absolute extrusion mode
; Ender 3 Custom Start G-code
G92 E0 ; Reset Extruder
G28 ; Home all axes
M104 S120 ; Start heating up the nozzle most of the way
M190 S64.0 ; Start heating the bed, wait until target temperature reached
M109 S250.0 ; Finish heating the nozzle
G1 Z2.0 F3000 ; Move Z Axis up little to prevent scratching of Heat Bed
G1 X0.1 Y20 Z0.3 F5000.0 ; Move to start position
G1 X0.1 Y200.0 Z0.3 F1500.0 E15 ; Draw the first line
G1 X0.4 Y200.0 Z0.3 F5000.0 ; Move to side a little
G1 X0.4 Y20 Z0.3 F1500.0 E30 ; Draw the second line
G92 E0 ; Reset Extruder
G1 Z2.0 F3000 ; Move Z Axis up little to prevent scratching of Heat Bed
G1 X5 Y20 Z0.3 F5000.0 ; Move over to prevent blob squish
G92 E0
G92 E0
G1 F2100 E-4
;LAYER_COUNT:55
;LAYER:0
M107
G0 F6000 X95.698 Y95.764 Z0.16
G0 X92.501 Y104.025
;TYPE:SKIRT
G1 F2100 E0
G1 F600 X92.51 Y103.36 E0.01734
G1 X92.563 Y102.424 E0.04179
G1 X92.695 Y101.495 E0.06626
G1 X92.906 Y100.581 E0.09072
G1 X93.194 Y99.689 E0.11516
G1 X93.557 Y98.824 E0.13962
G1 X93.992 Y97.993 E0.16408
G1 X94.496 Y97.203 E0.18851
G1 X95.066 Y96.458 E0.21297
G1 X95.698 Y95.764 E0.23745
G1 X96.386 Y95.127 E0.2619
G1 X97.126 Y94.551 E0.28635
G1 X97.912 Y94.039 E0.31081
G1 X98.739 Y93.597 E0.33526
G1 X99.601 Y93.227 E0.35972
G1 X100.491 Y92.931 E0.38418
G1 X101.403 Y92.713 E0.40863
G1 X102.33 Y92.572 E0.43308
G1 X103.201 Y92.513 E0.45585
G1 X103.83 Y92.5 E0.47225
G1 X115.951 Y92.501 E0.78832
G1 X116.649 Y92.511 E0.80652
G1 X117.585 Y92.565 E0.83097
G1 X118.513 Y92.697 E0.85541
G1 X119.427 Y92.909 E0.87988
G1 X120.319 Y93.198 E0.90433
G1 X121.184 Y93.561 E0.92879
G1 X122.014 Y93.997 E0.95324
G1 X122.805 Y94.502 E0.97771
G1 X123.549 Y95.073 E1.00216
G1 X124.242 Y95.705 E1.02662
G1 X124.879 Y96.393 E1.05107
G1 X125.454 Y97.134 E1.07553
G1 X125.965 Y97.92 E1.09997
G1 X126.407 Y98.748 E1.12445
G1 X126.776 Y99.61 E1.1489
G1 X127.071 Y100.5 E1.17335
G1 X127.289 Y101.412 E1.1978
G1 X127.429 Y102.34 E1.22227
G1 X127.487 Y103.201 E1.24477
G1 X127.5 Y103.83 E1.26118
G1 X127.499 Y115.9 E1.57592
G1 X127.49 Y116.627 E1.59487
G1 X127.439 Y117.564 E1.61934
G1 X127.307 Y118.492 E1.64379
G1 X127.098 Y119.406 E1.66823
G1 X126.811 Y120.299 E1.69269
G1 X126.449 Y121.165 E1.71717
G1 X126.015 Y121.996 E1.74161
G1 X125.511 Y122.787 E1.76607
G1 X124.942 Y123.532 E1.79052
G1 X124.311 Y124.227 E1.81499
G1 X123.624 Y124.865 E1.83944
G1 X122.885 Y125.442 E1.86389
G1 X122.099 Y125.954 E1.88835
G1 X121.273 Y126.397 E1.91279
G1 X120.411 Y126.769 E1.93727
G1 X119.522 Y127.065 E1.96171
G1 X118.61 Y127.285 E1.98617
G1 X117.683 Y127.426 E2.01062
G1 X116.799 Y127.487 E2.03373
G1 X116.17 Y127.5 E2.05013
G1 X104.065 Y127.499 E2.36578
G1 X103.367 Y127.49 E2.38398
G1 X102.431 Y127.438 E2.40843
G1 X101.502 Y127.306 E2.43289
G1 X100.588 Y127.096 E2.45735
G1 X99.695 Y126.809 E2.48181
G1 X98.83 Y126.446 E2.50627
G1 X97.999 Y126.012 E2.53072
G1 X97.208 Y125.508 E2.55517
G1 X96.463 Y124.938 E2.57963
G1 X95.769 Y124.307 E2.60409
G1 X95.132 Y123.62 E2.62852
G1 X94.555 Y122.88 E2.65299
G1 X94.043 Y122.094 E2.67745
G1 X93.6 Y121.267 E2.70192
G1 X93.229 Y120.406 E2.72636
G1 X92.933 Y119.516 E2.75082
G1 X92.714 Y118.604 E2.77528
G1 X92.573 Y117.677 E2.79973
G1 X92.513 Y116.788 E2.82296
G1 X92.5 Y116.158 E2.83939
G1 X92.501 Y104.025 E3.15577
G0 F6000 X92.901 Y104.031
G1 F600 X92.91 Y103.366 E3.17311
G1 X92.962 Y102.446 E3.19714
G1 X93.094 Y101.535 E3.22115
G1 X93.305 Y100.639 E3.24515
G1 X93.592 Y99.764 E3.26916
G1 X93.955 Y98.918 E3.29317
G1 X94.389 Y98.106 E3.31718
G1 X94.892 Y97.335 E3.34118
G1 X95.461 Y96.611 E3.36519
G1 X96.089 Y95.939 E3.38918
G1 X96.774 Y95.323 E3.4132
G1 X97.51 Y94.77 E3.4372
G1 X98.291 Y94.282 E3.46122
G1 X99.111 Y93.864 E3.48522
G1 X99.965 Y93.519 E3.50923
G1 X100.845 Y93.249 E3.53324
G1 X101.745 Y93.057 E3.55723
G1 X102.659 Y92.943 E3.58125
G1 X103.212 Y92.913 E3.59569
G1 X103.83 Y92.9 E3.61181
G1 X115.793 Y92.9 E3.92376
G1 X116.643 Y92.911 E3.94592
G1 X117.562 Y92.964 E3.96993
G1 X118.473 Y93.097 E3.99393
G1 X119.369 Y93.308 E4.01794
G1 X120.243 Y93.596 E4.04193
G1 X121.09 Y93.959 E4.06596
G1 X121.901 Y94.394 E4.08996
G1 X122.671 Y94.898 E4.11396
G1 X123.395 Y95.467 E4.13797
G1 X124.067 Y96.097 E4.16199
G1 X124.682 Y96.782 E4.18599
G1 X125.235 Y97.518 E4.21
G1 X125.722 Y98.299 E4.234
G1 X126.139 Y99.12 E4.25801
G1 X126.484 Y99.974 E4.28203
G1 X126.753 Y100.854 E4.30602
G1 X126.945 Y101.755 E4.33005
G1 X127.058 Y102.668 E4.35403
G1 X127.087 Y103.212 E4.36824
G1 X127.1 Y103.83 E4.38436
G1 X127.099 Y115.895 E4.69896
G1 X127.09 Y116.622 E4.71792
G1 X127.039 Y117.541 E4.74192
G1 X126.908 Y118.453 E4.76595
G1 X126.698 Y119.349 E4.78995
G1 X126.412 Y120.224 E4.81395
G1 X126.051 Y121.071 E4.83796
G1 X125.617 Y121.883 E4.86197
G1 X125.115 Y122.655 E4.88598
G1 X124.547 Y123.38 E4.91
G1 X123.919 Y124.053 E4.934
G1 X123.235 Y124.669 E4.958
G1 X122.5 Y125.223 E4.982
G1 X121.72 Y125.712 E5.00601
G1 X120.9 Y126.131 E5.03002
G1 X120.047 Y126.477 E5.05402
G1 X119.167 Y126.748 E5.07803
G1 X118.267 Y126.941 E5.10203
G1 X117.353 Y127.056 E5.12606
G1 X116.788 Y127.087 E5.14081
G1 X116.17 Y127.1 E5.15693
G1 X104.07 Y127.099 E5.47245
G1 X103.372 Y127.09 E5.49065
G1 X102.453 Y127.038 E5.51465
G1 X101.542 Y126.907 E5.53865
G1 X100.646 Y126.697 E5.56265
G1 X99.771 Y126.41 E5.58666
G1 X98.924 Y126.048 E5.61068
G1 X98.112 Y125.614 E5.63469
G1 X97.341 Y125.112 E5.65868
G1 X96.616 Y124.544 E5.6827
G1 X95.943 Y123.915 E5.70672
G1 X95.328 Y123.231 E5.7307
G1 X94.774 Y122.496 E5.7547
G1 X94.286 Y121.715 E5.77872
G1 X93.867 Y120.895 E5.80273
G1 X93.521 Y120.042 E5.82673
G1 X93.251 Y119.162 E5.85073
G1 X93.058 Y118.261 E5.87476
G1 X92.944 Y117.348 E5.89875
G1 X92.913 Y116.777 E5.91367
G1 X92.9 Y116.158 E5.92981
G1 X92.901 Y104.031 E6.24603
G0 F6000 X93.301 Y104.036
G1 F600 X93.31 Y103.371 E6.26337
G1 X93.362 Y102.469 E6.28693
G1 X93.494 Y101.576 E6.31047
G1 X93.704 Y100.698 E6.33401
G1 X93.991 Y99.841 E6.35758
G1 X94.353 Y99.014 E6.38112
G1 X94.786 Y98.222 E6.40466
G1 X95.288 Y97.471 E6.42821
G1 X95.855 Y96.767 E6.45178
G1 X96.481 Y96.117 E6.47532
G1 X97.162 Y95.524 E6.49886
G1 X97.894 Y94.994 E6.52243
G1 X98.669 Y94.531 E6.54597
G1 X99.482 Y94.138 E6.56952
G1 X100.327 Y93.818 E6.59308
G1 X101.196 Y93.575 E6.61661
G1 X102.084 Y93.409 E6.64016
G1 X103.223 Y93.313 E6.66997
G1 X103.83 Y93.3 E6.6858
G1 X115.793 Y93.3 E6.99775
G1 X116.637 Y93.311 E7.01976
G1 X117.539 Y93.364 E7.04332
G1 X118.432 Y93.496 E7.06686
G1 X119.31 Y93.707 E7.0904
G1 X120.166 Y93.995 E7.11395
G1 X120.993 Y94.357 E7.13749
G1 X121.785 Y94.792 E7.16106
G1 X122.536 Y95.294 E7.18461
G1 X123.239 Y95.861 E7.20816
G1 X123.889 Y96.488 E7.23171
G1 X124.481 Y97.17 E7.25526
G1 X125.011 Y97.901 E7.27881
G1 X125.473 Y98.677 E7.30235
G1 X125.866 Y99.49 E7.3259
G1 X126.184 Y100.335 E7.34944
G1 X126.427 Y101.205 E7.373
G1 X126.592 Y102.093 E7.39655
G1 X126.687 Y103.223 E7.42612
G1 X126.7 Y103.83 E7.44195
G1 X126.699 Y115.89 E7.75643
G1 X126.69 Y116.617 E7.77539
G1 X126.639 Y117.519 E7.79894
G1 X126.508 Y118.413 E7.82251
G1 X126.299 Y119.291 E7.84604
G1 X126.013 Y120.148 E7.8696
G1 X125.652 Y120.976 E7.89315
G1 X125.22 Y121.768 E7.91668
G1 X124.719 Y122.52 E7.94024
G1 X124.153 Y123.224 E7.96379
G1 X123.528 Y123.875 E7.98733
G1 X122.847 Y124.469 E8.01089
G1 X122.116 Y125 E8.03445
G1 X121.342 Y125.464 E8.05798
G1 X120.529 Y125.858 E8.08154
G1 X119.685 Y126.178 E8.10508
G1 X118.815 Y126.423 E8.12864
G1 X117.928 Y126.589 E8.15218
G1 X116.777 Y126.687 E8.1823
G1 X116.17 Y126.7 E8.19813
G1 X104.075 Y126.699 E8.51352
G1 X103.377 Y126.69 E8.53172
G1 X102.476 Y126.639 E8.55525
G1 X101.582 Y126.507 E8.57882
G1 X100.704 Y126.298 E8.60235
G1 X99.847 Y126.011 E8.62592
G1 X99.02 Y125.65 E8.64945
G1 X98.227 Y125.217 E8.67301
G1 X97.476 Y124.716 E8.69655
G1 X96.772 Y124.15 E8.7201
G1 X96.121 Y123.524 E8.74365
G1 X95.528 Y122.843 E8.7672
G1 X94.998 Y122.112 E8.79075
G1 X94.534 Y121.337 E8.8143
G1 X94.14 Y120.524 E8.83786
G1 X93.82 Y119.68 E8.86139
G1 X93.576 Y118.81 E8.88496
G1 X93.41 Y117.922 E8.90851
G1 X93.313 Y116.767 E8.93874
G1 X93.3 Y116.158 E8.95462
G1 X93.301 Y104.036 E9.27071
G1 F2100 E5.27071
;MESH:Void Switch Electronics Board.stl
G0 F6000 X107.181 Y109.589
;TYPE:WALL-INNER
G1 F2100 E9.27071
G1 F513.9 X106.728 Y109.504 E9.28474
G1 F544.2 X106.45 Y109.384 E9.29345
G1 F592.6 X106.168 Y109.222 E9.30204
G1 F600 X105.892 Y109.005 E9.31119
G1 X105.529 Y108.568 E9.326
G1 X105.401 Y108.328 E9.3331
G1 F613.8 X105.266 Y107.909 E9.34432
G1 F648.6 X105.238 Y107.513 E9.35389
G1 F670.4 X105.234 Y107.39 E9.35676
G1 F641.7 X105.279 Y106.975 E9.36694
G1 F609.1 X105.36 Y106.704 E9.37421
G1 F603 X105.608 Y106.237 E9.38793
G1 F600 X105.865 Y105.921 E9.39855
G1 X106.184 Y105.679 E9.40899
G1 X106.429 Y105.54 E9.41633
G1 F570.1 X106.876 Y105.358 E9.42958
G1 F553 X107.356 Y105.313 E9.44322
G1 F554.3 X107.781 Y105.353 E9.45527
G1 F563.4 X108.042 Y105.44 E9.46291
G1 F591.1 X108.542 Y105.701 E9.47784
G1 F600 X108.759 Y105.874 E9.48507
G1 X109.121 Y106.309 E9.49983
G1 X109.249 Y106.549 E9.50692
G1 X109.359 Y106.821 E9.51457
G1 X109.408 Y107.084 E9.52155
G1 X109.438 Y107.501 E9.53245
G1 X109.398 Y107.821 E9.54086
G1 X109.252 Y108.284 E9.55352
G1 X109.118 Y108.547 E9.56122
G1 X108.801 Y108.939 E9.57436
G1 X108.562 Y109.144 E9.58257
G1 X108.093 Y109.411 E9.59665
G1 X107.764 Y109.501 E9.60554
G1 F578.3 X107.473 Y109.545 E9.6135
G1 F536.9 X107.181 Y109.589 E9.62211
G0 F6000 X107.857 Y109.086
G1 F601.5 X107.34 Y109.15 E9.63566
G1 X107.086 Y109.151 E9.64226
G1 X106.502 Y108.978 E9.65811
G1 X106.141 Y108.692 E9.67009
G1 F600 X105.882 Y108.38 E9.68066
G1 X105.754 Y108.14 E9.68775
G1 X105.651 Y107.841 E9.696
G1 X105.615 Y107.48 E9.70546
G1 X105.612 Y107.39 E9.70781
G1 X105.656 Y107.092 E9.71566
G1 F601.5 X105.74 Y106.822 E9.72302
G1 X105.919 Y106.489 E9.73285
G1 F600 X106.174 Y106.185 E9.7432
G1 X106.382 Y106.027 E9.75001
G1 X106.627 Y105.888 E9.75735
G1 X106.948 Y105.773 E9.76625
G1 X107.371 Y105.719 E9.77736
G1 X107.669 Y105.758 E9.7852
G1 F601.5 X107.934 Y105.832 E9.79236
G1 X108.292 Y106.013 E9.80279
G1 F600 X108.509 Y106.186 E9.81003
G1 X108.768 Y106.498 E9.8206
G1 X108.96 Y106.857 E9.83122
G1 X109.01 Y107.119 E9.83817
G1 X109.053 Y107.591 E9.85053
G1 X108.881 Y108.134 E9.86539
G1 X108.782 Y108.328 E9.87106
G1 X108.431 Y108.75 E9.88538
G1 F601.5 X107.857 Y109.086 E9.90268
G0 F6000 X106.697 Y108.621
G1 F601.5 X106.39 Y108.379 E9.91285
G1 F600 X106.235 Y108.192 E9.91918
G1 X106.052 Y107.849 E9.92932
G1 X106.014 Y107.444 E9.93992
G1 X106.038 Y107.211 E9.94603
G1 X106.16 Y106.824 E9.95661
G1 X106.494 Y106.423 E9.97022
G1 X106.928 Y106.177 E9.98323
G1 F601.5 X107.463 Y106.116 E9.99724
G1 X107.828 Y106.218 E10.00709
G1 X108.043 Y106.326 E10.01335
G1 F600 X108.26 Y106.499 E10.02059
G1 X108.415 Y106.686 E10.02692
G1 X108.6 Y107.033 E10.03718
G1 X108.646 Y107.549 E10.05068
G1 X108.494 Y108.039 E10.06406
G1 X108.171 Y108.442 E10.07753
G1 F601.5 X107.726 Y108.699 E10.0909
G1 X107.197 Y108.765 E10.10476
G1 X106.697 Y108.621 E10.1183
G0 F6000 X106.886 Y108.261
;TYPE:WALL-OUTER
G1 F601.5 X106.607 Y108.04 E10.12755
G1 X106.441 Y107.729 E10.13672
G1 F600 X106.412 Y107.408 E10.14513
G1 X106.42 Y107.33 E10.14717
G1 X106.517 Y107.02 E10.15564
G1 X106.748 Y106.74 E10.16511
G1 X107.056 Y106.565 E10.17435
G1 F601.5 X107.423 Y106.521 E10.18396
G1 X107.764 Y106.616 E10.19317
G1 X108.044 Y106.839 E10.20248
G1 X108.206 Y107.153 E10.21167
G1 F600 X108.242 Y107.508 E10.22097
G1 X108.134 Y107.852 E10.23037
G1 X107.906 Y108.138 E10.23991
G1 X107.587 Y108.314 E10.24941
G1 X107.226 Y108.355 E10.25889
G1 F601.5 X106.886 Y108.261 E10.26806
G1 F2100 E6.26806
G0 F6000 X109.622 Y115.099
;TYPE:WALL-INNER
G1 F2100 E10.26806
G1 F600 X111.105 Y115.099 E10.30673
G1 F604.5 X111.424 Y115.101 E10.31499
G1 F613.8 X111.743 Y115.104 E10.32312
G1 F623.4 X112.062 Y115.107 E10.33113
G1 F652.2 X112.483 Y115.123 E10.34123
G1 F666.7 X112.761 Y115.118 E10.34776
G1 F646.9 X113.039 Y115.112 E10.35448
G1 F626.6 X113.317 Y115.106 E10.36143
G1 F609.1 X113.595 Y115.1 E10.36857
G1 F600 X115.1 Y115.1 E10.40781
G1 X115.1 Y113.489 E10.44982
G1 F582.5 X115.088 Y112.999 E10.46299
G1 F574.2 X115.094 Y112.719 E10.47062
G1 F571.4 X115.086 Y112.291 E10.48234
G1 F570.1 X115.093 Y111.961 E10.4914
G1 F589.7 X115.1 Y111.631 E10.50015
G1 F600 X115.1 Y107.629 E10.60451
G1 X114.786 Y107.763 E10.61341
G1 X114.549 Y107.814 E10.61973
G1 X114.001 Y107.823 E10.63402
G1 X113.716 Y107.77 E10.64158
G1 X113.386 Y107.663 E10.65063
G1 X112.941 Y107.366 E10.66458
G1 X112.721 Y107.146 E10.67269
G1 X112.467 Y106.75 E10.68496
G1 X112.362 Y106.501 E10.69201
G1 X112.28 Y106.112 E10.70237
G1 X112.283 Y105.57 E10.71651
G1 X112.333 Y105.327 E10.72298
G1 X112.513 Y104.901 E10.73504
G1 X111.885 Y104.901 E10.75141
G1 F597 X111.257 Y104.902 E10.76787
G1 F594.1 X110.629 Y104.903 E10.78441
G1 F591.1 X110.001 Y104.903 E10.80103
G1 F589.7 X109.373 Y104.904 E10.81769
G1 F586.8 X108.745 Y104.905 E10.83444
G1 F583.9 X108.117 Y104.905 E10.85126
G1 F563.4 X107.839 Y104.921 E10.859
G1 X107.403 Y104.904 E10.87111
G1 F571.4 X107.12 Y104.912 E10.87886
G1 F553 X106.837 Y104.921 E10.88688
G1 F556.8 X106.549 Y104.911 E10.89497
G1 F585.4 X106.26 Y104.901 E10.9027
G1 F600 X104.9 Y104.9 E10.93816
G1 F603 X104.899 Y105.572 E10.9556
G1 F607.6 X104.898 Y106.244 E10.9729
G1 F612.2 X104.897 Y106.916 E10.99008
G1 F641.7 X104.877 Y107.39 E11.00164
G1 F663 X104.883 Y107.656 E11.00792
G1 F643.4 X104.889 Y107.922 E11.01439
G1 F626.6 X104.895 Y108.188 E11.02104
G1 F609.1 X104.901 Y108.454 E11.02787
G1 F600 X104.9 Y110.379 E11.07807
G1 X105.281 Y110.22 E11.08883
G1 X105.789 Y110.063 E11.1027
G1 F591.1 X106.064 Y110.03 E11.11003
G1 F574.2 X106.339 Y109.996 E11.11758
G1 F558.1 X106.614 Y109.963 E11.12534
G1 F545.5 X106.897 Y109.998 E11.13352
G1 F533.3 X107.18 Y110.034 E11.14189
G1 F544.2 X107.448 Y110.126 E11.15004
G1 F581.1 X107.717 Y110.219 E11.1577
G1 F600 X107.968 Y110.323 E11.16478
G1 X108.465 Y110.594 E11.17954
G1 X108.98 Y111.018 E11.19694
G1 X109.402 Y111.531 E11.21426
G1 X109.726 Y112.123 E11.23186
G1 F578.3 X109.847 Y112.473 E11.24188
G1 F539.3 X109.968 Y112.824 E11.25265
G1 F518.4 X110.03 Y113.355 E11.26878
G1 F534.5 X109.993 Y113.702 E11.279
G1 F576.9 X109.956 Y114.05 E11.28849
G1 F600 X109.902 Y114.322 E11.29572
G1 X109.78 Y114.717 E11.3065
G1 X109.622 Y115.099 E11.31728
G0 F6000 X108.862 Y115.498
G1 F600 X115.5 Y115.5 E11.49037
G1 X115.5 Y106.838 E11.71624
G1 X115.25 Y107.09 E11.7255
G1 X115.05 Y107.224 E11.73177
G1 X114.702 Y107.372 E11.74164
G1 X114.465 Y107.423 E11.74796
G1 X114.073 Y107.429 E11.75818
G1 X113.636 Y107.348 E11.76977
G1 X113.237 Y107.083 E11.78226
G1 X113.031 Y106.882 E11.78976
G1 X112.763 Y106.475 E11.80247
G1 X112.673 Y106.038 E11.81411
G1 X112.675 Y105.651 E11.8242
G1 X112.725 Y105.407 E11.83069
G1 X112.877 Y105.046 E11.84091
G1 X113.012 Y104.847 E11.84718
G1 X113.359 Y104.501 E11.85995
G1 X104.5 Y104.5 E12.09096
G1 X104.502 Y111.138 E12.26405
G1 X104.775 Y110.914 E12.27326
G1 X105.312 Y110.629 E12.28911
G1 X105.879 Y110.455 E12.30458
G1 X106.513 Y110.391 E12.3212
G1 X107.099 Y110.454 E12.33656
G1 X107.689 Y110.627 E12.3526
G1 X108.236 Y110.924 E12.36883
G1 X108.698 Y111.303 E12.38441
G1 X109.084 Y111.782 E12.40045
G1 X109.366 Y112.298 E12.41578
G1 X109.542 Y112.87 E12.43139
G1 X109.609 Y113.493 E12.44773
G1 X109.548 Y114.11 E12.4639
G1 X109.37 Y114.691 E12.47974
G1 X109.086 Y115.225 E12.49551
G1 X108.862 Y115.498 E12.50472
G0 F6000 X107.724 Y115.899
G1 F600 X115.9 Y115.9 E12.71792
G1 X115.9 Y114.52 E12.7539
G1 F598.5 X115.9 Y113.14 E12.78998
G1 X115.9 Y111.76 E12.82605
G1 F597 X115.899 Y110.38 E12.86222
G1 F595.5 X115.899 Y109 E12.89847
G1 X115.899 Y107.62 E12.93473
G1 F594.1 X115.899 Y106.24 E12.97107
G1 F583.9 X115.891 Y105.964 E12.97847
G1 F576.9 X115.892 Y105.591 E12.98858
G1 F582.5 X115.894 Y105.218 E12.9986
G1 F586.8 X115.896 Y104.845 E13.00855
G1 F592.6 X115.898 Y104.472 E13.0184
G1 F598.5 X115.9 Y104.099 E13.02815
