;FLAVOR:Marlin
;TIME:2292
;Filament used: 0.494702m
;Layer height: 0.16
;MINX:62.122
;MINY:91.352
;MINZ:0.16
;MAXX:123.612
;MAXY:128.648
;MAXZ:10.56
;Generated with Cura_SteamEngine main
M82 ;absolute extrusion mode
; Ender 3 Custom Start G-code
G92 E0 ; Reset Extruder
G28 ; Home all axes
M104 S120 ; Start heating up the nozzle most of the way
M190 S68.0 ; Start heating the bed, wait until target temperature reached
M109 S248.0 ; Finish heating the nozzle
G1 Z2.0 F3000 ; Move Z Axis up little to prevent scratching of Heat Bed
G1 X0.1 Y20 Z0.3 F5000.0 ; Move to start position
G1 X0.1 Y200.0 Z0.3 F1500.0 E15 ; Draw the first line
G1 X0.4 Y200.0 Z0.3 F5000.0 ; Move to side a little
G1 X0.4 Y20 Z0.3 F1500.0 E30 ; Draw the second line
G92 E0 ; Reset Extruder
G1 Z2.0 F3000 ; Move Z Axis up little to prevent scratching of Heat Bed
G1 X5 Y20 Z0.3 F5000.0 ; Move over to prevent blob squish
G92 E0
G92 E0
G1 F1500 E-3.5
;LAYER_COUNT:66
;LAYER:0
M107
G0 F6000 X67.514 Y94.054 Z0.16
G0 X62.901 Y102.073
;TYPE:SKIRT
G1 F1500 E0
G1 F600 X63.097 Y101.008 E0.02881
G1 X63.306 Y100.094 E0.05376
G1 X63.592 Y99.201 E0.07871
G1 X63.953 Y98.335 E0.10368
G1 X64.387 Y97.503 E0.12864
G1 X64.89 Y96.712 E0.15359
G1 X65.458 Y95.966 E0.17853
G1 X66.088 Y95.271 E0.20349
G1 X66.775 Y94.632 E0.22846
G1 X67.514 Y94.054 E0.25342
G1 X68.299 Y93.542 E0.27836
G1 X69.125 Y93.098 E0.30331
G1 X69.986 Y92.726 E0.32827
G1 X70.875 Y92.428 E0.35322
G1 X71.787 Y92.208 E0.37818
G1 X72.714 Y92.066 E0.40313
G1 X73.591 Y92.005 E0.42652
G1 X74.24 Y91.99 E0.4438
G1 X76.309 Y91.987 E0.49885
G1 X78.341 Y91.953 E0.55293
G1 X80.863 Y91.846 E0.62009
G1 X83.32 Y91.672 E0.68563
G1 X84.967 Y91.504 E0.72968
G1 X86.046 Y91.406 E0.75851
G1 X86.854 Y91.363 E0.78004
G1 X87.573 Y91.352 E0.79917
G1 X100.913 Y91.355 E1.15413
G1 X101.613 Y91.366 E1.17275
G1 X102.549 Y91.421 E1.1977
G1 X103.477 Y91.555 E1.22265
G1 X104.572 Y91.82 E1.25263
G1 X105.73 Y92.164 E1.28477
G1 X106.293 Y92.34 E1.30047
G1 X108.74 Y93.036 E1.36816
G1 X111.131 Y93.644 E1.4338
G1 X113.758 Y94.233 E1.50544
G1 X114.653 Y94.421 E1.52977
G1 X115.562 Y94.652 E1.55473
G1 X116.447 Y94.961 E1.57967
G1 X117.304 Y95.344 E1.60465
G1 X118.124 Y95.798 E1.62959
G1 X118.995 Y96.39 E1.65761
G1 X119.216 Y96.556 E1.66496
G1 X119.942 Y97.15 E1.68992
G1 X120.613 Y97.805 E1.71487
G1 X121.227 Y98.514 E1.73983
G1 X121.778 Y99.273 E1.76478
G1 X122.263 Y100.076 E1.78975
G1 X122.677 Y100.917 E1.81469
G1 X123.018 Y101.791 E1.83965
G1 X123.283 Y102.691 E1.86461
G1 X123.471 Y103.609 E1.88955
G1 X123.58 Y104.541 E1.91451
G1 X123.61 Y105.295 E1.93459
G1 X123.612 Y105.69 E1.9451
G1 X123.577 Y106.628 E1.97008
G1 X123.524 Y107.134 E1.98362
G1 X123.437 Y107.809 E2.00173
G1 X123.211 Y109.398 E2.04443
G1 X122.924 Y111.919 E2.11194
G1 X122.712 Y114.41 E2.17846
G1 X122.647 Y115.551 E2.20887
G1 X122.585 Y116.412 E2.23184
G1 X122.477 Y117.344 E2.25681
G1 X122.291 Y118.263 E2.28176
G1 X122.027 Y119.163 E2.30671
G1 X121.688 Y120.037 E2.33166
G1 X121.275 Y120.879 E2.35661
G1 X120.792 Y121.683 E2.38157
G1 X120.243 Y122.443 E2.40651
G1 X119.63 Y123.154 E2.43149
G1 X118.959 Y123.809 E2.45644
G1 X118.235 Y124.405 E2.48139
G1 X117.463 Y124.937 E2.50634
G1 X116.648 Y125.402 E2.53131
G1 X115.797 Y125.795 E2.55625
G1 X114.915 Y126.115 E2.58121
G1 X114.009 Y126.358 E2.60617
G1 X113.337 Y126.486 E2.62437
G1 X110.86 Y126.879 E2.69111
G1 X108.428 Y127.334 E2.75694
G1 X105.257 Y128.031 E2.84333
G1 X103.97 Y128.338 E2.87854
G1 X103.049 Y128.517 E2.9035
G1 X102.117 Y128.616 E2.92844
G1 X101.627 Y128.636 E2.94149
G1 X100.887 Y128.648 E2.96118
G1 X87.539 Y128.645 E3.31634
G1 X86.838 Y128.634 E3.335
G1 X85.626 Y128.547 E3.36733
G1 X84.586 Y128.415 E3.39523
G1 X83.758 Y128.299 E3.41747
G1 X81.213 Y128.012 E3.48562
G1 X78.724 Y127.802 E3.55208
G1 X76.205 Y127.661 E3.61921
G1 X73.613 Y127.589 E3.68821
G1 X72.979 Y127.58 E3.70508
G1 X72.043 Y127.527 E3.73002
G1 X71.114 Y127.395 E3.75499
G1 X70.201 Y127.183 E3.77993
G1 X69.308 Y126.895 E3.8049
G1 X68.443 Y126.532 E3.82986
G1 X67.613 Y126.097 E3.85479
G1 X66.822 Y125.592 E3.87976
G1 X66.078 Y125.022 E3.9047
G1 X65.384 Y124.39 E3.92968
G1 X64.747 Y123.702 E3.95462
G1 X64.171 Y122.962 E3.97958
G1 X63.66 Y122.176 E4.00452
G1 X63.218 Y121.349 E4.02947
G1 X62.848 Y120.487 E4.05443
G1 X62.552 Y119.597 E4.07939
G1 X62.334 Y118.685 E4.10434
G1 X62.194 Y117.757 E4.12931
G1 X62.136 Y116.905 E4.15203
G1 X62.122 Y116.277 E4.16875
G1 X62.122 Y107.526 E4.40159
G1 X62.133 Y106.82 E4.42038
G1 X62.188 Y105.883 E4.44536
G1 X62.348 Y104.824 E4.47385
G1 X62.901 Y102.073 E4.54852
G1 F1500 E1.04852
G0 F6000 X62.922 Y107.538
G1 F1500 E4.54852
G1 F600 X62.933 Y106.832 E4.56731
G1 X62.987 Y105.931 E4.59132
G1 X63.132 Y104.981 E4.61689
G1 X63.694 Y102.183 E4.69283
G1 X63.884 Y101.153 E4.7207
G1 X64.086 Y100.273 E4.74472
G1 X64.366 Y99.414 E4.76876
G1 X64.721 Y98.584 E4.79278
G1 X65.147 Y97.788 E4.8168
G1 X65.643 Y97.032 E4.84086
G1 X66.203 Y96.324 E4.86488
G1 X66.824 Y95.668 E4.88892
G1 X67.5 Y95.07 E4.91293
G1 X68.227 Y94.533 E4.93698
G1 X68.998 Y94.063 E4.96101
G1 X69.808 Y93.664 E4.98503
G1 X70.65 Y93.337 E5.00907
G1 X71.517 Y93.086 E5.03308
G1 X72.404 Y92.913 E5.05713
G1 X73.614 Y92.804 E5.08946
G1 X74.241 Y92.79 E5.10614
G1 X76.256 Y92.787 E5.15976
G1 X78.351 Y92.753 E5.21551
G1 X80.919 Y92.644 E5.2839
G1 X83.392 Y92.469 E5.34987
G1 X85.039 Y92.301 E5.39392
G1 X86.118 Y92.203 E5.42275
G1 X86.868 Y92.162 E5.44273
G1 X87.398 Y92.153 E5.45684
G1 X100.9 Y92.155 E5.8161
G1 X101.6 Y92.166 E5.83473
G1 X102.502 Y92.22 E5.85877
G1 X103.395 Y92.354 E5.8828
G1 X104.345 Y92.587 E5.90883
G1 X105.503 Y92.931 E5.94097
G1 X106.053 Y93.103 E5.9563
G1 X108.534 Y93.809 E6.02494
G1 X110.97 Y94.428 E6.09181
G1 X113.504 Y94.996 E6.16091
G1 X114.488 Y95.203 E6.18767
G1 X115.363 Y95.428 E6.21171
G1 X116.214 Y95.73 E6.23573
G1 X117.036 Y96.105 E6.25977
G1 X117.821 Y96.552 E6.28381
G1 X118.515 Y97.029 E6.30622
G1 X118.736 Y97.195 E6.31357
G1 X119.433 Y97.769 E6.3376
G1 X120.077 Y98.403 E6.36164
G1 X120.663 Y99.09 E6.38567
G1 X121.185 Y99.827 E6.4097
G1 X121.64 Y100.607 E6.43373
G1 X122.024 Y101.424 E6.45775
G1 X122.334 Y102.273 E6.4818
G1 X122.569 Y103.145 E6.50583
G1 X122.725 Y104.034 E6.52984
G1 X122.81 Y105.299 E6.56358
G1 X122.812 Y105.694 E6.57409
G1 X122.73 Y107.033 E6.60978
G1 X122.645 Y107.696 E6.62757
G1 X122.417 Y109.298 E6.67063
G1 X122.129 Y111.833 E6.73851
G1 X121.916 Y114.333 E6.80527
G1 X121.859 Y115.339 E6.83208
G1 X121.787 Y116.355 E6.85918
G1 X121.682 Y117.252 E6.88322
G1 X121.498 Y118.136 E6.90724
G1 X121.237 Y119 E6.93126
G1 X120.901 Y119.838 E6.95528
G1 X120.491 Y120.643 E6.97932
G1 X120.012 Y121.409 E7.00336
G1 X119.468 Y122.129 E7.02737
G1 X118.861 Y122.799 E7.05142
G1 X118.198 Y123.412 E7.07545
G1 X117.483 Y123.964 E7.09948
G1 X116.722 Y124.45 E7.12351
G1 X115.921 Y124.867 E7.14754
G1 X115.087 Y125.212 E7.17155
G1 X114.225 Y125.482 E7.19559
G1 X113.212 Y125.696 E7.22314
G1 X110.731 Y126.09 E7.28998
G1 X108.266 Y126.551 E7.3567
G1 X105.067 Y127.254 E7.44386
G1 X103.784 Y127.56 E7.47895
G1 X102.898 Y127.73 E7.50296
G1 X101.612 Y127.836 E7.53729
G1 X100.887 Y127.848 E7.55658
G1 X87.552 Y127.845 E7.9114
G1 X86.851 Y127.834 E7.93006
G1 X85.727 Y127.754 E7.96004
G1 X84.687 Y127.622 E7.98793
G1 X83.852 Y127.504 E8.01037
G1 X81.301 Y127.217 E8.07868
G1 X78.764 Y127.003 E8.14642
G1 X76.236 Y126.861 E8.21379
G1 X73.647 Y126.789 E8.28271
G1 X72.99 Y126.78 E8.30019
G1 X72.089 Y126.728 E8.32421
G1 X71.195 Y126.596 E8.34825
G1 X70.317 Y126.385 E8.37228
G1 X69.461 Y126.098 E8.3963
G1 X68.634 Y125.736 E8.42032
G1 X67.841 Y125.302 E8.44438
G1 X67.091 Y124.8 E8.46839
G1 X66.387 Y124.234 E8.49243
G1 X65.737 Y123.607 E8.51646
G1 X65.144 Y122.926 E8.54048
G1 X64.614 Y122.194 E8.56453
G1 X64.151 Y121.419 E8.58855
G1 X63.759 Y120.606 E8.61257
G1 X63.439 Y119.761 E8.63661
G1 X63.196 Y118.891 E8.66064
G1 X63.031 Y118.003 E8.68468
G1 X62.935 Y116.882 E8.71461
G1 X62.922 Y116.277 E8.73071
G1 X62.922 Y107.538 E8.96324
G0 F6000 X62.522 Y107.532
G1 F600 X62.533 Y106.826 E8.98203
G1 X62.588 Y105.907 E9.00653
G1 X62.74 Y104.902 E9.03357
G1 X63.292 Y102.158 E9.10805
G1 X63.49 Y101.08 E9.13721
G1 X63.696 Y100.183 E9.1617
G1 X63.979 Y99.307 E9.18619
G1 X64.337 Y98.459 E9.21069
G1 X64.767 Y97.645 E9.23518
G1 X65.266 Y96.871 E9.25969
G1 X65.831 Y96.144 E9.28418
G1 X66.456 Y95.468 E9.30868
G1 X67.138 Y94.849 E9.33319
G1 X67.871 Y94.292 E9.35768
G1 X68.649 Y93.8 E9.38218
G1 X69.467 Y93.378 E9.40667
G1 X70.319 Y93.029 E9.43117
G1 X71.198 Y92.754 E9.45567
G1 X72.097 Y92.557 E9.48016
G1 X73.01 Y92.439 E9.50466
G1 X73.602 Y92.405 E9.52043
G1 X74.24 Y92.39 E9.53741
G1 X76.292 Y92.387 E9.59201
G1 X78.364 Y92.353 E9.64715
G1 X80.872 Y92.246 E9.71395
G1 X83.359 Y92.07 E9.78029
G1 X85.003 Y91.902 E9.82426
G1 X86.082 Y91.804 E9.85309
G1 X86.861 Y91.763 E9.87384
G1 X87.573 Y91.752 E9.89279
G1 X100.907 Y91.755 E10.24758
G1 X101.607 Y91.766 E10.26621
G1 X102.526 Y91.821 E10.29071
G1 X103.436 Y91.955 E10.31518
G1 X104.459 Y92.204 E10.3432
G1 X105.782 Y92.598 E10.37993
G1 X106.211 Y92.733 E10.3919
G1 X108.596 Y93.412 E10.45788
G1 X111.085 Y94.044 E10.52621
G1 X113.596 Y94.607 E10.59468
G1 X114.571 Y94.812 E10.62119
G1 X115.463 Y95.04 E10.64569
G1 X116.331 Y95.345 E10.67017
G1 X117.17 Y95.725 E10.69467
G1 X117.973 Y96.175 E10.71917
G1 X118.755 Y96.71 E10.74438
G1 X118.976 Y96.876 E10.75173
G1 X119.688 Y97.46 E10.77623
G1 X120.346 Y98.104 E10.80073
G1 X120.945 Y98.802 E10.82521
G1 X121.482 Y99.55 E10.84971
G1 X121.952 Y100.342 E10.87421
G1 X122.351 Y101.172 E10.89872
G1 X122.677 Y102.033 E10.92321
G1 X122.927 Y102.919 E10.94771
G1 X123.099 Y103.823 E10.97219
G1 X123.192 Y104.739 E10.99669
G1 X123.21 Y105.297 E11.01155
G1 X123.212 Y105.692 E11.02206
G1 X123.177 Y106.612 E11.04655
G1 X123.127 Y107.084 E11.05918
G1 X123.041 Y107.753 E11.07713
G1 X122.811 Y109.368 E11.12054
G1 X122.53 Y111.841 E11.18676
G1 X122.313 Y114.389 E11.2548
G1 X122.248 Y115.522 E11.285
G1 X122.186 Y116.383 E11.30797
G1 X122.08 Y117.298 E11.33248
G1 X121.895 Y118.2 E11.35698
G1 X121.632 Y119.082 E11.38147
G1 X121.294 Y119.939 E11.40598
G1 X120.883 Y120.762 E11.43046
G1 X120.402 Y121.547 E11.45495
G1 X119.855 Y122.288 E11.47946
G1 X119.245 Y122.978 E11.50397
G1 X118.578 Y123.612 E11.52845
G1 X117.859 Y124.186 E11.55293
G1 X117.092 Y124.696 E11.57744
G1 X116.284 Y125.137 E11.60193
G1 X115.441 Y125.507 E11.62643
G1 X114.569 Y125.802 E11.65092
G1 X113.274 Y126.091 E11.68623
G1 X110.801 Y126.483 E11.75285
G1 X108.36 Y126.94 E11.81893
G1 X105.135 Y127.649 E11.90679
G1 X103.877 Y127.949 E11.9412
G1 X102.973 Y128.124 E11.9657
G1 X101.62 Y128.236 E12.00183
G1 X100.887 Y128.248 E12.02133
G1 X87.546 Y128.245 E12.37631
G1 X86.845 Y128.234 E12.39497
G1 X85.676 Y128.151 E12.42615
G1 X84.636 Y128.019 E12.45405
G1 X83.788 Y127.899 E12.47683
G1 X81.258 Y127.614 E12.54458
G1 X78.742 Y127.401 E12.61176
G1 X76.238 Y127.261 E12.67849
G1 X73.63 Y127.189 E12.74791
G1 X72.985 Y127.18 E12.76508
G1 X72.066 Y127.127 E12.78957
G1 X71.155 Y126.995 E12.81407
G1 X70.258 Y126.784 E12.83858
G1 X69.384 Y126.497 E12.86306
G1 X68.538 Y126.134 E12.88756
G1 X67.726 Y125.699 E12.91207
G1 X66.955 Y125.196 E12.93656
G1 X66.231 Y124.628 E12.96105
G1 X65.559 Y123.999 E12.98554
G1 X64.944 Y123.313 E13.01005
G1 X64.39 Y122.578 E13.03454
G1 X63.903 Y121.797 E13.05903
G1 X63.485 Y120.976 E13.08355
G1 X63.14 Y120.123 E13.10803
G1 X62.871 Y119.242 E13.13254
G1 X62.678 Y118.342 E13.15703
G1 X62.565 Y117.428 E13.18154
G1 X62.536 Y116.894 E13.19577
G1 X62.522 Y116.277 E13.21219
G1 X62.522 Y107.532 E13.44488
G1 F1500 E9.94488
;MESH:void_switch-v52-stem.stl(1)
G0 F6000 X76.372 Y108.494
;TYPE:WALL-INNER
G1 F1500 E13.44488
G1 F434.8 X76.372 Y107.845 E13.46871
G1 F437.2 X76.006 Y107.961 E13.48273
G1 F441.2 X74.885 Y107.957 E13.52329
G1 F442.8 X74.593 Y107.882 E13.53416
G1 X74.593 Y108.498 E13.55637
G1 F442 X75.186 Y108.497 E13.57779
G1 F438.8 X75.779 Y108.496 E13.59937
G1 F436.4 X76.372 Y108.494 E13.62106
G0 F6000 X76.848 Y109.095
G1 F600 X76.848 Y107.441 E13.66507
G1 X76.618 Y107.388 E13.67136
G1 X76.437 Y107.259 E13.67727
G1 X76.255 Y107.388 E13.6832
G1 X75.933 Y107.49 E13.69219
G1 X74.923 Y107.488 E13.71907
G1 X74.593 Y107.403 E13.72813
G1 X74.456 Y107.314 E13.73248
G1 X74.319 Y107.403 E13.73683
G1 X74.121 Y107.445 E13.74221
G1 X74.119 Y109.098 E13.7862
G1 X74.502 Y108.97 E13.79694
G1 X76.467 Y108.97 E13.84923
G1 X76.848 Y109.095 E13.8599
G0 F6000 X77.157 Y109.97
G1 F447.8 X77.202 Y109.625 E13.8723
G1 F539.3 X77.248 Y109.28 E13.8826
G1 F600 X77.248 Y107.151 E13.93925
G1 X77.212 Y107.09 E13.94114
G1 X77.061 Y107.09 E13.94516
G1 X76.795 Y107.029 E13.95242
G1 X76.639 Y106.918 E13.95751
G1 F562.1 X76.436 Y106.544 E13.9696
G1 X76.235 Y106.918 E13.98166
G1 F600 X76.078 Y107.029 E13.98677
G1 X75.884 Y107.09 E13.99219
G1 X74.955 Y107.089 E14.0169
G1 X74.757 Y107.038 E14.02234
G1 X74.601 Y106.937 E14.02729
G1 X74.456 Y106.644 E14.03599
G1 X74.311 Y106.937 E14.04469
G1 X74.155 Y107.038 E14.04963
G1 X73.909 Y107.09 E14.05632
G1 X73.757 Y107.09 E14.06037
G1 X73.721 Y107.151 E14.06225
G1 X73.719 Y109.28 E14.1189
G1 F539.3 X73.765 Y109.625 E14.1292
G1 F448.6 X73.812 Y109.97 E14.14159
G1 X73.976 Y109.73 E14.15194
G1 F539.3 X74.14 Y109.49 E14.16054
G1 F600 X74.502 Y109.37 E14.17069
G1 X76.467 Y109.37 E14.22298
G1 X76.83 Y109.489 E14.23314
G1 F539.3 X76.993 Y109.729 E14.24173
G1 F447.8 X77.157 Y109.97 E14.25212
G1 F1500 E10.75212
G0 F6000 X77.648 Y116.39
;TYPE:WALL-OUTER
G1 F1500 E14.25212
G1 F600 X77.648 Y107.044 E14.5008
G1 X77.443 Y106.69 E14.51169
G1 X77.061 Y106.69 E14.52185
G1 X76.92 Y106.633 E14.5259
G1 X76.861 Y106.508 E14.52958
G1 X76.86 Y103.19 E14.61786
G1 X76.012 Y103.19 E14.64042
G1 X76.012 Y106.508 E14.72871
G1 X75.953 Y106.633 E14.73239
G1 X75.845 Y106.688 E14.73561
G1 X74.942 Y106.69 E14.75964
G1 F506.3 X74.729 Y106.514 E14.76835
G1 F438 X74.729 Y103.263 E14.88686
G1 F438.8 X74.183 Y103.263 E14.90673
G1 F438 X74.183 Y106.514 E15.02524
G1 F506.3 X73.97 Y106.69 E15.03395
G1 F600 X73.526 Y106.69 E15.04576
G1 X73.321 Y107.044 E15.05665
G1 X73.322 Y116.39 E15.30533
G1 X74.302 Y116.39 E15.3314
G1 X74.302 Y109.97 E15.50223
G1 X74.381 Y109.81 E15.50698
G1 X74.502 Y109.77 E15.51037
G1 X76.467 Y109.77 E15.56265
G1 X76.588 Y109.809 E15.56603
G1 X76.667 Y109.97 E15.57081
G1 X76.668 Y116.39 E15.74163
G1 X77.648 Y116.39 E15.76771
G0 F6000 X77.158 Y115.9
;TYPE:WALL-INNER
G1 F413.8 X77.158 Y112.935 E15.8821
G1 F413.1 X77.157 Y109.97 E15.99669
G1 F1500 E12.49669
G0 F6000 X73.812 Y109.97
G1 F1500 E15.99669
G1 F413.8 X73.812 Y115.9 E16.22548
G1 F1500 E12.72548
G0 F6000 X76.436 Y106.544
G1 F1500 E16.22548
G1 F529.8 X76.436 Y105.079 E16.26963
G1 F532.2 X76.436 Y103.614 E16.31358
G1 F1500 E12.81358
;MESH:void_switch-v52-stem.stl
G0 F6000 X83.272 Y108.494
;TYPE:WALL-INNER
G1 F1500 E16.31358
G1 F434.8 X83.272 Y107.845 E16.33741
G1 F437.2 X82.906 Y107.961 E16.35143
G1 F441.2 X81.785 Y107.957 E16.392
G1 F442.8 X81.493 Y107.882 E16.40287
G1 X81.493 Y108.498 E16.42508
G1 F442 X82.086 Y108.497 E16.4465
G1 F438.8 X82.679 Y108.496 E16.46807
G1 F436.4 X83.272 Y108.494 E16.48977
G0 F6000 X83.748 Y109.095
G1 F600 X83.748 Y107.441 E16.53378
G1 X83.518 Y107.388 E16.54006
G1 X83.337 Y107.259 E16.54597
G1 X83.155 Y107.388 E16.55191
G1 X82.833 Y107.49 E16.5609
G1 X81.823 Y107.488 E16.58777
G1 X81.493 Y107.403 E16.59684
G1 X81.356 Y107.314 E16.60118
G1 X81.219 Y107.403 E16.60553
G1 X81.021 Y107.445 E16.61092
G1 X81.019 Y109.098 E16.6549
G1 X81.402 Y108.97 E16.66565
G1 X83.367 Y108.97 E16.71793
G1 X83.748 Y109.095 E16.7286
G0 F6000 X84.057 Y109.97
G1 F447.8 X84.102 Y109.625 E16.741
G1 F539.3 X84.148 Y109.28 E16.75131
G1 F600 X84.148 Y107.151 E16.80796
G1 X84.112 Y107.09 E16.80984
G1 X83.961 Y107.09 E16.81386
G1 X83.695 Y107.029 E16.82112
G1 X83.539 Y106.918 E16.82621
G1 F562.1 X83.336 Y106.544 E16.8383
G1 X83.135 Y106.918 E16.85036
G1 F600 X82.978 Y107.029 E16.85548
G1 X82.784 Y107.09 E16.86089
G1 X81.855 Y107.089 E16.88561
G1 X81.657 Y107.038 E16.89105
G1 X81.501 Y106.937 E16.89599
G1 X81.356 Y106.644 E16.90469
G1 X81.211 Y106.937 E16.91339
G1 X81.055 Y107.038 E16.91834
G1 X80.809 Y107.09 E16.92503
