;FLAVOR:Marlin
;TIME:2133
;Filament used: 0.738235m
;Layer height: 0.16
;MINX:90.75
;MINY:90.75
;MINZ:0.16
;MAXX:129.25
;MAXY:129.25
;MAXZ:24
;Generated with Cura_SteamEngine main
M82 ;absolute extrusion mode
; Ender 3 Custom Start G-code
G92 E0 ; Reset Extruder
G28 ; Home all axes
M104 S120 ; Start heating up the nozzle most of the way
M190 S64.0 ; Start heating the bed, wait until target temperature reached
M109 S250.0 ; Finish heating the nozzle
G1 Z2.0 F3000 ; Move Z Axis up little to prevent scratching of Heat Bed
G1 X0.1 Y20 Z0.3 F5000.0 ; Move to start position
G1 X0.1 Y200.0 Z0.3 F1500.0 E15 ; Draw the first line
G1 X0.4 Y200.0 Z0.3 F5000.0 ; Move to side a little
G1 X0.4 Y20 Z0.3 F1500.0 E30 ; Draw the second line
G92 E0 ; Reset Extruder
G1 Z2.0 F3000 ; Move Z Axis up little to prevent scratching of Heat Bed
G1 X5 Y20 Z0.3 F5000.0 ; Move over to prevent blob squish
G92 E0
G92 E0
G1 F2100 E-4
;LAYER_COUNT:150
;LAYER:0
M107
G0 F6000 X93.948 Y94.014 Z0.16
G0 X90.751 Y102.275
;TYPE:SKIRT
G1 F2100 E0
G1 F600 X90.76 Y101.61 E0.01734
G1 X90.813 Y100.674 E0.04179
G1 X90.945 Y99.745 E0.06626
G1 X91.156 Y98.831 E0.09072
G1 X91.444 Y97.939 E0.11516
G1 X91.807 Y97.074 E0.13962
G1 X92.242 Y96.243 E0.16408
G1 X92.746 Y95.453 E0.18851
G1 X93.316 Y94.708 E0.21297
G1 X93.948 Y94.014 E0.23745
G1 X94.636 Y93.377 E0.2619
G1 X95.376 Y92.801 E0.28635
G1 X96.162 Y92.289 E0.31081
G1 X96.989 Y91.847 E0.33526
G1 X97.851 Y91.477 E0.35972
G1 X98.741 Y91.181 E0.38418
G1 X99.653 Y90.963 E0.40863
G1 X100.58 Y90.822 E0.43308
G1 X101.451 Y90.763 E0.45585
G1 X102.08 Y90.75 E0.47225
G1 X117.701 Y90.751 E0.87959
G1 X118.399 Y90.761 E0.89779
G1 X119.335 Y90.815 E0.92224
G1 X120.263 Y90.947 E0.94668
G1 X121.177 Y91.159 E0.97114
G1 X122.069 Y91.448 E0.99559
G1 X122.934 Y91.811 E1.02006
G1 X123.764 Y92.247 E1.0445
G1 X124.555 Y92.752 E1.06897
G1 X125.299 Y93.323 E1.09343
G1 X125.992 Y93.955 E1.11789
G1 X126.629 Y94.643 E1.14234
G1 X127.204 Y95.384 E1.16679
G1 X127.715 Y96.17 E1.19124
G1 X128.157 Y96.998 E1.21571
G1 X128.526 Y97.86 E1.24016
G1 X128.821 Y98.75 E1.26461
G1 X129.039 Y99.662 E1.28906
G1 X129.179 Y100.59 E1.31354
G1 X129.237 Y101.451 E1.33604
G1 X129.25 Y102.08 E1.35244
G1 X129.249 Y117.65 E1.75845
G1 X129.24 Y118.377 E1.77741
G1 X129.189 Y119.314 E1.80188
G1 X129.057 Y120.242 E1.82632
G1 X128.848 Y121.156 E1.85077
G1 X128.561 Y122.049 E1.87522
G1 X128.199 Y122.915 E1.8997
G1 X127.765 Y123.746 E1.92415
G1 X127.261 Y124.537 E1.9486
G1 X126.692 Y125.282 E1.97305
G1 X126.061 Y125.977 E1.99753
G1 X125.374 Y126.615 E2.02197
G1 X124.635 Y127.192 E2.04642
G1 X123.849 Y127.704 E2.07088
G1 X123.023 Y128.147 E2.09532
G1 X122.161 Y128.519 E2.1198
G1 X121.272 Y128.815 E2.14424
G1 X120.36 Y129.035 E2.1687
G1 X119.433 Y129.176 E2.19315
G1 X118.549 Y129.237 E2.21626
G1 X117.92 Y129.25 E2.23266
G1 X102.315 Y129.249 E2.63958
G1 X101.617 Y129.24 E2.65778
G1 X100.681 Y129.188 E2.68222
G1 X99.752 Y129.056 E2.70669
G1 X98.838 Y128.846 E2.73115
G1 X97.945 Y128.559 E2.75561
G1 X97.08 Y128.196 E2.78007
G1 X96.249 Y127.762 E2.80451
G1 X95.458 Y127.258 E2.82897
G1 X94.713 Y126.688 E2.85343
G1 X94.019 Y126.057 E2.87789
G1 X93.382 Y125.37 E2.90232
G1 X92.805 Y124.63 E2.92679
G1 X92.293 Y123.844 E2.95125
G1 X91.85 Y123.017 E2.97571
G1 X91.479 Y122.156 E3.00016
G1 X91.183 Y121.266 E3.02462
G1 X90.964 Y120.354 E3.04907
G1 X90.823 Y119.427 E3.07352
G1 X90.763 Y118.538 E3.09676
G1 X90.75 Y117.908 E3.11319
G1 X90.751 Y102.275 E3.52084
G0 F6000 X91.151 Y102.281
G1 F600 X91.16 Y101.616 E3.53818
G1 X91.212 Y100.696 E3.56221
G1 X91.344 Y99.785 E3.58621
G1 X91.555 Y98.889 E3.61021
G1 X91.842 Y98.014 E3.63422
G1 X92.205 Y97.168 E3.65823
G1 X92.639 Y96.356 E3.68224
G1 X93.142 Y95.585 E3.70624
G1 X93.711 Y94.861 E3.73025
G1 X94.339 Y94.189 E3.75424
G1 X95.024 Y93.573 E3.77826
G1 X95.76 Y93.02 E3.80227
G1 X96.541 Y92.532 E3.82628
G1 X97.361 Y92.114 E3.85028
G1 X98.215 Y91.769 E3.8743
G1 X99.095 Y91.499 E3.8983
G1 X99.995 Y91.307 E3.9223
G1 X100.909 Y91.193 E3.94631
G1 X101.462 Y91.163 E3.96076
G1 X102.08 Y91.15 E3.97687
G1 X117.543 Y91.15 E4.38009
G1 X118.393 Y91.161 E4.40225
G1 X119.312 Y91.214 E4.42626
G1 X120.223 Y91.347 E4.45026
G1 X121.119 Y91.558 E4.47427
G1 X121.993 Y91.846 E4.49826
G1 X122.84 Y92.209 E4.52229
G1 X123.651 Y92.644 E4.54629
G1 X124.421 Y93.148 E4.57029
G1 X125.145 Y93.717 E4.5943
G1 X125.817 Y94.347 E4.61832
G1 X126.432 Y95.032 E4.64232
G1 X126.985 Y95.768 E4.66633
G1 X127.472 Y96.549 E4.69033
G1 X127.889 Y97.37 E4.71434
G1 X128.234 Y98.224 E4.73836
G1 X128.503 Y99.104 E4.76235
G1 X128.695 Y100.005 E4.78637
G1 X128.808 Y100.918 E4.81036
G1 X128.837 Y101.462 E4.82457
G1 X128.85 Y102.08 E4.84069
G1 X128.849 Y117.645 E5.24656
G1 X128.84 Y118.372 E5.26552
G1 X128.789 Y119.291 E5.28952
G1 X128.658 Y120.203 E5.31354
G1 X128.448 Y121.099 E5.33754
G1 X128.162 Y121.974 E5.36155
G1 X127.801 Y122.821 E5.38555
G1 X127.367 Y123.633 E5.40956
G1 X126.865 Y124.405 E5.43357
G1 X126.297 Y125.13 E5.45759
G1 X125.669 Y125.803 E5.48159
G1 X124.985 Y126.419 E5.5056
G1 X124.25 Y126.973 E5.5296
G1 X123.47 Y127.462 E5.5536
G1 X122.65 Y127.881 E5.57761
G1 X121.797 Y128.227 E5.60162
G1 X120.917 Y128.498 E5.62563
G1 X120.017 Y128.691 E5.64963
G1 X119.103 Y128.806 E5.67365
G1 X118.538 Y128.837 E5.68841
G1 X117.92 Y128.85 E5.70452
G1 X102.32 Y128.849 E6.11131
G1 X101.622 Y128.84 E6.12951
G1 X100.703 Y128.788 E6.15351
G1 X99.792 Y128.657 E6.17751
G1 X98.896 Y128.447 E6.20151
G1 X98.021 Y128.16 E6.22552
G1 X97.174 Y127.798 E6.24954
G1 X96.362 Y127.364 E6.27355
G1 X95.591 Y126.862 E6.29754
G1 X94.866 Y126.294 E6.32156
G1 X94.193 Y125.665 E6.34558
G1 X93.578 Y124.981 E6.36956
G1 X93.024 Y124.246 E6.39356
G1 X92.536 Y123.465 E6.41758
G1 X92.117 Y122.645 E6.44159
G1 X91.771 Y121.792 E6.46559
G1 X91.501 Y120.912 E6.48959
G1 X91.308 Y120.011 E6.51362
G1 X91.194 Y119.098 E6.53761
G1 X91.163 Y118.527 E6.55253
G1 X91.15 Y117.908 E6.56867
G1 X91.151 Y102.281 E6.97616
G0 F6000 X91.551 Y102.286
G1 F600 X91.56 Y101.621 E6.9935
G1 X91.612 Y100.719 E7.01706
G1 X91.744 Y99.826 E7.0406
G1 X91.954 Y98.948 E7.06414
G1 X92.241 Y98.091 E7.08771
G1 X92.603 Y97.264 E7.11125
G1 X93.036 Y96.472 E7.13478
G1 X93.538 Y95.721 E7.15834
G1 X94.105 Y95.017 E7.18191
G1 X94.731 Y94.367 E7.20544
G1 X95.412 Y93.774 E7.22899
G1 X96.144 Y93.244 E7.25255
G1 X96.919 Y92.781 E7.2761
G1 X97.732 Y92.388 E7.29964
G1 X98.577 Y92.068 E7.3232
G1 X99.446 Y91.825 E7.34673
G1 X100.334 Y91.659 E7.37029
G1 X101.473 Y91.563 E7.40009
G1 X102.08 Y91.55 E7.41593
G1 X117.543 Y91.55 E7.81914
G1 X118.387 Y91.561 E7.84115
G1 X119.289 Y91.614 E7.86471
G1 X120.182 Y91.746 E7.88825
G1 X121.06 Y91.957 E7.9118
G1 X121.916 Y92.245 E7.93535
G1 X122.743 Y92.607 E7.95889
G1 X123.535 Y93.042 E7.98245
G1 X124.286 Y93.544 E8.006
G1 X124.989 Y94.111 E8.02955
G1 X125.639 Y94.738 E8.0531
G1 X126.231 Y95.42 E8.07665
G1 X126.761 Y96.151 E8.1002
G1 X127.223 Y96.927 E8.12375
G1 X127.616 Y97.74 E8.14729
G1 X127.934 Y98.585 E8.17084
G1 X128.177 Y99.455 E8.19439
G1 X128.342 Y100.343 E8.21794
G1 X128.437 Y101.473 E8.24751
G1 X128.45 Y102.08 E8.26334
G1 X128.449 Y117.64 E8.66909
G1 X128.44 Y118.367 E8.68804
G1 X128.389 Y119.269 E8.7116
G1 X128.258 Y120.163 E8.73516
G1 X128.049 Y121.041 E8.7587
G1 X127.763 Y121.898 E8.78226
G1 X127.402 Y122.726 E8.80581
G1 X126.97 Y123.518 E8.82933
G1 X126.469 Y124.27 E8.8529
G1 X125.903 Y124.974 E8.87645
G1 X125.278 Y125.625 E8.89998
G1 X124.597 Y126.219 E8.92355
G1 X123.866 Y126.75 E8.94711
G1 X123.092 Y127.214 E8.97064
G1 X122.279 Y127.608 E8.9942
G1 X121.435 Y127.928 E9.01773
G1 X120.565 Y128.173 E9.0413
G1 X119.678 Y128.339 E9.06483
G1 X118.527 Y128.437 E9.09496
G1 X117.92 Y128.45 E9.11079
G1 X102.325 Y128.449 E9.51744
G1 X101.627 Y128.44 E9.53564
G1 X100.726 Y128.389 E9.55918
G1 X99.832 Y128.257 E9.58274
G1 X98.954 Y128.048 E9.60628
G1 X98.097 Y127.761 E9.62984
G1 X97.27 Y127.4 E9.65337
G1 X96.477 Y126.967 E9.67693
G1 X95.726 Y126.466 E9.70047
G1 X95.022 Y125.9 E9.72403
G1 X94.371 Y125.274 E9.74758
G1 X93.778 Y124.593 E9.77112
G1 X93.248 Y123.862 E9.79467
G1 X92.784 Y123.087 E9.81822
G1 X92.39 Y122.274 E9.84178
G1 X92.07 Y121.43 E9.86532
G1 X91.826 Y120.56 E9.88888
G1 X91.66 Y119.672 E9.91244
G1 X91.563 Y118.517 E9.94266
G1 X91.55 Y117.908 E9.95854
G1 X91.551 Y102.286 E10.3659
G1 F2100 E6.3659
;MESH:Void Switch Heat-Set Jig.stl
G0 F6000 X103.15 Y116.85
;TYPE:WALL-INNER
G1 F2100 E10.3659
G1 F600 X116.85 Y116.85 E10.72314
G1 X116.85 Y106.967 E10.98085
G1 F550.5 X116.814 Y106.488 E10.9945
G1 F513.9 X116.82 Y106.199 E11.0033
G1 F511.7 X116.811 Y105.871 E11.01334
G1 F546.7 X116.85 Y105.431 E11.02598
G1 F600 X116.85 Y103.15 E11.08546
G1 X114.568 Y103.15 E11.14496
G1 F547.9 X114.128 Y103.189 E11.15757
G1 F511.7 X113.8 Y103.181 E11.16761
G1 X113.472 Y103.189 E11.17764
G1 F547.9 X113.032 Y103.15 E11.19025
G1 F600 X103.15 Y103.15 E11.44793
G1 X103.15 Y116.85 E11.80517
G0 F6000 X102.75 Y117.25
G1 F600 X117.25 Y117.25 E12.18327
G1 X117.25 Y102.75 E12.56138
G1 X102.75 Y102.75 E12.93948
G1 X102.75 Y117.25 E13.31758
G0 F6000 X102.35 Y117.65
G1 F600 X117.65 Y117.65 E13.71654
G1 X117.65 Y102.35 E14.1155
G1 X102.35 Y102.35 E14.51446
G1 X102.35 Y117.65 E14.91343
G0 F6000 X101.95 Y118.05
;TYPE:WALL-OUTER
G1 F600 X118.05 Y118.05 E15.33325
G1 X118.05 Y101.95 E15.75307
G1 X101.95 Y101.95 E16.17289
G1 X101.95 Y118.05 E16.59272
G1 F2100 E12.59272
G0 F6000 X112.961 Y108.582
;TYPE:WALL-INNER
G1 F2100 E16.59272
G1 F600 X112.704 Y108.483 E16.5999
G1 X112.082 Y108.067 E16.61941
G1 X111.703 Y107.626 E16.63457
G1 X111.57 Y107.368 E16.64214
G1 X111.33 Y106.795 E16.65834
G1 X111.28 Y106.344 E16.67017
G1 X111.27 Y106.071 E16.6773
G1 X111.385 Y105.494 E16.69264
G1 X111.594 Y104.989 E16.70689
G1 X111.839 Y104.624 E16.71835
G1 X112.224 Y104.238 E16.73257
G1 X112.589 Y103.995 E16.744
G1 X113.094 Y103.785 E16.75827
G1 F547.9 X113.518 Y103.662 E16.77087
G1 F511.7 X113.8 Y103.642 E16.77951
G1 X114.082 Y103.662 E16.78816
G1 F547.9 X114.506 Y103.785 E16.80076
G1 F600 X115.011 Y103.995 E16.81503
G1 X115.376 Y104.238 E16.82646
G1 X115.587 Y104.413 E16.83361
G1 X115.761 Y104.624 E16.84074
G1 X116.006 Y104.989 E16.8522
G1 X116.215 Y105.493 E16.86643
G1 F546.7 X116.338 Y105.917 E16.87906
G1 F504.2 X116.369 Y106.358 E16.89278
G1 F526.3 X116.292 Y106.631 E16.90121
G1 F574.2 X116.215 Y106.905 E16.90897
G1 F600 X116.006 Y107.411 E16.92324
G1 X115.761 Y107.776 E16.93471
G1 X115.377 Y108.16 E16.94887
G1 X115.013 Y108.405 E16.96031
G1 X114.538 Y108.63 E16.97402
G1 X114.021 Y108.706 E16.98764
G1 X113.427 Y108.706 E17.00313
G1 X112.961 Y108.582 E17.01571
G0 F6000 X112.898 Y108.132
G1 F600 X112.331 Y107.744 E17.03362
G1 X111.998 Y107.354 E17.04699
G1 X111.721 Y106.694 E17.06566
G1 X111.678 Y106.303 E17.07591
G1 X111.671 Y106.109 E17.08098
G1 X111.778 Y105.572 E17.09525
G1 X111.927 Y105.212 E17.10541
G1 X112.171 Y104.847 E17.11686
G1 X112.446 Y104.571 E17.12702
G1 X112.812 Y104.327 E17.13849
G1 X113.172 Y104.178 E17.14865
G1 X113.799 Y104.053 E17.16532
G1 X114.428 Y104.178 E17.18205
G1 X114.788 Y104.327 E17.19221
G1 X115.154 Y104.571 E17.20368
G1 X115.354 Y104.735 E17.21042
G1 X115.673 Y105.211 E17.22536
G1 X115.822 Y105.572 E17.23555
G1 X115.948 Y106.202 E17.2523
G1 X115.822 Y106.827 E17.26892
G1 X115.673 Y107.189 E17.27913
G1 X115.429 Y107.553 E17.29056
G1 X115.155 Y107.828 E17.30068
G1 X114.79 Y108.073 E17.31214
G1 X114.422 Y108.247 E17.32276
G1 X114.021 Y108.306 E17.33333
G1 X113.412 Y108.306 E17.34921
G1 X112.898 Y108.132 E17.36336
G0 F6000 X113.111 Y107.794
G1 F600 X112.599 Y107.445 E17.37952
G1 X112.343 Y107.142 E17.38986
G1 X112.11 Y106.588 E17.40553
G1 X112.076 Y106.262 E17.41408
G1 X112.072 Y106.143 E17.41718
G1 X112.17 Y105.65 E17.43029
G1 X112.26 Y105.434 E17.43639
G1 X112.504 Y105.069 E17.44784
G1 X112.669 Y104.904 E17.45392
G1 X113.034 Y104.66 E17.46537
G1 X113.25 Y104.57 E17.47148
G1 X113.696 Y104.481 E17.48333
G1 X113.918 Y104.484 E17.48912
G1 X114.35 Y104.57 E17.50061
G1 X114.566 Y104.66 E17.50671
G1 X115.029 Y104.969 E17.52123
G1 X115.341 Y105.434 E17.53583
G1 X115.43 Y105.65 E17.54192
G1 X115.539 Y106.201 E17.55657
G1 X115.43 Y106.749 E17.57114
G1 X115.341 Y106.966 E17.57725
G1 X115.096 Y107.331 E17.58871
G1 X114.932 Y107.496 E17.59478
G1 X114.567 Y107.741 E17.60624
G1 X114.127 Y107.907 E17.61851
G1 X113.488 Y107.9 E17.63517
G1 X113.111 Y107.794 E17.64538
G0 F6000 X113.548 Y107.504
;TYPE:WALL-OUTER
G1 F600 X113.281 Y107.423 E17.65266
G1 X112.877 Y107.153 E17.66533
G1 X112.691 Y106.931 E17.67288
G1 X112.504 Y106.488 E17.68542
G1 X112.474 Y106.221 E17.69243
G1 X112.476 Y106.16 E17.69402
G1 X112.57 Y105.689 E17.70654
G1 X112.858 Y105.258 E17.72006
G1 X113.289 Y104.97 E17.73357
G1 X113.8 Y104.868 E17.74716
G1 X114.311 Y104.97 E17.76075
G1 X114.742 Y105.258 E17.77427
G1 X115.031 Y105.69 E17.78782
G1 X115.128 Y106.199 E17.80133
G1 X115.03 Y106.71 E17.8149
G1 X114.742 Y107.142 E17.82844
G1 X114.344 Y107.409 E17.84094
G1 X114.056 Y107.506 E17.84886
G1 X113.548 Y107.504 E17.86211
G1 F2100 E13.86211
G0 F6000 X116.401 Y104.781
;TYPE:SKIN
G1 F2100 E17.86211
G1 F414.5 X116.401 Y103.599 E17.90672
G1 X115.222 Y103.6 E17.95122
G1 X115.647 Y103.878 E17.97039
G1 X115.906 Y104.094 E17.98312
G1 X116.136 Y104.373 E17.99677
G1 X116.401 Y104.781 E18.01513
G1 F2100 E14.01513
G0 F6000 X103.511 Y116.489
G1 F2100 E18.01513
G1 F600 X116.49 Y116.49 E18.35357
G1 X116.49 Y107.169 E18.59662
G1 X116.304 Y107.614 E18.6092
G1 X116.04 Y108.002 E18.62144
G1 X115.574 Y108.464 E18.63855
G1 X115.192 Y108.717 E18.6505
G1 X114.647 Y108.977 E18.66624
G1 X114.041 Y109.064 E18.68221
G1 X113.385 Y109.064 E18.69931
G1 X113.079 Y108.996 E18.70749
G1 X112.55 Y108.812 E18.72209
G1 X112.024 Y108.462 E18.73857
G1 X111.757 Y108.241 E18.7476
G1 X111.498 Y107.939 E18.75798
G1 X111.3 Y107.653 E18.76705
G1 X110.972 Y106.865 E18.78931
G1 X110.907 Y106.186 E18.80709
G1 X110.946 Y105.853 E18.81584
G1 X111.03 Y105.426 E18.82718
G1 X111.295 Y104.786 E18.84525
G1 X111.559 Y104.398 E18.85748
G1 X112.028 Y103.934 E18.87469
G1 X112.418 Y103.678 E18.88685
G1 X112.824 Y103.511 E18.8983
G1 X103.51 Y103.51 E19.14117
G1 X103.511 Y116.489 E19.47961
G0 F6000 X103.842 Y116.287
G1 F600 X103.71 Y116.155 E19.48448
G0 F6000 X103.71 Y115.59
G1 F600 X104.408 Y116.287 E19.5102
G0 F6000 X104.974 Y116.287
G1 F600 X103.71 Y115.024 E19.55679
G0 F6000 X103.71 Y114.458
G1 F600 X105.539 Y116.287 E19.62424
G0 F6000 X106.105 Y116.287
G1 F600 X103.71 Y113.892 E19.71256
G0 F6000 X103.71 Y113.327
G1 F600 X106.671 Y116.287 E19.82174
G0 F6000 X107.236 Y116.287
G1 F600 X103.71 Y112.761 E19.95176
G0 F6000 X103.71 Y112.195
G1 F600 X107.802 Y116.287 E20.10266
G0 F6000 X108.368 Y116.287
G1 F600 X103.71 Y111.63 E20.27442
G0 F6000 X103.71 Y111.064
G1 F600 X108.934 Y116.287 E20.46705
G0 F6000 X109.499 Y116.287
G1 F600 X103.71 Y110.498 E20.68053
G0 F6000 X103.709 Y109.932
G1 F600 X110.066 Y116.288 E20.91493
G0 F6000 X110.631 Y116.288
G1 F600 X103.709 Y109.366 E21.1702
G0 F6000 X103.709 Y108.801
G1 F600 X111.197 Y116.288 E21.44631
G0 F6000 X111.763 Y116.288
G1 F600 X103.709 Y108.235 E21.7433
G0 F6000 X103.709 Y107.669
G1 F600 X112.328 Y116.288 E22.06114
G0 F6000 X112.894 Y116.288
G1 F600 X103.709 Y107.104 E22.39984
G0 F6000 X103.709 Y106.538
G1 F600 X113.46 Y116.288 E22.75941
G0 F6000 X114.025 Y116.288
G1 F600 X103.709 Y105.972 E23.13983
G0 F6000 X103.709 Y105.406
G1 F600 X114.591 Y116.288 E23.54113
G0 F6000 X115.157 Y116.288
G1 F600 X103.709 Y104.841 E23.96328
G0 F6000 X103.709 Y104.275
G1 F600 X115.722 Y116.288 E24.40628
G0 F6000 X116.289 Y116.289
G1 F600 X103.709 Y103.709 E24.87019
G0 F6000 X104.276 Y103.71
G1 F600 X116.289 Y115.723 E25.31319
G0 F6000 X116.289 Y115.157
G1 F600 X104.842 Y103.71 E25.73532
G0 F6000 X105.407 Y103.71
G1 F600 X116.289 Y114.592 E26.13662
G0 F6000 X116.289 Y114.026
G1 F600 X105.973 Y103.71 E26.51704
G0 F6000 X106.539 Y103.71
G1 F600 X116.289 Y113.46 E26.87659
G0 F6000 X116.289 Y112.895
G1 F600 X112.239 Y108.844 E27.02596
G0 F6000 X113.184 Y109.224
G1 F600 X116.289 Y112.329 E27.14047
G0 F6000 X116.289 Y111.763
G1 F600 X113.787 Y109.262 E27.23271
G0 F6000 X114.317 Y109.226
G1 F600 X116.289 Y111.198 E27.30543
