;FLAVOR:Marlin
;TIME:1513
;Filament used: 0.410429m
;Layer height: 0.16
;MINX:142.83
;MINY:37.25
;MINZ:0.16
;MAXX:196.94
;MAXY:74.549
;MAXZ:10.4
;Generated with Cura_SteamEngine main
M82 ;absolute extrusion mode
; Ender 3 Custom Start G-code
G92 E0 ; Reset Extruder
G28 ; Home all axes
M104 S120 ; Start heating up the nozzle most of the way
M190 S68.0 ; Start heating the bed, wait until target temperature reached
M109 S252.0 ; Finish heating the nozzle
G1 Z2.0 F3000 ; Move Z Axis up little to prevent scratching of Heat Bed
G1 X0.1 Y20 Z0.3 F5000.0 ; Move to start position
G1 X0.1 Y200.0 Z0.3 F1500.0 E15 ; Draw the first line
G1 X0.4 Y200.0 Z0.3 F5000.0 ; Move to side a little
G1 X0.4 Y20 Z0.3 F1500.0 E30 ; Draw the second line
G92 E0 ; Reset Extruder
G1 Z2.0 F3000 ; Move Z Axis up little to prevent scratching of Heat Bed
G1 X5 Y20 Z0.3 F5000.0 ; Move over to prevent blob squish
G92 E0
G92 E0
G1 F1500 E-6.5
;LAYER_COUNT:65
;LAYER:0
M107
G0 F6000 X144.028 Y46.441 Z0.16
G0 X142.83 Y53.909
;TYPE:SKIRT
G1 F1500 E0
G1 F900 X142.841 Y53.203 E0.01879
G1 X142.896 Y52.266 E0.04376
G1 X143.056 Y51.207 E0.07226
G1 X143.613 Y48.434 E0.14752
G1 X143.816 Y47.354 E0.17676
G1 X144.028 Y46.441 E0.2017
G1 X144.317 Y45.548 E0.22667
G1 X144.681 Y44.684 E0.25162
G1 X145.118 Y43.854 E0.27658
G1 X145.623 Y43.064 E0.30153
G1 X146.194 Y42.32 E0.32648
G1 X146.826 Y41.627 E0.35144
G1 X147.515 Y40.991 E0.37639
G1 X148.256 Y40.416 E0.40134
G1 X149.043 Y39.906 E0.42629
G1 X149.871 Y39.464 E0.45127
G1 X150.733 Y39.095 E0.47622
G1 X151.623 Y38.801 E0.50116
G1 X152.626 Y38.567 E0.52856
G1 X155.641 Y38.009 E0.61015
G1 X157.96 Y37.513 E0.67325
G1 X158.884 Y37.356 E0.69819
G1 X160.056 Y37.272 E0.72945
G1 X161.226 Y37.252 E0.76059
G1 X174.057 Y37.25 E1.102
G1 X174.925 Y37.261 E1.12509
G1 X175.862 Y37.314 E1.15007
G1 X176.79 Y37.447 E1.17501
G1 X177.704 Y37.658 E1.19997
G1 X178.273 Y37.832 E1.2158
G1 X179.086 Y38.105 E1.23862
G1 X180.04 Y38.441 E1.26553
G1 X182.473 Y39.223 E1.33353
G1 X184.875 Y39.922 E1.4001
G1 X187.401 Y40.58 E1.46955
G1 X188.441 Y40.837 E1.49806
G1 X189.341 Y41.1 E1.52301
G1 X190.215 Y41.44 E1.54796
G1 X191.057 Y41.853 E1.57291
G1 X191.861 Y42.335 E1.59786
G1 X192.621 Y42.885 E1.62282
G1 X193.331 Y43.498 E1.64778
G1 X193.906 Y44.077 E1.66949
G1 X194.523 Y44.783 E1.69444
G1 X195.078 Y45.54 E1.71941
G1 X195.566 Y46.341 E1.74437
G1 X195.984 Y47.18 E1.76931
G1 X196.329 Y48.052 E1.79426
G1 X196.598 Y48.951 E1.81923
G1 X196.79 Y49.869 E1.84419
G1 X196.903 Y50.8 E1.86914
G1 X196.937 Y51.587 E1.8901
G1 X196.94 Y52.045 E1.90229
G1 X196.906 Y52.982 E1.92724
G1 X196.83 Y53.67 E1.94565
G1 X196.456 Y56.293 E2.01615
G1 X196.174 Y58.771 E2.08251
G1 X195.959 Y61.291 E2.14981
G1 X195.916 Y61.898 E2.166
G1 X195.809 Y62.83 E2.19096
G1 X195.624 Y63.75 E2.21593
G1 X195.362 Y64.65 E2.24087
G1 X195.023 Y65.525 E2.26584
G1 X194.611 Y66.367 E2.29078
G1 X194.129 Y67.172 E2.31575
G1 X193.581 Y67.932 E2.34068
G1 X192.969 Y68.643 E2.36564
G1 X192.299 Y69.3 E2.39061
G1 X191.576 Y69.896 E2.41554
G1 X190.804 Y70.43 E2.44052
G1 X189.99 Y70.895 E2.46546
G1 X189.139 Y71.289 E2.49041
G1 X188.257 Y71.61 E2.51539
G1 X187.121 Y71.903 E2.5466
G1 X185.291 Y72.264 E2.59624
G1 X182.794 Y72.806 E2.66422
G1 X180.441 Y73.388 E2.72872
G1 X179.161 Y73.752 E2.76413
G1 X178.924 Y73.809 E2.77061
G1 X177.693 Y74.147 E2.80458
G1 X176.779 Y74.356 E2.82953
G1 X175.85 Y74.488 E2.8545
G1 X174.933 Y74.539 E2.87893
G1 X174.228 Y74.549 E2.89769
G1 X160.83 Y74.548 E3.25419
G1 X160.12 Y74.537 E3.27308
G1 X159.053 Y74.468 E3.30153
G1 X156.498 Y74.179 E3.36995
G1 X153.791 Y73.949 E3.44224
G1 X153.051 Y73.896 E3.46198
G1 X152.119 Y73.789 E3.48694
G1 X151.2 Y73.603 E3.51189
G1 X150.3 Y73.339 E3.53685
G1 X149.425 Y73 E3.56181
G1 X148.583 Y72.587 E3.58677
G1 X147.779 Y72.104 E3.61172
G1 X147.019 Y71.555 E3.63667
G1 X146.309 Y70.942 E3.66163
G1 X145.653 Y70.272 E3.68658
G1 X145.057 Y69.548 E3.71153
G1 X144.524 Y68.775 E3.73651
G1 X144.06 Y67.961 E3.76145
G1 X143.666 Y67.109 E3.78642
G1 X143.347 Y66.228 E3.81135
G1 X143.104 Y65.322 E3.83631
G1 X142.938 Y64.399 E3.86127
G1 X142.844 Y63.264 E3.89157
G1 X142.83 Y62.634 E3.90834
G1 X142.83 Y53.909 E4.14049
G0 F6000 X143.23 Y53.915
G1 F900 X143.241 Y53.209 E4.15928
G1 X143.296 Y52.29 E4.18378
G1 X143.448 Y51.285 E4.21082
G1 X144.009 Y48.493 E4.2866
G1 X144.209 Y47.428 E4.31543
G1 X144.418 Y46.531 E4.33994
G1 X144.704 Y45.656 E4.36443
G1 X145.065 Y44.809 E4.38893
G1 X145.498 Y43.997 E4.41341
G1 X145.999 Y43.225 E4.4379
G1 X146.566 Y42.499 E4.46241
G1 X147.194 Y41.826 E4.48691
G1 X147.878 Y41.209 E4.51142
G1 X148.612 Y40.655 E4.53589
G1 X149.393 Y40.166 E4.5604
G1 X150.212 Y39.746 E4.58489
G1 X151.065 Y39.399 E4.6094
G1 X151.945 Y39.128 E4.6339
G1 X152.698 Y38.96 E4.65443
G1 X155.76 Y38.394 E4.73728
G1 X158.043 Y37.905 E4.7994
G1 X158.951 Y37.751 E4.82391
G1 X160.064 Y37.672 E4.8536
G1 X161.226 Y37.652 E4.88452
G1 X174.057 Y37.65 E5.22593
G1 X174.92 Y37.661 E5.2489
G1 X175.839 Y37.714 E5.27339
G1 X176.75 Y37.846 E5.29788
G1 X177.646 Y38.057 E5.32237
G1 X178.145 Y38.211 E5.33627
G1 X179.115 Y38.538 E5.36351
G1 X179.932 Y38.827 E5.38657
G1 X182.334 Y39.599 E5.4537
G1 X184.777 Y40.31 E5.5214
G1 X187.282 Y40.962 E5.59027
G1 X188.345 Y41.225 E5.61941
G1 X189.228 Y41.485 E5.6439
G1 X190.085 Y41.82 E5.66839
G1 X190.91 Y42.228 E5.69288
G1 X191.697 Y42.707 E5.71739
G1 X192.439 Y43.252 E5.74189
G1 X193.131 Y43.859 E5.76638
G1 X193.617 Y44.353 E5.78482
G1 X194.222 Y45.047 E5.80932
G1 X194.764 Y45.79 E5.83379
G1 X195.24 Y46.578 E5.85828
G1 X195.646 Y47.405 E5.8828
G1 X195.978 Y48.263 E5.90728
G1 X196.235 Y49.148 E5.9318
G1 X196.414 Y50.051 E5.95629
G1 X196.514 Y50.966 E5.98078
G1 X196.537 Y51.59 E5.9974
G1 X196.54 Y52.048 E6.00958
G1 X196.506 Y52.968 E6.03408
G1 X196.434 Y53.613 E6.05135
G1 X196.062 Y56.223 E6.1215
G1 X195.777 Y58.728 E6.18858
G1 X195.556 Y61.317 E6.25772
G1 X195.517 Y61.87 E6.27247
G1 X195.412 Y62.785 E6.29698
G1 X195.228 Y63.687 E6.32147
G1 X194.966 Y64.57 E6.34598
G1 X194.629 Y65.426 E6.37046
G1 X194.219 Y66.251 E6.39497
G1 X193.739 Y67.036 E6.41945
G1 X193.193 Y67.777 E6.44394
G1 X192.584 Y68.468 E6.46845
G1 X191.918 Y69.103 E6.49294
G1 X191.199 Y69.678 E6.51743
G1 X190.433 Y70.189 E6.54193
G1 X189.625 Y70.631 E6.56644
G1 X188.782 Y71.001 E6.59094
G1 X187.91 Y71.297 E6.61544
G1 X187.042 Y71.511 E6.63923
G1 X185.794 Y71.762 E6.6731
G1 X185.203 Y71.873 E6.6891
G1 X182.719 Y72.413 E6.75674
G1 X180.319 Y73.007 E6.82252
G1 X179.051 Y73.367 E6.8576
G1 X178.823 Y73.421 E6.86383
G1 X177.587 Y73.761 E6.89794
G1 X176.689 Y73.966 E6.92245
G1 X175.777 Y74.093 E6.94695
G1 X174.927 Y74.139 E6.9696
G1 X174.071 Y74.15 E6.99238
G1 X160.836 Y74.148 E7.34454
G1 X160.126 Y74.137 E7.36343
G1 X159.098 Y74.071 E7.39084
G1 X156.505 Y73.778 E7.46027
G1 X153.859 Y73.553 E7.53093
G1 X153.079 Y73.497 E7.55174
G1 X152.165 Y73.391 E7.57622
G1 X151.263 Y73.206 E7.60072
G1 X150.38 Y72.944 E7.62523
G1 X149.524 Y72.606 E7.64972
G1 X148.7 Y72.195 E7.67422
G1 X147.915 Y71.714 E7.69872
G1 X147.175 Y71.167 E7.7232
G1 X146.484 Y70.557 E7.74773
G1 X145.85 Y69.891 E7.77219
G1 X145.275 Y69.171 E7.79671
G1 X144.766 Y68.404 E7.8212
G1 X144.324 Y67.596 E7.84571
G1 X143.955 Y66.753 E7.8702
G1 X143.66 Y65.881 E7.89469
G1 X143.442 Y64.987 E7.91917
G1 X143.302 Y64.077 E7.94367
G1 X143.244 Y63.252 E7.96568
G1 X143.23 Y62.634 E7.98213
G1 X143.23 Y53.915 E8.21412
G0 F6000 X143.63 Y53.921
G1 F900 X143.641 Y53.215 E8.23291
G1 X143.695 Y52.314 E8.25693
G1 X143.84 Y51.364 E8.2825
G1 X144.402 Y48.567 E8.35841
G1 X144.602 Y47.502 E8.38724
G1 X144.808 Y46.622 E8.41129
G1 X145.09 Y45.765 E8.43529
G1 X145.448 Y44.935 E8.45935
G1 X145.877 Y44.141 E8.48336
G1 X146.375 Y43.387 E8.5074
G1 X146.938 Y42.681 E8.53143
G1 X147.561 Y42.027 E8.55546
G1 X148.239 Y41.431 E8.57948
G1 X148.968 Y40.897 E8.60353
G1 X149.74 Y40.43 E8.62754
G1 X150.552 Y40.033 E8.65159
G1 X151.395 Y39.709 E8.67562
G1 X152.263 Y39.461 E8.69964
G1 X152.771 Y39.353 E8.71345
G1 X155.845 Y38.784 E8.79664
G1 X158.127 Y38.296 E8.85873
G1 X159.018 Y38.146 E8.88277
G1 X160.071 Y38.072 E8.91086
G1 X161.226 Y38.052 E8.9416
G1 X174.057 Y38.05 E9.283
G1 X174.914 Y38.061 E9.30581
G1 X175.816 Y38.114 E9.32985
G1 X176.709 Y38.246 E9.35387
G1 X178.018 Y38.591 E9.38989
G1 X178.981 Y38.915 E9.41692
G1 X179.803 Y39.205 E9.44012
G1 X182.215 Y39.981 E9.50754
G1 X184.669 Y40.695 E9.57554
G1 X187.163 Y41.344 E9.64411
G1 X188.249 Y41.613 E9.67388
G1 X189.115 Y41.869 E9.69791
G1 X189.955 Y42.2 E9.72193
G1 X190.763 Y42.604 E9.74597
G1 X191.531 Y43.078 E9.76998
G1 X192.255 Y43.618 E9.79402
G1 X193.251 Y44.54 E9.83013
G1 X193.92 Y45.31 E9.85727
G1 X194.45 Y46.041 E9.8813
G1 X194.914 Y46.816 E9.90533
G1 X195.307 Y47.629 E9.92936
G1 X195.627 Y48.473 E9.95337
G1 X195.871 Y49.343 E9.97742
G1 X196.036 Y50.23 E10.00142
G1 X196.123 Y51.129 E10.02546
G1 X196.137 Y51.592 E10.03778
G1 X196.14 Y52.05 E10.04997
G1 X196.106 Y52.953 E10.07401
G1 X196.038 Y53.557 E10.09018
G1 X195.667 Y56.159 E10.16012
G1 X195.375 Y58.72 E10.2287
G1 X195.161 Y61.235 E10.29586
G1 X195.118 Y61.842 E10.31206
G1 X195.014 Y62.739 E10.33608
G1 X194.831 Y63.623 E10.3601
G1 X194.571 Y64.488 E10.38414
G1 X194.236 Y65.327 E10.40818
G1 X193.827 Y66.132 E10.4322
G1 X193.349 Y66.898 E10.45623
G1 X192.805 Y67.619 E10.48026
G1 X192.2 Y68.289 E10.50428
G1 X191.537 Y68.903 E10.52832
G1 X190.823 Y69.456 E10.55235
G1 X190.063 Y69.943 E10.57637
G1 X189.262 Y70.361 E10.60041
G1 X188.428 Y70.707 E10.62444
G1 X187.566 Y70.978 E10.64848
G1 X186.962 Y71.119 E10.66498
G1 X185.72 Y71.369 E10.69869
G1 X185.116 Y71.483 E10.71505
G1 X182.643 Y72.02 E10.78238
G1 X180.231 Y72.617 E10.8485
G1 X178.942 Y72.983 E10.88415
G1 X178.69 Y73.043 E10.89104
G1 X177.481 Y73.375 E10.9244
G1 X176.6 Y73.576 E10.94845
G1 X175.705 Y73.698 E10.97248
G1 X174.922 Y73.739 E10.99335
G1 X174.071 Y73.75 E11.01599
G1 X160.842 Y73.748 E11.36799
G1 X160.132 Y73.737 E11.38688
G1 X159.143 Y73.673 E11.41325
G1 X156.548 Y73.379 E11.48274
G1 X153.92 Y73.156 E11.55292
G1 X153.108 Y73.098 E11.57458
G1 X152.211 Y72.993 E11.59861
G1 X151.327 Y72.81 E11.62263
G1 X150.462 Y72.549 E11.64667
G1 X149.624 Y72.212 E11.67071
G1 X148.819 Y71.803 E11.69473
G1 X148.053 Y71.324 E11.71877
G1 X147.333 Y70.78 E11.74278
G1 X146.663 Y70.173 E11.76684
G1 X146.05 Y69.51 E11.79086
G1 X145.498 Y68.795 E11.8149
G1 X145.012 Y68.035 E11.8389
G1 X144.594 Y67.234 E11.86294
G1 X144.249 Y66.399 E11.88698
G1 X143.979 Y65.537 E11.91102
G1 X143.787 Y64.655 E11.93504
G1 X143.673 Y63.759 E11.95907
G1 X143.644 Y63.239 E11.97293
G1 X143.63 Y62.634 E11.98903
G1 X143.63 Y53.921 E12.22087
G1 F1500 E5.72087
;MESH:void_switch-v27.stl
G0 F6000 X155.229 Y55.123
;TYPE:WALL-INNER
G1 F1500 E12.22087
G1 F900 X157.156 Y55.123 E12.27214
G1 X157.156 Y54.123 E12.29875
G1 X156.646 Y54.273 E12.31289
G1 X155.667 Y54.273 E12.33894
G1 X155.23 Y54.172 E12.35088
G1 X155.229 Y55.123 E12.37618
G0 F6000 X154.827 Y55.651
G1 F900 X155.21 Y55.523 E12.38692
G1 X157.175 Y55.523 E12.43921
G1 X157.556 Y55.648 E12.44988
G1 X157.556 Y53.824 E12.49841
G1 X157.326 Y53.771 E12.50469
G1 X157.145 Y53.642 E12.51061
G1 X156.963 Y53.771 E12.51654
G1 X156.611 Y53.873 E12.52629
G1 X155.68 Y53.873 E12.55107
G1 X155.302 Y53.786 E12.56139
G1 X155.165 Y53.697 E12.56573
G1 X155.028 Y53.786 E12.57008
G1 X154.83 Y53.828 E12.57547
G1 X154.827 Y55.651 E12.62397
G0 F6000 X154.52 Y56.523
G1 F672.9 X154.684 Y56.283 E12.63432
G1 F809 X154.848 Y56.043 E12.64292
G1 F900 X155.21 Y55.923 E12.65307
G1 X157.175 Y55.923 E12.70535
G1 X157.538 Y56.042 E12.71552
G1 F809 X157.701 Y56.282 E12.72411
G1 F671.6 X157.865 Y56.523 E12.7345
G1 X157.91 Y56.178 E12.74691
G1 F809 X157.956 Y55.833 E12.75721
G1 F900 X157.956 Y53.537 E12.8183
G1 X157.919 Y53.473 E12.82027
G1 X157.769 Y53.473 E12.82426
G1 X157.503 Y53.412 E12.83152
G1 X157.347 Y53.301 E12.83662
G1 F843.1 X157.144 Y52.927 E12.8487
G1 X156.943 Y53.301 E12.86076
G1 F900 X156.786 Y53.412 E12.86588
G1 X156.588 Y53.47 E12.87137
G1 X155.692 Y53.473 E12.89521
G1 X155.466 Y53.421 E12.90138
G1 X155.31 Y53.32 E12.90632
G1 X155.165 Y53.025 E12.91507
G1 X155.019 Y53.32 E12.92383
G1 X154.864 Y53.421 E12.92875
G1 X154.617 Y53.473 E12.93547
G1 X154.466 Y53.473 E12.93949
G1 X154.429 Y53.537 E12.94145
G1 X154.427 Y55.833 E13.00255
G1 F809 X154.473 Y56.178 E13.01285
G1 F672.9 X154.52 Y56.523 E13.02524
G1 F1500 E6.52524
G0 F6000 X154.03 Y62.734
;TYPE:WALL-OUTER
G1 F1500 E13.02524
G1 F900 X155.01 Y62.734 E13.05132
G1 X155.01 Y56.523 E13.21658
G1 X155.089 Y56.363 E13.22133
G1 X155.21 Y56.323 E13.22472
G1 X157.175 Y56.323 E13.277
G1 X157.296 Y56.362 E13.28039
G1 X157.375 Y56.523 E13.28516
G1 X157.376 Y62.734 E13.45042
G1 X158.356 Y62.734 E13.4765
G1 X158.356 Y53.429 E13.72408
G1 X158.149 Y53.073 E13.73504
G1 X157.769 Y53.073 E13.74515
G1 X157.628 Y53.016 E13.7492
G1 X157.569 Y52.891 E13.75288
G1 X157.568 Y49.573 E13.84116
G1 X156.72 Y49.573 E13.86373
G1 X156.72 Y52.891 E13.95201
G1 X156.661 Y53.016 E13.95569
G1 X156.543 Y53.072 E13.95917
G1 X155.651 Y53.073 E13.9829
G1 F757.9 X155.438 Y52.897 E13.99163
G1 F655.7 X155.438 Y51.271 E14.05101
G1 F658.1 X155.438 Y49.645 E14.11018
G1 X154.891 Y49.646 E14.13008
G1 X154.891 Y51.272 E14.18924
G1 F655.7 X154.891 Y52.898 E14.24863
G1 F757.9 X154.68 Y53.073 E14.25729
G1 F900 X154.236 Y53.073 E14.2691
G1 X154.029 Y53.429 E14.28006
G1 X154.03 Y62.734 E14.52765
G0 F6000 X154.52 Y62.244
;TYPE:WALL-INNER
G1 F620.7 X154.52 Y56.523 E14.74837
G1 F1500 E8.24837
G0 F6000 X157.865 Y56.523
G1 F1500 E14.74837
G1 F619.6 X157.865 Y59.384 E14.85895
G1 F620.7 X157.866 Y62.245 E14.96933
G1 F1500 E8.46933
G0 F6000 X157.144 Y52.927
G1 F1500 E14.96933
G1 F794.7 X157.144 Y51.462 E15.01347
G1 F798.2 X157.144 Y49.997 E15.05742
G1 F1500 E8.55742
G0 F6000 X156.727 Y54.694
;TYPE:SKIN
G1 F1500 E15.05742
G1 F671.6 X156.191 Y54.696 E15.07654
G1 F676.7 X155.655 Y54.698 E15.0955
G1 F1500 E8.5955
G0 F6000 X160.904 Y50.517
;TYPE:WALL-INNER
G1 F1500 E15.0955
G1 F900 X162.17 Y49.252 E15.14312
G1 X160.904 Y49.252 E15.17681
G1 X160.904 Y50.517 E15.21047
G0 F6000 X161.317 Y49.623
G1 F1052.6 X161.254 Y49.659 E15.21212
G1 X161.233 Y49.623 E15.21307
G1 X161.295 Y49.587 E15.2147
G1 F1500 E8.7147
G0 F6000 X160.581 Y55.312
G1 F1500 E15.2147
G1 F647.5 X160.779 Y54.832 E15.2339
G1 X161.251 Y54.359 E15.25862
G1 F661.8 X161.01 Y54.118 E15.27095
G1 F786 X160.874 Y53.708 E15.28411
G1 F942.4 X160.873 Y52.932 E15.30383
G1 F947.4 X160.872 Y52.156 E15.32345
G1 F952.4 X160.871 Y51.38 E15.34296
G1 F927.8 X161.033 Y50.954 E15.35472
G1 F900 X162.608 Y49.379 E15.41399
G1 F920.7 X162.93 Y49.221 E15.42332
G1 F947.4 X164.095 Y49.219 E15.45277
G1 F954.9 X165.26 Y49.216 E15.48198
G1 F867.5 X165.514 Y49.284 E15.48924
G1 F730.2 X165.769 Y49.353 E15.4979
G1 F663 X166.013 Y49.599 E15.51042
G1 F648.6 X166.486 Y49.126 E15.53511
G1 F644 X166.848 Y48.933 E15.55037
G1 X166.013 Y48.928 E15.58142
G1 F676.7 X165.903 Y48.906 E15.58539
G1 F757.9 X165.582 Y48.873 E15.59559
G1 F880.2 X165.26 Y48.84 E15.60439
G1 F957.4 X163.033 Y48.84 E15.66009
G1 F942.4 X162.711 Y48.846 E15.66828
G1 F913.7 X162.389 Y48.852 E15.67672
G1 F900 X160.504 Y48.852 E15.72687
G1 X160.504 Y50.735 E15.77698
G1 F913.7 X160.498 Y51.057 E15.78542
G1 F942.4 X160.492 Y51.379 E15.7936
G1 F952.4 X160.492 Y52.166 E15.81339
G1 F947.4 X160.493 Y52.953 E15.83328
G1 F942.4 X160.493 Y53.74 E15.85328
G1 F867.5 X160.526 Y53.995 E15.86038
G1 F753.1 X160.559 Y54.249 E15.86852
G1 F675.4 X160.582 Y54.359 E15.87251
G1 F647.5 X160.581 Y55.312 E15.90776
G1 F1500 E9.40776
G0 F6000 X161.304 Y62.148
G1 F1500 E15.90776
G1 F900 X166.216 Y62.15 E16.03845
G1 X165.974 Y62.009 E16.04591
G1 X161.305 Y57.339 E16.22162
G1 X161.304 Y62.148 E16.34958
G1 F1500 E9.84958
G0 F6000 X167.713 Y62.15
G1 F1500 E16.34958
G1 F900 X173.801 Y62.15 E16.51157
G1 X173.801 Y56.067 E16.67342
G1 X173.663 Y56.303 E16.6807
G1 X171.227 Y58.739 E16.77236
G1 X171.024 Y58.905 E16.77934
G1 X170.71 Y59.058 E16.78864
G1 X170.557 Y59.372 E16.79793
G1 X170.392 Y59.573 E16.80485
G1 X167.956 Y62.009 E16.89651
G1 X167.713 Y62.15 E16.90399
G1 F1500 E10.40399
G0 F6000 X173.801 Y54.556
G1 F1500 E16.90399
G1 F900 X173.801 Y49.65 E17.03453
