;FLAVOR:Marlin
;TIME:1401
;Filament used: 0.409852m
;Layer height: 0.16
;MINX:41.889
;MINY:120.749
;MINZ:0.16
;MAXX:95.999
;MAXY:158.048
;MAXZ:10.4
;Generated with Cura_SteamEngine main
M82 ;absolute extrusion mode
; Ender 3 Custom Start G-code
G92 E0 ; Reset Extruder
G28 ; Home all axes
M104 S120 ; Start heating up the nozzle most of the way
M190 S68.0 ; Start heating the bed, wait until target temperature reached
M109 S252.0 ; Finish heating the nozzle
G1 Z2.0 F3000 ; Move Z Axis up little to prevent scratching of Heat Bed
G1 X0.1 Y20 Z0.3 F5000.0 ; Move to start position
G1 X0.1 Y200.0 Z0.3 F1500.0 E15 ; Draw the first line
G1 X0.4 Y200.0 Z0.3 F5000.0 ; Move to side a little
G1 X0.4 Y20 Z0.3 F1500.0 E30 ; Draw the second line
G92 E0 ; Reset Extruder
G1 Z2.0 F3000 ; Move Z Axis up little to prevent scratching of Heat Bed
G1 X5 Y20 Z0.3 F5000.0 ; Move over to prevent blob squish
G92 E0
G92 E0
G1 F1500 E-4
;LAYER_COUNT:65
;LAYER:0
M106 S25.5
G0 F7500 X49.793 Y122.56 Z0.16
G0 X42.673 Y131.899
;TYPE:SKIRT
G1 F1500 E0
G1 X42.876 Y130.819 E0.02924
G1 X43.088 Y129.906 E0.05418
G1 X43.377 Y129.013 E0.07915
G1 X43.741 Y128.149 E0.1041
G1 X44.178 Y127.319 E0.12906
G1 X44.683 Y126.529 E0.15401
G1 X45.254 Y125.785 E0.17896
G1 X45.886 Y125.092 E0.20392
G1 X46.575 Y124.456 E0.22887
G1 X47.316 Y123.881 E0.25382
G1 X48.103 Y123.371 E0.27878
G1 X48.931 Y122.929 E0.30375
G1 X49.793 Y122.56 E0.3287
G1 X50.683 Y122.266 E0.35364
G1 X51.822 Y122.007 E0.38472
G1 X53.187 Y121.772 E0.42157
G1 X55.725 Y121.299 E0.49027
G1 X56.539 Y121.125 E0.51242
G1 X57.297 Y120.975 E0.53298
G1 X58.224 Y120.834 E0.55793
G1 X59.2 Y120.771 E0.58395
G1 X60.445 Y120.749 E0.61708
G1 X73.3 Y120.751 E0.95913
G1 X74.004 Y120.762 E0.97786
G1 X74.94 Y120.817 E1.00281
G1 X75.868 Y120.951 E1.02776
G1 X76.782 Y121.164 E1.05273
G1 X77.345 Y121.337 E1.0684
G1 X78.063 Y121.579 E1.08856
G1 X78.57 Y121.759 E1.10288
G1 X80.964 Y122.543 E1.16991
G1 X83.357 Y123.252 E1.23632
G1 X86.366 Y124.044 E1.31911
G1 X87.429 Y124.306 E1.34824
G1 X88.33 Y124.569 E1.37321
G1 X89.204 Y124.908 E1.39816
G1 X90.047 Y125.32 E1.42312
G1 X90.969 Y125.874 E1.45174
G1 X91.826 Y126.496 E1.47992
G1 X92.536 Y127.109 E1.50488
G1 X93.191 Y127.78 E1.52983
G1 X93.786 Y128.505 E1.55478
G1 X94.318 Y129.278 E1.57975
G1 X94.782 Y130.093 E1.60471
G1 X95.174 Y130.945 E1.62966
G1 X95.493 Y131.827 E1.65462
G1 X95.735 Y132.733 E1.67957
G1 X95.899 Y133.656 E1.70451
G1 X95.984 Y134.59 E1.72947
G1 X95.997 Y135.066 E1.74214
G1 X95.999 Y135.485 E1.75329
G1 X95.963 Y136.423 E1.77826
G1 X95.881 Y137.143 E1.79755
G1 X95.767 Y137.914 E1.81828
G1 X95.427 Y140.463 E1.88671
G1 X95.162 Y143.011 E1.95487
G1 X94.967 Y145.492 E2.02109
G1 X94.854 Y146.423 E2.04604
G1 X94.662 Y147.341 E2.071
G1 X94.392 Y148.24 E2.09597
G1 X94.047 Y149.112 E2.12093
G1 X93.629 Y149.951 E2.14587
G1 X93.141 Y150.752 E2.17083
G1 X92.586 Y151.508 E2.19578
G1 X91.969 Y152.215 E2.22075
G1 X91.294 Y152.866 E2.2457
G1 X90.566 Y153.457 E2.27065
G1 X89.79 Y153.984 E2.29561
G1 X88.973 Y154.443 E2.32054
G1 X88.119 Y154.831 E2.3455
G1 X87.235 Y155.145 E2.37046
G1 X86.172 Y155.415 E2.39965
G1 X85.248 Y155.601 E2.42473
G1 X84.234 Y155.792 E2.45218
G1 X81.733 Y156.335 E2.52028
G1 X79.305 Y156.935 E2.58683
G1 X77.89 Y157.319 E2.62584
G1 X76.79 Y157.627 E2.65623
G1 X75.877 Y157.841 E2.68119
G1 X74.949 Y157.976 E2.70614
G1 X73.999 Y158.033 E2.73146
G1 X73.182 Y158.046 E2.7532
G1 X59.902 Y158.048 E3.10656
G1 X59.181 Y158.037 E3.12574
G1 X57.956 Y157.949 E3.15842
G1 X56.826 Y157.805 E3.18873
G1 X54.189 Y157.505 E3.25935
G1 X52.385 Y157.353 E3.30752
G1 X51.838 Y157.3 E3.32215
G1 X50.909 Y157.17 E3.34711
G1 X49.995 Y156.961 E3.37205
G1 X49.102 Y156.675 E3.397
G1 X48.236 Y156.314 E3.42197
G1 X47.404 Y155.88 E3.44694
G1 X46.613 Y155.378 E3.47186
G1 X45.867 Y154.809 E3.49683
G1 X45.172 Y154.18 E3.52177
G1 X44.533 Y153.493 E3.54674
G1 X43.955 Y152.754 E3.5717
G1 X43.442 Y151.969 E3.59665
G1 X42.998 Y151.143 E3.6216
G1 X42.626 Y150.282 E3.64656
G1 X42.328 Y149.393 E3.67151
G1 X42.107 Y148.481 E3.69648
G1 X41.965 Y147.554 E3.72143
G1 X41.904 Y146.67 E3.74501
G1 X41.889 Y146.006 E3.76268
G1 X41.89 Y137.374 E3.99236
G1 X41.901 Y136.668 E4.01115
G1 X41.956 Y135.731 E4.03612
G1 X42.116 Y134.672 E4.06462
G1 X42.673 Y131.899 E4.13988
G1 F1500 E0.13988
G0 F7500 X42.69 Y137.386
G1 F1500 E4.13988
G1 X42.701 Y136.68 E4.15867
G1 X42.755 Y135.779 E4.18268
G1 X42.9 Y134.829 E4.20825
G1 X43.462 Y132.032 E4.28416
G1 X43.662 Y130.967 E4.313
G1 X43.868 Y130.087 E4.33705
G1 X44.15 Y129.23 E4.36105
G1 X44.508 Y128.4 E4.3851
G1 X44.937 Y127.606 E4.40912
G1 X45.435 Y126.852 E4.43316
G1 X45.998 Y126.146 E4.45719
G1 X46.621 Y125.492 E4.48122
G1 X47.299 Y124.896 E4.50524
G1 X48.028 Y124.362 E4.52928
G1 X48.8 Y123.895 E4.55329
G1 X49.612 Y123.498 E4.57734
G1 X50.455 Y123.174 E4.60137
G1 X51.323 Y122.926 E4.62539
G1 X51.957 Y122.796 E4.64261
G1 X53.255 Y122.573 E4.67766
G1 X55.896 Y122.081 E4.74914
G1 X56.707 Y121.907 E4.77121
G1 X57.451 Y121.76 E4.79139
G1 X58.344 Y121.625 E4.81542
G1 X59.216 Y121.571 E4.83866
G1 X60.445 Y121.549 E4.87137
G1 X73.287 Y121.551 E5.21307
G1 X73.991 Y121.562 E5.23181
G1 X74.893 Y121.616 E5.25585
G1 X75.786 Y121.75 E5.27988
G1 X77.09 Y122.095 E5.31577
G1 X77.808 Y122.337 E5.33593
G1 X78.283 Y122.506 E5.34934
G1 X80.751 Y123.314 E5.41844
G1 X83.149 Y124.025 E5.48499
G1 X86.15 Y124.815 E5.56757
G1 X87.238 Y125.083 E5.59738
G1 X88.104 Y125.337 E5.62139
G1 X88.945 Y125.668 E5.64544
G1 X89.753 Y126.071 E5.66947
G1 X90.536 Y126.548 E5.69386
G1 X91.356 Y127.144 E5.72084
G1 X92.036 Y127.738 E5.74486
G1 X92.662 Y128.389 E5.76889
G1 X93.227 Y129.093 E5.79291
G1 X93.728 Y129.845 E5.81695
G1 X94.16 Y130.638 E5.84098
G1 X94.52 Y131.466 E5.86501
G1 X94.806 Y132.323 E5.88904
G1 X95.015 Y133.201 E5.91306
G1 X95.145 Y134.095 E5.9371
G1 X95.197 Y135.07 E5.96308
G1 X95.199 Y135.489 E5.97423
G1 X95.163 Y136.392 E5.99827
G1 X95.09 Y137.026 E6.01525
G1 X94.966 Y137.867 E6.03787
G1 X94.631 Y140.378 E6.10528
G1 X94.369 Y142.903 E6.17282
G1 X94.17 Y145.43 E6.24027
G1 X94.059 Y146.326 E6.26429
G1 X93.87 Y147.209 E6.28832
G1 X93.603 Y148.072 E6.31236
G1 X93.261 Y148.908 E6.33639
G1 X92.846 Y149.71 E6.36042
G1 X92.363 Y150.473 E6.38445
G1 X91.813 Y151.189 E6.40847
G1 X91.202 Y151.855 E6.43252
G1 X90.535 Y152.463 E6.45653
G1 X89.817 Y153.011 E6.48057
G1 X89.053 Y153.492 E6.50459
G1 X88.249 Y153.904 E6.52863
G1 X87.412 Y154.244 E6.55266
G1 X86.549 Y154.508 E6.57668
G1 X86.014 Y154.63 E6.59128
G1 X84.964 Y154.841 E6.61978
G1 X84.066 Y155.01 E6.64409
G1 X81.583 Y155.549 E6.7117
G1 X79.078 Y156.167 E6.78035
G1 X76.574 Y156.856 E6.84945
G1 X75.695 Y157.061 E6.87347
G1 X74.8 Y157.187 E6.89752
G1 X73.986 Y157.233 E6.91921
G1 X73.169 Y157.246 E6.94095
G1 X59.914 Y157.248 E7.29364
G1 X59.193 Y157.237 E7.31283
G1 X58.057 Y157.156 E7.34313
G1 X56.874 Y157.005 E7.37486
G1 X54.277 Y156.71 E7.44441
G1 X52.59 Y156.568 E7.48946
G1 X51.915 Y156.503 E7.5075
G1 X51.021 Y156.377 E7.53152
G1 X50.142 Y156.171 E7.55555
G1 X49.284 Y155.889 E7.57958
G1 X48.454 Y155.532 E7.60362
G1 X47.66 Y155.103 E7.62763
G1 X46.906 Y154.605 E7.65167
G1 X46.2 Y154.042 E7.6757
G1 X45.546 Y153.42 E7.69972
G1 X44.949 Y152.742 E7.72375
G1 X44.415 Y152.013 E7.7478
G1 X43.947 Y151.241 E7.77182
G1 X43.55 Y150.43 E7.79585
G1 X43.226 Y149.587 E7.81988
G1 X42.978 Y148.718 E7.84392
G1 X42.807 Y147.832 E7.86793
G1 X42.703 Y146.647 E7.89958
G1 X42.689 Y146.006 E7.91664
G1 X42.69 Y137.386 E8.146
G0 F7500 X42.29 Y137.38
G1 F1500 X42.301 Y136.674 E8.16479
G1 X42.356 Y135.755 E8.18929
G1 X42.508 Y134.75 E8.21633
G1 X43.069 Y131.958 E8.29211
G1 X43.269 Y130.893 E8.32094
G1 X43.478 Y129.996 E8.34545
G1 X43.764 Y129.121 E8.36994
G1 X44.125 Y128.274 E8.39444
G1 X44.558 Y127.462 E8.41893
G1 X45.059 Y126.69 E8.44342
G1 X45.626 Y125.964 E8.46793
G1 X46.254 Y125.291 E8.49242
G1 X46.938 Y124.674 E8.51693
G1 X47.672 Y124.12 E8.5414
G1 X48.453 Y123.631 E8.56592
G1 X49.272 Y123.211 E8.59041
G1 X50.125 Y122.864 E8.61491
G1 X51.005 Y122.593 E8.63941
G1 X51.889 Y122.402 E8.66347
G1 X53.192 Y122.178 E8.69865
G1 X55.81 Y121.69 E8.76951
G1 X56.803 Y121.479 E8.79652
G1 X57.374 Y121.367 E8.81201
G1 X58.284 Y121.229 E8.8365
G1 X59.208 Y121.171 E8.86113
G1 X60.445 Y121.149 E8.89405
G1 X73.294 Y121.151 E9.23594
G1 X73.998 Y121.162 E9.25467
G1 X74.917 Y121.217 E9.27917
G1 X75.828 Y121.351 E9.30367
G1 X76.723 Y121.563 E9.32814
G1 X77.218 Y121.716 E9.34193
G1 X77.936 Y121.958 E9.36209
G1 X78.436 Y122.136 E9.37621
G1 X80.841 Y122.923 E9.44354
G1 X83.268 Y123.643 E9.5109
G1 X86.22 Y124.419 E9.59212
G1 X87.334 Y124.694 E9.62265
G1 X88.217 Y124.953 E9.64714
G1 X89.075 Y125.288 E9.67164
G1 X89.9 Y125.696 E9.69613
G1 X90.751 Y126.21 E9.72259
G1 X91.591 Y126.82 E9.75021
G1 X92.287 Y127.423 E9.77471
G1 X92.927 Y128.085 E9.79921
G1 X93.507 Y128.8 E9.82371
G1 X94.024 Y129.562 E9.84821
G1 X94.472 Y130.366 E9.8727
G1 X94.848 Y131.206 E9.89719
G1 X95.151 Y132.076 E9.9217
G1 X95.377 Y132.968 E9.94619
G1 X95.524 Y133.877 E9.97069
G1 X95.597 Y135.068 E10.00244
G1 X95.599 Y135.487 E10.01359
G1 X95.563 Y136.407 E10.03808
G1 X95.486 Y137.084 E10.05621
G1 X95.37 Y137.869 E10.07733
G1 X95.028 Y140.436 E10.14623
G1 X94.763 Y142.979 E10.21426
G1 X94.568 Y145.461 E10.28051
G1 X94.457 Y146.375 E10.30501
G1 X94.266 Y147.276 E10.32951
G1 X93.998 Y148.156 E10.35399
G1 X93.654 Y149.011 E10.37851
G1 X93.238 Y149.832 E10.403
G1 X92.751 Y150.613 E10.42749
G1 X92.199 Y151.35 E10.45199
G1 X91.585 Y152.036 E10.47649
G1 X90.914 Y152.666 E10.50098
G1 X90.191 Y153.236 E10.52548
G1 X89.421 Y153.741 E10.54998
G1 X88.61 Y154.177 E10.57448
G1 X87.764 Y154.54 E10.59898
G1 X86.89 Y154.83 E10.62348
G1 X86.093 Y155.023 E10.6453
G1 X85.169 Y155.209 E10.67038
G1 X84.154 Y155.4 E10.69786
G1 X81.658 Y155.942 E10.76582
G1 X79.192 Y156.551 E10.83341
G1 X76.682 Y157.241 E10.90267
G1 X75.786 Y157.451 E10.92716
G1 X74.874 Y157.582 E10.95167
G1 X73.993 Y157.633 E10.97515
G1 X73.176 Y157.646 E10.99689
G1 X59.908 Y157.648 E11.34993
G1 X59.187 Y157.637 E11.36912
G1 X58.006 Y157.553 E11.40062
G1 X56.775 Y157.396 E11.43364
G1 X54.268 Y157.111 E11.50078
G1 X52.424 Y156.955 E11.55002
G1 X51.877 Y156.902 E11.56464
G1 X50.965 Y156.773 E11.58915
G1 X50.068 Y156.566 E11.61364
G1 X49.192 Y156.282 E11.63815
G1 X48.345 Y155.923 E11.66262
G1 X47.531 Y155.491 E11.68714
G1 X46.758 Y154.991 E11.71164
G1 X46.032 Y154.426 E11.73612
G1 X45.357 Y153.799 E11.76063
G1 X44.739 Y153.117 E11.78512
G1 X44.183 Y152.383 E11.80962
G1 X43.692 Y151.604 E11.83412
G1 X43.271 Y150.786 E11.8586
G1 X42.923 Y149.933 E11.88312
G1 X42.649 Y149.054 E11.90761
G1 X42.454 Y148.155 E11.93209
G1 X42.336 Y147.241 E11.95661
G1 X42.303 Y146.658 E11.97215
G1 X42.289 Y146.006 E11.9895
G1 X42.29 Y137.38 E12.21902
G1 F1500 E8.21902
;MESH:void_switch-v31.stl
G0 F7500 X52.236 Y147.014
G0 X54.923 Y147.01
G0 X55.583 Y140.561
G0 X56.12 Y138.412
;TYPE:WALL-INNER
G1 F1500 E12.21902
G1 F1011.8 X56.12 Y137.718 E12.2464
G1 F1015.2 X55.754 Y137.83 E12.26145
G1 F1022.1 X54.69 Y137.83 E12.30299
G1 F1023.9 X54.382 Y137.755 E12.31535
G1 X54.382 Y138.415 E12.34108
G1 F1022.1 X55.251 Y138.414 E12.37501
G1 F1015.2 X56.12 Y138.412 E12.40917
G0 F7500 X56.616 Y139.034
G1 F1500 X56.616 Y137.289 E12.4556
G1 X56.386 Y137.236 E12.46188
G1 X56.205 Y137.107 E12.4678
G1 X56.023 Y137.236 E12.47373
G1 X55.689 Y137.338 E12.48303
G1 X54.717 Y137.337 E12.50889
G1 X54.361 Y137.251 E12.51864
G1 X54.224 Y137.162 E12.52298
G1 X54.087 Y137.251 E12.52733
G1 X53.889 Y137.293 E12.53271
G1 X53.887 Y139.036 E12.57909
G1 X54.27 Y138.908 E12.58984
G1 X56.236 Y138.908 E12.64215
G1 X56.616 Y139.034 E12.6528
G0 F7500 X56.926 Y139.908
G1 F1121.5 X56.971 Y139.563 E12.66518
G1 F1348.3 X57.016 Y139.218 E12.67548
G1 F1500 X57.016 Y137.002 E12.73445
G1 X56.979 Y136.938 E12.73641
G1 X56.829 Y136.938 E12.7404
G1 X56.563 Y136.877 E12.74767
G1 X56.407 Y136.766 E12.75276
G1 F1405.2 X56.204 Y136.392 E12.76485
G1 X56.003 Y136.766 E12.77691
G1 F1500 X55.846 Y136.877 E12.78202
G1 X55.662 Y136.933 E12.78714
G1 X54.738 Y136.938 E12.81173
G1 X54.525 Y136.886 E12.81756
G1 X54.369 Y136.785 E12.82251
G1 X54.224 Y136.492 E12.8312
G1 X54.079 Y136.785 E12.8399
G1 X53.923 Y136.886 E12.84485
G1 X53.677 Y136.938 E12.85154
G1 X53.526 Y136.938 E12.85556
G1 X53.489 Y137.002 E12.85752
G1 X53.487 Y139.218 E12.91649
G1 F1348.3 X53.533 Y139.563 E12.92679
G1 F1121.5 X53.58 Y139.908 E12.93918
G1 X53.744 Y139.668 E12.94953
G1 F1348.3 X53.908 Y139.428 E12.95813
G1 F1500 X54.27 Y139.308 E12.96828
G1 X56.236 Y139.308 E13.02059
G1 X56.597 Y139.427 E13.0307
G1 F1348.3 X56.761 Y139.667 E13.03931
G1 F1121.5 X56.926 Y139.908 E13.0497
G1 F1500 E9.0497
G0 F7500 X58.281 Y139.908
G0 X58.281 Y146.158
G0 X57.416 Y146.158
;TYPE:WALL-OUTER
G1 F1500 E13.0497
G1 X57.416 Y136.894 E13.2962
G1 X57.209 Y136.538 E13.30716
G1 X56.829 Y136.538 E13.31727
G1 X56.688 Y136.481 E13.32132
G1 X56.629 Y136.356 E13.32499
G1 X56.628 Y133.038 E13.41328
G1 X55.78 Y133.038 E13.43584
G1 X55.78 Y136.356 E13.52413
G1 X55.721 Y136.481 E13.52781
G1 X55.608 Y136.537 E13.53116
G1 X54.71 Y136.538 E13.55506
G1 F1265.8 X54.497 Y136.362 E13.56377
G1 F1094.9 X54.497 Y133.111 E13.68228
G1 F1096.9 X53.951 Y133.111 E13.70214
G1 F1094.9 X53.951 Y136.362 E13.82065
G1 F1265.8 X53.738 Y136.538 E13.82937
G1 F1500 X53.296 Y136.538 E13.84113
G1 X53.089 Y136.894 E13.85208
G1 X53.09 Y146.159 E14.09861
G1 X54.07 Y146.158 E14.12468
G1 X54.07 Y139.908 E14.29098
G1 X54.149 Y139.748 E14.29573
G1 X54.27 Y139.708 E14.29912
G1 X56.236 Y139.708 E14.35144
G1 X56.357 Y139.747 E14.35482
G1 X56.436 Y139.908 E14.35959
G1 X56.436 Y146.158 E14.52589
G1 X57.416 Y146.158 E14.55197
G0 F7500 X56.926 Y145.668
;TYPE:WALL-INNER
G1 F1034.5 X56.926 Y139.908 E14.7742
G1 F1500 E10.7742
G0 F7500 X55.583 Y140.561
G0 X54.923 Y140.561
G0 X53.58 Y139.908
G1 F1500 E14.7742
G1 F1034.5 X53.58 Y145.668 E14.99643
G1 F1500 E10.99643
G0 F7500 X54.935 Y145.668
G0 X55.583 Y147.011
G0 X58.269 Y147.012
G0 X58.279 Y136.66
G0 X57.705 Y135.679
G0 X56.204 Y136.392
G1 F1500 E14.99643
G1 F1324.5 X56.204 Y134.927 E15.04057
G1 F1330.4 X56.204 Y133.462 E15.08452
G1 F1500 E11.08452
G0 F7500 X57.493 Y133.461
G0 X58.3 Y133.797
G0 X60.047 Y133.797
G1 F1500 E15.08452
G1 F1061.9 X61.014 Y132.832 E15.13587
G1 X60.048 Y132.832 E15.17218
G1 X60.047 Y133.797 E15.20844
G1 F1500 E11.20844
G0 F7500 X59.636 Y138.801
G1 F1500 E15.20844
G1 F1096.9 X59.83 Y138.323 E15.22721
G1 F1090.9 X60.304 Y137.849 E15.25174
G1 F1115.2 X60.061 Y137.606 E15.26404
G1 F1330.4 X59.927 Y137.198 E15.27692
G1 F1600 X59.925 Y136.033 E15.30598
G1 F1612.9 X59.922 Y134.868 E15.33481
G1 F1558.4 X60.082 Y134.444 E15.34642
G1 F1500 X61.657 Y132.869 E15.40568
G1 F1542.4 X61.98 Y132.713 E15.41497
G1 F1591.5 X62.756 Y132.712 E15.43443
G1 F1600 X63.532 Y132.71 E15.45378
G1 F1608.6 X64.308 Y132.709 E15.47304
G1 F1463.4 X64.562 Y132.776 E15.4802
G1 F1229.5 X64.815 Y132.844 E15.48871
G1 F1113.2 X65.062 Y133.091 E15.50123
G1 F1088.9 X65.537 Y132.616 E15.52585
G1 F1085 X65.898 Y132.426 E15.54086
G1 X65.062 Y132.425 E15.57161
G1 F1138.5 X64.948 Y132.402 E15.57569
G1 F1273.9 X64.629 Y132.369 E15.58574
G1 F1481.5 X64.309 Y132.336 E15.5944
G1 F1608.6 X63.522 Y132.336 E15.61393
G1 F1600 X62.735 Y132.336 E15.63356
G1 F1591.5 X61.948 Y132.337 E15.6533
G1 F1562.5 X61.695 Y132.343 E15.65976
G1 F1522.8 X61.442 Y132.35 E15.6664
G1 F1500 X59.566 Y132.35 E15.71631
G1 X59.565 Y134.23 E15.76634
G1 F1530.6 X59.558 Y134.55 E15.77468
G1 F1587.3 X59.55 Y134.87 E15.78273
G1 F1612.9 X59.551 Y136.05 E15.81193
G1 F1600 X59.553 Y137.231 E15.84139
G1 F1470.6 X59.585 Y137.482 E15.84826
G1 F1276.6 X59.617 Y137.734 E15.8562
G1 F1140.7 X59.641 Y137.849 E15.86031
G1 F1096.9 X59.636 Y138.801 E15.89495
G1 F1500 E11.89495
G0 F7500 X61.232 Y138.801
G0 X66.015 Y143.583
G0 X65.284 Y145.649
G1 F1500 E15.89495
G1 X65.025 Y145.498 E15.90293
G1 X60.366 Y140.839 E16.07825
G1 X60.365 Y145.648 E16.2062
G1 X65.284 Y145.649 E16.33709
G1 F1500 E12.33709
G0 F7500 X65.285 Y147.713
G0 X72.863 Y147.712
G0 X72.862 Y145.647
G1 F1500 E16.33709
G1 X72.862 Y139.536 E16.49969
G1 X72.712 Y139.792 E16.50759
G1 X70.276 Y142.228 E16.59925
G1 X70.075 Y142.394 E16.60619
