;FLAVOR:Marlin
;TIME:2279
;Filament used: 0.486059m
;Layer height: 0.16
;MINX:73.222
;MINY:91.502
;MINZ:0.16
;MAXX:134.291
;MAXY:128.498
;MAXZ:10.56
;Generated with Cura_SteamEngine main
M82 ;absolute extrusion mode
; Ender 3 Custom Start G-code
G92 E0 ; Reset Extruder
G28 ; Home all axes
M104 S120 ; Start heating up the nozzle most of the way
M190 S68.0 ; Start heating the bed, wait until target temperature reached
M109 S248.0 ; Finish heating the nozzle
G1 Z2.0 F3000 ; Move Z Axis up little to prevent scratching of Heat Bed
G1 X0.1 Y20 Z0.3 F5000.0 ; Move to start position
G1 X0.1 Y200.0 Z0.3 F1500.0 E15 ; Draw the first line
G1 X0.4 Y200.0 Z0.3 F5000.0 ; Move to side a little
G1 X0.4 Y20 Z0.3 F1500.0 E30 ; Draw the second line
G92 E0 ; Reset Extruder
G1 Z2.0 F3000 ; Move Z Axis up little to prevent scratching of Heat Bed
G1 X5 Y20 Z0.3 F5000.0 ; Move over to prevent blob squish
G92 E0
G92 E0
G1 F1500 E-3.5
;LAYER_COUNT:66
;LAYER:0
M107
G0 F6000 X77.875 Y94.672 Z0.16
G0 X74.001 Y102.113
;TYPE:SKIRT
G1 F1500 E0
G1 F600 X74.197 Y101.048 E0.02881
G1 X74.406 Y100.134 E0.05376
G1 X74.692 Y99.241 E0.07871
G1 X75.053 Y98.375 E0.10368
G1 X75.487 Y97.543 E0.12864
G1 X75.99 Y96.752 E0.15359
G1 X76.558 Y96.006 E0.17853
G1 X77.188 Y95.311 E0.20349
G1 X77.875 Y94.672 E0.22846
G1 X78.614 Y94.094 E0.25342
G1 X79.399 Y93.582 E0.27836
G1 X80.225 Y93.138 E0.30331
G1 X81.086 Y92.766 E0.32827
G1 X81.975 Y92.468 E0.35322
G1 X82.887 Y92.248 E0.37818
G1 X83.814 Y92.106 E0.40313
G1 X84.691 Y92.045 E0.42652
G1 X85.354 Y92.03 E0.44417
G1 X87.871 Y92.03 E0.51114
G1 X90.479 Y91.993 E0.58054
G1 X92.961 Y91.888 E0.64664
G1 X96.566 Y91.613 E0.74285
G1 X97.084 Y91.563 E0.75669
G1 X97.955 Y91.514 E0.7799
G1 X98.739 Y91.502 E0.80077
G1 X111.559 Y91.504 E1.14188
G1 X112.472 Y91.519 E1.16618
G1 X113.408 Y91.576 E1.19113
G1 X114.336 Y91.712 E1.21609
G1 X115.397 Y91.97 E1.24514
G1 X116.669 Y92.347 E1.28044
G1 X119.167 Y93.051 E1.3495
G1 X121.599 Y93.663 E1.41623
G1 X124.12 Y94.22 E1.48492
G1 X124.75 Y94.343 E1.502
G1 X125.347 Y94.47 E1.51824
G1 X126.255 Y94.706 E1.54321
G1 X127.139 Y95.019 E1.56816
G1 X128.103 Y95.462 E1.59639
G1 X128.357 Y95.594 E1.604
G1 X129.17 Y96.062 E1.62897
G1 X129.941 Y96.597 E1.65394
G1 X130.663 Y97.196 E1.6789
G1 X131.331 Y97.854 E1.70385
G1 X131.94 Y98.567 E1.7288
G1 X132.487 Y99.329 E1.75375
G1 X132.967 Y100.134 E1.77869
G1 X133.377 Y100.978 E1.80366
G1 X133.713 Y101.854 E1.82862
G1 X133.973 Y102.755 E1.85358
G1 X134.156 Y103.675 E1.87854
G1 X134.26 Y104.607 E1.90349
G1 X134.284 Y105.193 E1.91909
G1 X134.291 Y105.669 E1.93176
G1 X134.265 Y106.607 E1.95673
G1 X134.196 Y107.278 E1.97468
G1 X134.052 Y108.355 E2.00359
G1 X133.953 Y109.021 E2.0215
G1 X133.651 Y111.557 E2.08946
G1 X133.425 Y114.044 E2.15591
G1 X133.369 Y114.951 E2.18009
G1 X133.269 Y116.36 E2.21767
G1 X133.163 Y117.292 E2.24263
G1 X132.978 Y118.211 E2.26757
G1 X132.715 Y119.111 E2.29252
G1 X132.377 Y119.986 E2.31748
G1 X131.965 Y120.828 E2.34242
G1 X131.483 Y121.633 E2.36739
G1 X130.934 Y122.393 E2.39233
G1 X130.322 Y123.104 E2.4173
G1 X129.652 Y123.761 E2.44226
G1 X128.928 Y124.357 E2.46722
G1 X128.157 Y124.89 E2.49216
G1 X127.342 Y125.356 E2.51714
G1 X126.491 Y125.75 E2.54209
G1 X125.61 Y126.07 E2.56703
G1 X124.704 Y126.314 E2.592
G1 X123.855 Y126.47 E2.61496
G1 X123.344 Y126.543 E2.6287
G1 X120.781 Y126.947 E2.69774
G1 X118.336 Y127.403 E2.76392
G1 X115.243 Y128.081 E2.84817
G1 X114.726 Y128.202 E2.8623
G1 X113.804 Y128.375 E2.88726
G1 X112.415 Y128.487 E2.92434
G1 X111.696 Y128.498 E2.94347
G1 X98.669 Y128.495 E3.29009
G1 X97.983 Y128.485 E3.30835
G1 X96.772 Y128.4 E3.34065
G1 X95.824 Y128.281 E3.36607
G1 X93.264 Y127.989 E3.43463
G1 X90.71 Y127.773 E3.50283
G1 X88.257 Y127.634 E3.56821
G1 X85.399 Y127.572 E3.64427
G1 X85.118 Y127.554 E3.65176
G1 X84.082 Y127.54 E3.67933
G1 X83.146 Y127.487 E3.70428
G1 X82.217 Y127.355 E3.72924
G1 X81.304 Y127.144 E3.75418
G1 X80.411 Y126.856 E3.77914
G1 X79.546 Y126.494 E3.80409
G1 X78.715 Y126.058 E3.82906
G1 X77.925 Y125.554 E3.854
G1 X77.18 Y124.984 E3.87896
G1 X76.486 Y124.353 E3.90391
G1 X75.849 Y123.664 E3.92888
G1 X75.273 Y122.925 E3.95381
G1 X74.762 Y122.138 E3.97878
G1 X74.319 Y121.311 E4.00374
G1 X73.949 Y120.45 E4.02868
G1 X73.653 Y119.56 E4.05363
G1 X73.435 Y118.648 E4.07858
G1 X73.294 Y117.72 E4.10356
G1 X73.236 Y116.865 E4.12636
G1 X73.222 Y116.237 E4.14308
G1 X73.222 Y107.566 E4.3738
G1 X73.233 Y106.86 E4.39258
G1 X73.288 Y105.923 E4.41756
G1 X73.448 Y104.864 E4.44606
G1 X74.001 Y102.113 E4.52072
G1 F1500 E1.02072
G0 F6000 X74.022 Y107.578
G1 F1500 E4.52072
G1 F600 X74.033 Y106.872 E4.53951
G1 X74.087 Y105.971 E4.56352
G1 X74.232 Y105.021 E4.58909
G1 X74.794 Y102.223 E4.66503
G1 X74.984 Y101.193 E4.6929
G1 X75.186 Y100.313 E4.71692
G1 X75.466 Y99.454 E4.74096
G1 X75.821 Y98.624 E4.76498
G1 X76.247 Y97.828 E4.78901
G1 X76.743 Y97.072 E4.81306
G1 X77.303 Y96.364 E4.83708
G1 X77.924 Y95.708 E4.86112
G1 X78.6 Y95.11 E4.88513
G1 X79.327 Y94.573 E4.90918
G1 X80.098 Y94.103 E4.93321
G1 X80.908 Y93.704 E4.95723
G1 X81.75 Y93.377 E4.98127
G1 X82.617 Y93.126 E5.00529
G1 X83.504 Y92.953 E5.02933
G1 X84.714 Y92.844 E5.06166
G1 X85.354 Y92.83 E5.07869
G1 X87.883 Y92.83 E5.14598
G1 X90.489 Y92.793 E5.21533
G1 X92.996 Y92.687 E5.2821
G1 X96.653 Y92.408 E5.37969
G1 X97.161 Y92.359 E5.39326
G1 X97.968 Y92.313 E5.41477
G1 X98.566 Y92.303 E5.43069
G1 X111.559 Y92.304 E5.77641
G1 X112.457 Y92.319 E5.8003
G1 X113.359 Y92.375 E5.82435
G1 X114.252 Y92.511 E5.84838
G1 X115.169 Y92.737 E5.87351
G1 X116.434 Y93.112 E5.90862
G1 X118.965 Y93.825 E5.97859
G1 X121.441 Y94.448 E6.04652
G1 X123.912 Y94.994 E6.11386
G1 X124.597 Y95.128 E6.13243
G1 X125.179 Y95.252 E6.14826
G1 X126.052 Y95.481 E6.17228
G1 X126.902 Y95.786 E6.19631
G1 X127.735 Y96.172 E6.22074
G1 X127.989 Y96.304 E6.22835
G1 X128.771 Y96.756 E6.25238
G1 X129.51 Y97.275 E6.27641
G1 X130.2 Y97.857 E6.30043
G1 X130.836 Y98.498 E6.32446
G1 X131.413 Y99.193 E6.34849
G1 X131.926 Y99.936 E6.37252
G1 X132.372 Y100.722 E6.39656
G1 X132.746 Y101.543 E6.42057
G1 X133.046 Y102.395 E6.4446
G1 X133.27 Y103.27 E6.46864
G1 X133.415 Y104.162 E6.49268
G1 X133.484 Y105.205 E6.5205
G1 X133.491 Y105.681 E6.53316
G1 X133.464 Y106.584 E6.5572
G1 X133.403 Y107.173 E6.57296
G1 X133.261 Y108.237 E6.60152
G1 X133.156 Y108.946 E6.62059
G1 X132.856 Y111.459 E6.68793
G1 X132.626 Y113.99 E6.75555
G1 X132.571 Y114.894 E6.77965
G1 X132.471 Y116.303 E6.81724
G1 X132.368 Y117.2 E6.84126
G1 X132.185 Y118.085 E6.86531
G1 X131.925 Y118.949 E6.88931
G1 X131.589 Y119.788 E6.91336
G1 X131.181 Y120.593 E6.93738
G1 X130.702 Y121.359 E6.96141
G1 X130.158 Y122.08 E6.98545
G1 X129.553 Y122.75 E7.00947
G1 X128.89 Y123.364 E7.03351
G1 X128.176 Y123.916 E7.05752
G1 X127.415 Y124.404 E7.08158
G1 X126.615 Y124.822 E7.1056
G1 X125.781 Y125.168 E7.12962
G1 X124.919 Y125.438 E7.15366
G1 X123.742 Y125.678 E7.18562
G1 X123.25 Y125.748 E7.19884
G1 X120.647 Y126.158 E7.26896
G1 X118.15 Y126.624 E7.33654
G1 X115.103 Y127.293 E7.41955
G1 X114.544 Y127.423 E7.43482
G1 X113.656 Y127.588 E7.45885
G1 X112.401 Y127.688 E7.49235
G1 X111.871 Y127.697 E7.50646
G1 X98.68 Y127.695 E7.85744
G1 X97.994 Y127.685 E7.8757
G1 X96.872 Y127.606 E7.90563
G1 X95.927 Y127.487 E7.93097
G1 X93.356 Y127.195 E7.99982
G1 X90.786 Y126.977 E8.06845
G1 X88.291 Y126.835 E8.13494
G1 X85.416 Y126.773 E8.21146
G1 X85.131 Y126.754 E8.21906
G1 X84.093 Y126.74 E8.24668
G1 X83.192 Y126.688 E8.27069
G1 X82.298 Y126.556 E8.29474
G1 X81.42 Y126.346 E8.31876
G1 X80.564 Y126.059 E8.34278
G1 X79.736 Y125.697 E8.36683
G1 X78.944 Y125.264 E8.39085
G1 X78.193 Y124.762 E8.41488
G1 X77.489 Y124.196 E8.43892
G1 X76.839 Y123.569 E8.46295
G1 X76.246 Y122.888 E8.48698
G1 X75.716 Y122.157 E8.511
G1 X75.253 Y121.381 E8.53504
G1 X74.86 Y120.568 E8.55907
G1 X74.54 Y119.724 E8.58309
G1 X74.297 Y118.854 E8.60712
G1 X74.131 Y117.966 E8.63116
G1 X74.035 Y116.842 E8.66118
G1 X74.022 Y116.237 E8.67728
G1 X74.022 Y107.578 E8.90768
G0 F6000 X73.622 Y107.572
G1 F600 X73.633 Y106.866 E8.92647
G1 X73.688 Y105.947 E8.95096
G1 X73.84 Y104.942 E8.97801
G1 X74.392 Y102.198 E9.05248
G1 X74.59 Y101.12 E9.08165
G1 X74.796 Y100.223 E9.10614
G1 X75.079 Y99.347 E9.13063
G1 X75.437 Y98.499 E9.15512
G1 X75.867 Y97.685 E9.17962
G1 X76.366 Y96.911 E9.20412
G1 X76.931 Y96.184 E9.22862
G1 X77.556 Y95.508 E9.25312
G1 X78.238 Y94.889 E9.27762
G1 X78.971 Y94.332 E9.30212
G1 X79.749 Y93.84 E9.32661
G1 X80.567 Y93.418 E9.3511
G1 X81.419 Y93.069 E9.3756
G1 X82.298 Y92.794 E9.40011
G1 X83.197 Y92.597 E9.4246
G1 X84.11 Y92.479 E9.44909
G1 X84.702 Y92.445 E9.46487
G1 X85.354 Y92.43 E9.48222
G1 X87.877 Y92.43 E9.54936
G1 X90.502 Y92.393 E9.61921
G1 X92.977 Y92.288 E9.68512
G1 X96.584 Y92.013 E9.78138
G1 X97.122 Y91.961 E9.79576
G1 X97.962 Y91.913 E9.81815
G1 X98.56 Y91.903 E9.83406
G1 X111.559 Y91.904 E10.17994
G1 X112.465 Y91.919 E10.20405
G1 X113.384 Y91.975 E10.22855
G1 X114.294 Y92.112 E10.25303
G1 X115.283 Y92.354 E10.28013
G1 X116.507 Y92.717 E10.3141
G1 X119.067 Y93.438 E10.38486
G1 X121.528 Y94.057 E10.45238
G1 X124.027 Y94.61 E10.52049
G1 X124.674 Y94.736 E10.53803
G1 X125.263 Y94.861 E10.55405
G1 X126.154 Y95.093 E10.57855
G1 X127.021 Y95.403 E10.60305
G1 X127.919 Y95.817 E10.62936
G1 X128.173 Y95.949 E10.63697
G1 X128.971 Y96.409 E10.66148
G1 X129.726 Y96.936 E10.68598
G1 X130.432 Y97.527 E10.71048
G1 X131.084 Y98.176 E10.73496
G1 X131.678 Y98.88 E10.75947
G1 X132.208 Y99.633 E10.78397
G1 X132.671 Y100.429 E10.80847
G1 X133.063 Y101.262 E10.83297
G1 X133.381 Y102.125 E10.85744
G1 X133.623 Y103.014 E10.88195
G1 X133.787 Y103.92 E10.90645
G1 X133.884 Y105.199 E10.94058
G1 X133.891 Y105.675 E10.95325
G1 X133.864 Y106.595 E10.97774
G1 X133.8 Y107.225 E10.99459
G1 X133.657 Y108.296 E11.02334
G1 X133.55 Y109.016 E11.04271
G1 X133.257 Y111.475 E11.1086
G1 X133.026 Y114.017 E11.17651
G1 X132.978 Y114.812 E11.19771
G1 X132.87 Y116.331 E11.23823
G1 X132.765 Y117.246 E11.26273
G1 X132.581 Y118.148 E11.28723
G1 X132.32 Y119.031 E11.31173
G1 X131.983 Y119.888 E11.33623
G1 X131.573 Y120.712 E11.36072
G1 X131.092 Y121.497 E11.38522
G1 X130.546 Y122.238 E11.40971
G1 X129.937 Y122.929 E11.43421
G1 X129.271 Y123.564 E11.4587
G1 X128.552 Y124.139 E11.4832
G1 X127.785 Y124.649 E11.5077
G1 X126.978 Y125.092 E11.5322
G1 X126.135 Y125.462 E11.5567
G1 X125.263 Y125.758 E11.5812
G1 X124.369 Y125.977 E11.60569
G1 X123.799 Y126.074 E11.62107
G1 X123.292 Y126.147 E11.6347
G1 X120.711 Y126.553 E11.70422
G1 X118.243 Y127.014 E11.77103
G1 X115.145 Y127.693 E11.85542
G1 X114.635 Y127.812 E11.86935
G1 X113.73 Y127.982 E11.89385
G1 X112.408 Y128.087 E11.92914
G1 X111.696 Y128.098 E11.94809
G1 X98.674 Y128.095 E12.29458
G1 X97.988 Y128.085 E12.31283
G1 X96.822 Y128.003 E12.34393
G1 X95.913 Y127.889 E12.36831
G1 X93.276 Y127.589 E12.43893
G1 X90.768 Y127.376 E12.5059
G1 X88.287 Y127.235 E12.57202
G1 X85.408 Y127.173 E12.64865
G1 X85.115 Y127.154 E12.65646
G1 X84.088 Y127.14 E12.68379
G1 X83.169 Y127.088 E12.70828
G1 X82.257 Y126.956 E12.7328
G1 X81.361 Y126.745 E12.75729
G1 X80.487 Y126.458 E12.78177
G1 X79.64 Y126.095 E12.80629
G1 X78.829 Y125.661 E12.83076
G1 X78.058 Y125.158 E12.85526
G1 X77.333 Y124.59 E12.87976
G1 X76.661 Y123.961 E12.90426
G1 X76.045 Y123.276 E12.92877
G1 X75.492 Y122.54 E12.95326
G1 X75.004 Y121.759 E12.97777
G1 X74.586 Y120.939 E13.00226
G1 X74.241 Y120.085 E13.02677
G1 X73.971 Y119.205 E13.05126
G1 X73.779 Y118.305 E13.07574
G1 X73.665 Y117.391 E13.10025
G1 X73.636 Y116.854 E13.11456
G1 X73.622 Y116.237 E13.13098
G1 X73.622 Y107.572 E13.36154
G1 F1500 E9.86154
;MESH:void_switch-v54-stem.stl(1)
G0 F6000 X87.483 Y108.504
;TYPE:WALL-INNER
G1 F1500 E13.36154
G1 F450.3 X87.483 Y107.872 E13.38395
G1 X87.17 Y107.975 E13.39563
G1 F456.3 X86.913 Y107.99 E13.40464
G1 F460.7 X85.969 Y107.986 E13.43736
G1 F458.9 X85.683 Y107.91 E13.44765
G1 X85.683 Y108.508 E13.46846
G1 F458 X86.283 Y108.507 E13.48937
G1 F454.5 X86.883 Y108.506 E13.51044
G1 F452 X87.483 Y108.504 E13.53164
G0 F6000 X87.949 Y109.096
G1 F600 X87.949 Y107.481 E13.57461
G1 X87.719 Y107.428 E13.58089
G1 X87.537 Y107.299 E13.58683
G1 X87.355 Y107.428 E13.59276
G1 X87.04 Y107.531 E13.60158
G1 X86.011 Y107.526 E13.62896
G1 X85.694 Y107.443 E13.63768
G1 X85.557 Y107.354 E13.64203
G1 X85.42 Y107.443 E13.64637
G1 X85.222 Y107.485 E13.65176
G1 X85.219 Y109.098 E13.69468
G1 X85.602 Y108.97 E13.70542
G1 X87.569 Y108.97 E13.75776
G1 X87.949 Y109.096 E13.76841
G0 F6000 X88.259 Y109.97
G1 F448.6 X88.304 Y109.625 E13.7808
G1 F539.3 X88.349 Y109.28 E13.79109
G1 F600 X88.349 Y107.191 E13.84668
G1 X88.313 Y107.13 E13.84856
G1 X88.161 Y107.13 E13.85261
G1 X87.895 Y107.069 E13.85987
G1 X87.739 Y106.958 E13.86496
G1 F563.4 X87.537 Y106.584 E13.87701
G1 X87.335 Y106.958 E13.88905
G1 F600 X87.179 Y107.069 E13.89415
G1 X86.99 Y107.13 E13.89943
G1 X86.048 Y107.128 E13.9245
G1 X85.858 Y107.078 E13.92973
G1 X85.702 Y106.977 E13.93467
G1 X85.557 Y106.682 E13.94342
G1 X85.411 Y106.977 E13.95217
G1 X85.256 Y107.078 E13.9571
G1 X85.009 Y107.13 E13.96381
G1 X84.858 Y107.13 E13.96783
G1 X84.821 Y107.193 E13.96978
G1 X84.819 Y109.28 E14.02531
G1 F539.3 X84.865 Y109.625 E14.03561
G1 F448.6 X84.912 Y109.97 E14.048
G1 X85.076 Y109.73 E14.05835
G1 F539.3 X85.24 Y109.49 E14.06695
G1 F600 X85.602 Y109.37 E14.0771
G1 X87.569 Y109.37 E14.12944
G1 X87.93 Y109.489 E14.13955
G1 F539.3 X88.094 Y109.729 E14.14815
G1 F448.6 X88.259 Y109.97 E14.15855
G1 F1500 E10.65855
G0 F6000 X88.749 Y116.35
;TYPE:WALL-OUTER
G1 F1500 E14.15855
G1 F600 X88.749 Y107.084 E14.4051
G1 X88.544 Y106.73 E14.41598
G1 X88.161 Y106.73 E14.42618
G1 X88.02 Y106.673 E14.43022
G1 X87.961 Y106.548 E14.4339
G1 X87.961 Y103.23 E14.52219
G1 X87.113 Y103.23 E14.54475
G1 X87.113 Y106.548 E14.63304
G1 X87.054 Y106.673 E14.63671
G1 X86.948 Y106.727 E14.63988
G1 X86.043 Y106.73 E14.66396
G1 F505.3 X85.83 Y106.554 E14.67269
G1 F437.2 X85.83 Y104.928 E14.73207
G1 F438.8 X85.83 Y103.302 E14.79123
G1 X85.283 Y103.303 E14.81114
G1 X85.283 Y104.929 E14.8703
G1 F437.2 X85.283 Y106.555 E14.92968
G1 F505.3 X85.072 Y106.73 E14.93835
G1 F600 X84.627 Y106.73 E14.95019
G1 X84.421 Y107.086 E14.96113
G1 X84.422 Y116.35 E15.20763
G1 X85.402 Y116.35 E15.2337
G1 X85.402 Y109.97 E15.40346
G1 X85.481 Y109.81 E15.40821
G1 X85.602 Y109.77 E15.4116
G1 X87.569 Y109.77 E15.46394
G1 X87.69 Y109.809 E15.46732
G1 X87.769 Y109.97 E15.4721
G1 X87.769 Y116.35 E15.64185
G1 X88.749 Y116.35 E15.66793
G0 F6000 X88.259 Y115.86
;TYPE:WALL-INNER
G1 F413.8 X88.259 Y109.97 E15.89518
G1 F1500 E12.39518
G0 F6000 X84.912 Y109.97
G1 F1500 E15.89518
G1 F413.8 X84.912 Y115.86 E16.12242
G1 F1500 E12.62242
G0 F6000 X87.537 Y106.584
G1 F1500 E16.12242
G1 F532.2 X87.537 Y105.119 E16.16637
G1 F534.5 X87.537 Y103.654 E16.21013
G1 F1500 E12.71013
;MESH:void_switch-v54-stem.stl
G0 F6000 X94.383 Y108.504
;TYPE:WALL-INNER
G1 F1500 E16.21013
G1 F450.3 X94.383 Y107.872 E16.23254
G1 X94.07 Y107.975 E16.24422
G1 F456.3 X93.813 Y107.99 E16.25323
G1 F460.7 X92.869 Y107.986 E16.28595
G1 F458.9 X92.583 Y107.91 E16.29624
G1 X92.583 Y108.508 E16.31705
G1 F458 X93.183 Y108.507 E16.33796
G1 F454.5 X93.783 Y108.506 E16.35903
G1 F452 X94.383 Y108.504 E16.38023
G0 F6000 X94.849 Y109.096
G1 F600 X94.849 Y107.481 E16.4232
G1 X94.619 Y107.428 E16.42948
G1 X94.437 Y107.299 E16.43541
G1 X94.255 Y107.428 E16.44135
G1 X93.94 Y107.531 E16.45017
G1 X92.911 Y107.526 E16.47755
G1 X92.594 Y107.443 E16.48627
G1 X92.457 Y107.354 E16.49061
G1 X92.32 Y107.443 E16.49496
G1 X92.122 Y107.485 E16.50035
G1 X92.119 Y109.098 E16.54327
G1 X92.502 Y108.97 E16.55401
G1 X94.469 Y108.97 E16.60635
G1 X94.849 Y109.096 E16.617
G0 F6000 X95.159 Y109.97
G1 F448.6 X95.204 Y109.625 E16.62938
G1 F539.3 X95.249 Y109.28 E16.63968
G1 F600 X95.249 Y107.191 E16.69527
G1 X95.213 Y107.13 E16.69715
G1 X95.061 Y107.13 E16.7012
G1 X94.795 Y107.069 E16.70846
G1 X94.639 Y106.958 E16.71355
G1 F563.4 X94.437 Y106.584 E16.7256
G1 X94.235 Y106.958 E16.73764
G1 F600 X94.079 Y107.069 E16.74274
G1 X93.89 Y107.13 E16.74802
G1 X92.948 Y107.128 E16.77309
G1 X92.758 Y107.078 E16.77831
G1 X92.602 Y106.977 E16.78326
G1 X92.457 Y106.682 E16.79201
