;FLAVOR:Marlin
;TIME:2306
;Filament used: 0.499719m
;Layer height: 0.16
;MINX:75.821
;MINY:91.352
;MINZ:0.16
;MAXX:137.207
;MAXY:128.648
;MAXZ:10.56
;Generated with Cura_SteamEngine main
M82 ;absolute extrusion mode
; Ender 3 Custom Start G-code
G92 E0 ; Reset Extruder
G28 ; Home all axes
M104 S120 ; Start heating up the nozzle most of the way
M190 S68.0 ; Start heating the bed, wait until target temperature reached
M109 S248.0 ; Finish heating the nozzle
G1 Z2.0 F3000 ; Move Z Axis up little to prevent scratching of Heat Bed
G1 X0.1 Y20 Z0.3 F5000.0 ; Move to start position
G1 X0.1 Y200.0 Z0.3 F1500.0 E15 ; Draw the first line
G1 X0.4 Y200.0 Z0.3 F5000.0 ; Move to side a little
G1 X0.4 Y20 Z0.3 F1500.0 E30 ; Draw the second line
G92 E0 ; Reset Extruder
G1 Z2.0 F3000 ; Move Z Axis up little to prevent scratching of Heat Bed
G1 X5 Y20 Z0.3 F5000.0 ; Move over to prevent blob squish
G92 E0
G92 E0
G1 F1500 E-3.5
;LAYER_COUNT:66
;LAYER:0
M107
G0 F6000 X80.384 Y94.973 Z0.16
G0 X76.776 Y101.388
;TYPE:SKIRT
G1 F1500 E0
G1 F600 X76.975 Y100.472 E0.02494
G1 X77.251 Y99.575 E0.04991
G1 X77.603 Y98.706 E0.07486
G1 X78.027 Y97.87 E0.0998
G1 X78.522 Y97.073 E0.12477
G1 X79.082 Y96.32 E0.14974
G1 X79.704 Y95.619 E0.17467
G1 X80.384 Y94.973 E0.19963
G1 X81.116 Y94.387 E0.22458
G1 X81.896 Y93.866 E0.24954
G1 X82.717 Y93.413 E0.27449
G1 X83.574 Y93.031 E0.29945
G1 X84.46 Y92.724 E0.3244
G1 X85.369 Y92.494 E0.34935
G1 X86.295 Y92.342 E0.37432
G1 X87.37 Y92.265 E0.403
G1 X90.485 Y92.196 E0.4859
G1 X93.014 Y92.068 E0.55328
G1 X95.473 Y91.876 E0.61891
G1 X99.352 Y91.436 E0.72278
G1 X100.405 Y91.368 E0.75086
G1 X101.419 Y91.352 E0.77784
G1 X114.505 Y91.355 E1.12604
G1 X115.205 Y91.366 E1.14467
G1 X116.141 Y91.421 E1.16961
G1 X117.069 Y91.555 E1.19456
G1 X118.149 Y91.816 E1.22413
G1 X119.2 Y92.128 E1.2533
G1 X120.328 Y92.483 E1.28476
G1 X122.719 Y93.162 E1.3509
G1 X125.182 Y93.786 E1.4185
G1 X127.112 Y94.224 E1.47116
G1 X128.374 Y94.497 E1.50552
G1 X129.282 Y94.734 E1.53049
G1 X130.166 Y95.047 E1.55544
G1 X131.02 Y95.435 E1.5804
G1 X131.838 Y95.893 E1.60535
G1 X132.614 Y96.42 E1.6303
G1 X133.342 Y97.011 E1.65525
G1 X134.169 Y97.818 E1.686
G1 X134.857 Y98.62 E1.71412
G1 X135.405 Y99.381 E1.73907
G1 X135.885 Y100.187 E1.76403
G1 X136.295 Y101.03 E1.78897
G1 X136.632 Y101.906 E1.81395
G1 X136.893 Y102.806 E1.83888
G1 X137.077 Y103.726 E1.86385
G1 X137.181 Y104.658 E1.8888
G1 X137.207 Y105.466 E1.91031
G1 X137.205 Y105.895 E1.92172
G1 X137.116 Y107.239 E1.95756
G1 X137.055 Y107.716 E1.97036
G1 X136.799 Y109.511 E2.0186
G1 X136.512 Y112.041 E2.08635
G1 X136.298 Y114.548 E2.1533
G1 X136.252 Y115.337 E2.17433
G1 X136.178 Y116.369 E2.20186
G1 X136.071 Y117.3 E2.2268
G1 X135.885 Y118.22 E2.25177
G1 X135.622 Y119.12 E2.27672
G1 X135.282 Y119.994 E2.30167
G1 X134.87 Y120.837 E2.32664
G1 X134.387 Y121.641 E2.3516
G1 X133.838 Y122.401 E2.37654
G1 X133.225 Y123.111 E2.4015
G1 X132.555 Y123.767 E2.42645
G1 X131.831 Y124.363 E2.4514
G1 X131.059 Y124.896 E2.47637
G1 X130.244 Y125.36 E2.50132
G1 X129.393 Y125.754 E2.52627
G1 X128.511 Y126.074 E2.55124
G1 X127.606 Y126.317 E2.57617
G1 X127.068 Y126.423 E2.59076
G1 X126.425 Y126.533 E2.60812
G1 X124.858 Y126.779 E2.65032
G1 X122.381 Y127.241 E2.71737
G1 X119.959 Y127.763 E2.78329
G1 X119.043 Y127.992 E2.80842
G1 X118.832 Y128.035 E2.81415
G1 X117.569 Y128.337 E2.8487
G1 X116.648 Y128.516 E2.87366
G1 X115.715 Y128.616 E2.89863
G1 X115.219 Y128.636 E2.91184
G1 X114.477 Y128.648 E2.93159
G1 X101.168 Y128.647 E3.28571
G1 X100.47 Y128.637 E3.30429
G1 X99.554 Y128.585 E3.3287
G1 X98.435 Y128.475 E3.35862
G1 X95.761 Y128.248 E3.43002
G1 X91.807 Y128.032 E3.53539
G1 X89.224 Y127.96 E3.60414
G1 X86.758 Y127.944 E3.66976
G1 X85.822 Y127.898 E3.6947
G1 X84.892 Y127.772 E3.71967
G1 X83.977 Y127.567 E3.74462
G1 X83.082 Y127.286 E3.76958
G1 X82.215 Y126.929 E3.79453
G1 X81.381 Y126.499 E3.81949
G1 X80.587 Y126 E3.84445
G1 X79.839 Y125.435 E3.86939
G1 X79.141 Y124.809 E3.89434
G1 X78.499 Y124.125 E3.9193
G1 X77.917 Y123.389 E3.94426
G1 X77.401 Y122.607 E3.96919
G1 X76.952 Y121.783 E3.99416
G1 X76.576 Y120.924 E4.01911
G1 X76.274 Y120.036 E4.04407
G1 X76.049 Y119.125 E4.06904
G1 X75.903 Y118.199 E4.09398
G1 X75.836 Y117.267 E4.11884
G1 X75.821 Y116.604 E4.13649
G1 X75.822 Y108.088 E4.36308
G1 X75.833 Y107.382 E4.38187
G1 X75.888 Y106.445 E4.40685
G1 X76.017 Y105.542 E4.43112
G1 X76.204 Y104.543 E4.45816
G1 X76.392 Y103.609 E4.48351
G1 X76.776 Y101.388 E4.54348
G1 F1500 E1.04348
G0 F6000 X76.622 Y108.1
G1 F1500 E4.54348
G1 F600 X76.633 Y107.394 E4.56227
G1 X76.687 Y106.493 E4.58629
G1 X76.804 Y105.688 E4.60793
G1 X76.96 Y104.849 E4.63064
G1 X77.173 Y103.788 E4.65944
G1 X77.564 Y101.524 E4.72057
G1 X77.757 Y100.642 E4.74459
G1 X78.028 Y99.781 E4.76861
G1 X78.373 Y98.946 E4.79265
G1 X78.791 Y98.146 E4.81667
G1 X79.278 Y97.385 E4.84071
G1 X79.831 Y96.671 E4.86474
G1 X80.444 Y96.008 E4.88876
G1 X81.114 Y95.402 E4.9128
G1 X81.835 Y94.858 E4.93683
G1 X82.601 Y94.38 E4.96086
G1 X83.406 Y93.971 E4.98488
G1 X84.244 Y93.635 E5.00891
G1 X85.109 Y93.375 E5.03294
G1 X85.993 Y93.192 E5.05696
G1 X86.891 Y93.088 E5.08101
G1 X87.388 Y93.065 E5.09425
G1 X90.507 Y92.995 E5.17726
G1 X93.047 Y92.868 E5.24493
G1 X95.566 Y92.67 E5.31216
G1 X99.442 Y92.231 E5.41596
G1 X100.418 Y92.167 E5.44198
G1 X101.244 Y92.153 E5.46396
G1 X114.492 Y92.155 E5.81647
G1 X115.192 Y92.166 E5.8351
G1 X116.094 Y92.22 E5.85914
G1 X116.987 Y92.354 E5.88317
G1 X117.922 Y92.583 E5.90878
G1 X118.96 Y92.891 E5.93759
G1 X120.08 Y93.244 E5.96884
G1 X122.523 Y93.937 E6.0364
G1 X125.002 Y94.565 E6.10445
G1 X126.959 Y95.01 E6.15785
G1 X128.205 Y95.279 E6.19177
G1 X129.079 Y95.508 E6.21581
G1 X129.928 Y95.814 E6.23982
G1 X130.748 Y96.194 E6.26387
G1 X131.53 Y96.645 E6.28789
G1 X132.27 Y97.163 E6.31192
G1 X132.961 Y97.745 E6.33596
G1 X133.594 Y98.374 E6.35971
G1 X134.249 Y99.14 E6.38652
G1 X134.772 Y99.876 E6.41055
G1 X135.229 Y100.656 E6.4346
G1 X135.614 Y101.472 E6.45861
G1 X135.926 Y102.32 E6.48265
G1 X136.162 Y103.192 E6.50669
G1 X136.319 Y104.081 E6.53071
G1 X136.398 Y104.981 E6.55475
G1 X136.407 Y105.463 E6.56758
G1 X136.405 Y105.892 E6.57899
G1 X136.323 Y107.138 E6.61222
G1 X136.262 Y107.615 E6.62501
G1 X136.006 Y109.411 E6.67328
G1 X135.717 Y111.955 E6.74141
G1 X135.499 Y114.504 E6.80948
G1 X135.454 Y115.28 E6.83016
G1 X135.38 Y116.312 E6.85769
G1 X135.275 Y117.209 E6.88173
G1 X135.092 Y118.093 E6.90575
G1 X134.831 Y118.957 E6.92976
G1 X134.495 Y119.796 E6.95381
G1 X134.086 Y120.601 E6.97783
G1 X133.607 Y121.367 E7.00187
G1 X133.063 Y122.087 E7.02588
G1 X132.456 Y122.756 E7.04992
G1 X131.793 Y123.37 E7.07396
G1 X131.079 Y123.922 E7.09798
G1 X130.318 Y124.409 E7.12202
G1 X129.517 Y124.826 E7.14605
G1 X128.683 Y125.171 E7.17006
G1 X127.821 Y125.441 E7.1941
G1 X126.933 Y125.635 E7.21828
G1 X126.444 Y125.719 E7.23148
G1 X124.725 Y125.99 E7.27779
G1 X122.25 Y126.451 E7.34478
G1 X119.777 Y126.984 E7.41209
G1 X118.849 Y127.216 E7.43754
G1 X118.65 Y127.256 E7.44294
G1 X117.383 Y127.559 E7.47761
G1 X116.496 Y127.73 E7.50164
G1 X115.204 Y127.836 E7.53613
G1 X114.477 Y127.848 E7.55548
G1 X101.18 Y127.847 E7.90929
G1 X100.482 Y127.837 E7.92786
G1 X99.632 Y127.789 E7.95052
G1 X98.501 Y127.678 E7.98075
G1 X95.84 Y127.452 E8.05181
G1 X91.8 Y127.231 E8.15947
G1 X89.251 Y127.16 E8.22732
G1 X86.764 Y127.144 E8.2935
G1 X85.862 Y127.098 E8.31753
G1 X84.967 Y126.972 E8.34158
G1 X84.088 Y126.768 E8.36559
G1 X83.23 Y126.487 E8.38961
G1 X82.4 Y126.131 E8.41364
G1 X81.604 Y125.703 E8.43769
G1 X80.85 Y125.206 E8.46172
G1 X80.143 Y124.645 E8.48573
G1 X79.488 Y124.023 E8.50977
G1 X78.89 Y123.346 E8.5338
G1 X78.355 Y122.618 E8.55784
G1 X77.886 Y121.846 E8.58188
G1 X77.488 Y121.036 E8.60589
G1 X77.162 Y120.194 E8.62991
G1 X76.913 Y119.326 E8.65394
G1 X76.741 Y118.439 E8.67798
G1 X76.635 Y117.244 E8.7099
G1 X76.621 Y116.604 E8.72694
G1 X76.622 Y108.1 E8.95321
G0 F6000 X76.222 Y108.094
G1 F600 X76.233 Y107.388 E8.972
G1 X76.288 Y106.469 E8.9965
G1 X76.411 Y105.615 E9.01946
G1 X76.596 Y104.622 E9.04633
G1 X76.785 Y103.684 E9.07179
G1 X77.17 Y101.456 E9.13195
G1 X77.366 Y100.557 E9.15644
G1 X77.639 Y99.678 E9.18093
G1 X77.988 Y98.826 E9.20542
G1 X78.409 Y98.007 E9.22993
G1 X78.9 Y97.228 E9.25443
G1 X79.456 Y96.495 E9.27891
G1 X80.074 Y95.812 E9.30342
G1 X80.749 Y95.186 E9.32791
G1 X81.476 Y94.621 E9.35241
G1 X82.249 Y94.121 E9.37691
G1 X83.062 Y93.689 E9.4014
G1 X83.91 Y93.33 E9.42591
G1 X84.786 Y93.046 E9.45041
G1 X85.683 Y92.84 E9.4749
G1 X86.595 Y92.711 E9.49941
G1 X87.379 Y92.665 E9.5203
G1 X90.478 Y92.596 E9.60278
G1 X93.031 Y92.468 E9.6708
G1 X95.519 Y92.273 E9.7372
G1 X99.397 Y91.833 E9.84105
G1 X100.411 Y91.768 E9.86809
G1 X101.419 Y91.752 E9.89491
G1 X114.499 Y91.755 E10.24294
G1 X115.199 Y91.766 E10.26157
G1 X116.118 Y91.821 E10.28607
G1 X117.028 Y91.955 E10.31054
G1 X118.036 Y92.199 E10.33814
G1 X118.899 Y92.454 E10.36208
G1 X120.172 Y92.854 E10.39759
G1 X122.617 Y93.548 E10.46521
G1 X125.121 Y94.182 E10.53394
G1 X127.016 Y94.613 E10.58565
G1 X128.29 Y94.888 E10.62033
G1 X129.18 Y95.121 E10.64481
G1 X130.047 Y95.431 E10.66931
G1 X130.884 Y95.814 E10.6938
G1 X131.685 Y96.269 E10.71832
G1 X132.443 Y96.792 E10.74282
G1 X133.152 Y97.378 E10.76729
G1 X133.882 Y98.095 E10.79452
G1 X134.553 Y98.88 E10.822
G1 X135.089 Y99.629 E10.84651
G1 X135.557 Y100.422 E10.87101
G1 X135.955 Y101.252 E10.8955
G1 X136.28 Y102.113 E10.91999
G1 X136.528 Y103 E10.94449
G1 X136.699 Y103.905 E10.969
G1 X136.79 Y104.821 E10.99349
G1 X136.807 Y105.464 E11.01061
G1 X136.805 Y105.893 E11.02202
G1 X136.719 Y107.189 E11.05658
G1 X136.637 Y107.821 E11.07354
G1 X136.4 Y109.48 E11.11813
G1 X136.114 Y111.998 E11.18556
G1 X135.901 Y114.491 E11.25214
G1 X135.853 Y115.308 E11.27391
G1 X135.779 Y116.34 E11.30144
G1 X135.673 Y117.255 E11.32595
G1 X135.489 Y118.157 E11.35045
G1 X135.226 Y119.039 E11.37494
G1 X134.889 Y119.896 E11.39944
G1 X134.478 Y120.72 E11.42394
G1 X133.997 Y121.505 E11.44844
G1 X133.45 Y122.245 E11.47292
G1 X132.841 Y122.935 E11.49741
G1 X132.174 Y123.57 E11.52191
G1 X131.454 Y124.145 E11.54643
G1 X130.688 Y124.654 E11.5709
G1 X129.88 Y125.096 E11.59541
G1 X129.037 Y125.466 E11.6199
G1 X128.165 Y125.761 E11.6444
G1 X127.001 Y126.029 E11.67618
G1 X126.512 Y126.113 E11.68938
G1 X124.829 Y126.378 E11.73472
G1 X122.295 Y126.85 E11.8033
G1 X119.868 Y127.373 E11.86936
G1 X118.946 Y127.604 E11.89465
G1 X118.745 Y127.645 E11.90011
G1 X117.476 Y127.948 E11.93483
G1 X116.572 Y128.123 E11.95933
G1 X115.211 Y128.236 E11.99566
G1 X114.477 Y128.248 E12.0152
G1 X101.174 Y128.247 E12.36916
G1 X100.476 Y128.237 E12.38774
G1 X99.593 Y128.187 E12.41127
G1 X98.43 Y128.073 E12.44236
G1 X95.817 Y127.851 E12.51214
G1 X91.804 Y127.631 E12.61908
G1 X89.238 Y127.56 E12.68738
G1 X86.761 Y127.544 E12.75329
G1 X85.842 Y127.498 E12.77778
G1 X84.93 Y127.372 E12.80227
G1 X84.032 Y127.168 E12.82678
G1 X83.155 Y126.886 E12.85129
G1 X82.306 Y126.53 E12.87578
G1 X81.492 Y126.101 E12.90027
G1 X80.717 Y125.603 E12.92478
G1 X79.989 Y125.04 E12.94927
G1 X79.312 Y124.416 E12.97376
G1 X78.692 Y123.735 E12.99827
G1 X78.134 Y123.003 E13.02276
G1 X77.641 Y122.226 E13.04725
G1 X77.217 Y121.409 E13.07174
G1 X76.866 Y120.557 E13.09626
G1 X76.59 Y119.679 E13.12075
G1 X76.391 Y118.78 E13.14524
G1 X76.271 Y117.867 E13.16975
G1 X76.236 Y117.256 E13.18603
G1 X76.221 Y116.604 E13.20338
G1 X76.222 Y108.094 E13.42982
G1 F1500 E9.92982
;MESH:void_switch-v47-stem.stl
G0 F6000 X90.148 Y109.012
;TYPE:WALL-INNER
G1 F1500 E13.42982
G1 F600 X90.148 Y108.005 E13.45661
G1 X89.644 Y108.152 E13.47058
G1 X88.663 Y108.152 E13.49669
G1 X88.222 Y108.051 E13.50872
G1 X88.221 Y109.012 E13.53429
G1 X90.148 Y109.012 E13.58557
G0 F6000 X90.548 Y109.538
G1 F600 X90.548 Y107.823 E13.6312
G1 X90.478 Y107.703 E13.6349
G1 X90.319 Y107.65 E13.63936
G1 X90.14 Y107.523 E13.6452
G1 X89.961 Y107.65 E13.65104
G1 X89.625 Y107.747 E13.66034
G1 X88.675 Y107.752 E13.68562
G1 X88.294 Y107.665 E13.69602
G1 X88.157 Y107.576 E13.70037
G1 X87.892 Y107.703 E13.70818
G1 X87.822 Y107.824 E13.7119
G1 X87.819 Y109.54 E13.75756
G1 X88.202 Y109.412 E13.76831
G1 X90.168 Y109.412 E13.82062
G1 X90.548 Y109.538 E13.83127
G0 F6000 X90.858 Y110.412
G1 F448.6 X90.903 Y110.067 E13.84365
G1 F539.3 X90.948 Y109.722 E13.85395
G1 F600 X90.948 Y107.716 E13.90733
G1 X90.734 Y107.348 E13.91866
G1 X90.496 Y107.291 E13.92517
G1 X90.34 Y107.18 E13.93026
G1 F567.4 X90.14 Y106.806 E13.9422
G1 X89.94 Y107.18 E13.95413
G1 F600 X89.784 Y107.291 E13.95922
G1 X89.583 Y107.349 E13.96479
G1 X88.686 Y107.352 E13.98866
G1 X88.458 Y107.3 E13.99488
G1 X88.302 Y107.199 E13.99983
G1 X88.157 Y106.904 E14.00857
G1 X88.011 Y107.199 E14.01733
G1 X87.814 Y107.317 E14.02344
G1 X87.635 Y107.348 E14.02827
G1 X87.422 Y107.716 E14.03959
G1 X87.419 Y109.722 E14.09296
G1 F539.3 X87.465 Y110.067 E14.10327
G1 F448.6 X87.512 Y110.412 E14.11566
G1 X87.676 Y110.172 E14.126
G1 F539.3 X87.84 Y109.932 E14.13461
G1 F600 X88.202 Y109.812 E14.14476
G1 X90.168 Y109.812 E14.19707
G1 X90.529 Y109.931 E14.20718
G1 F539.3 X90.693 Y110.171 E14.21579
G1 F448.6 X90.858 Y110.412 E14.22618
G1 F1500 E10.72618
G0 F6000 X91.348 Y116.753
;TYPE:WALL-OUTER
G1 F1500 E14.22618
G1 F600 X91.348 Y107.608 E14.46951
G1 X90.967 Y106.952 E14.4897
G1 X90.672 Y106.932 E14.49756
G1 X90.561 Y106.77 E14.50279
G1 X90.56 Y103.452 E14.59107
G1 X89.713 Y103.452 E14.61361
G1 X89.719 Y106.77 E14.7019
G1 X89.66 Y106.895 E14.70558
G1 X89.541 Y106.951 E14.70908
G1 X88.643 Y106.952 E14.73297
G1 F505.3 X88.43 Y106.776 E14.7417
G1 F437.2 X88.43 Y105.15 E14.80108
G1 F438.8 X88.43 Y103.524 E14.86025
G1 X87.883 Y103.525 E14.88015
G1 X87.883 Y105.151 E14.93931
G1 F437.2 X87.883 Y106.777 E14.99869
G1 F505.3 X87.678 Y106.941 E15.00699
G1 F600 X87.402 Y106.952 E15.01434
G1 X87.022 Y107.608 E15.03451
G1 X87.022 Y116.753 E15.27784
G1 X88.002 Y116.752 E15.30392
G1 X88.002 Y110.412 E15.47261
G1 X88.081 Y110.252 E15.47736
G1 X88.202 Y110.212 E15.48075
G1 X90.168 Y110.212 E15.53306
G1 X90.289 Y110.251 E15.53645
G1 X90.368 Y110.412 E15.54122
G1 X90.369 Y116.752 E15.70991
G1 X91.348 Y116.753 E15.73596
G0 F6000 X90.858 Y116.263
;TYPE:WALL-INNER
G1 F413.8 X90.858 Y110.412 E15.96171
G1 F1500 E12.46171
G0 F6000 X87.512 Y110.412
G1 F1500 E15.96171
G1 F413.8 X87.512 Y116.262 E16.18741
G1 F1500 E12.68741
G0 F6000 X90.14 Y106.806
G1 F1500 E16.18741
G1 F536.9 X90.137 Y103.875 E16.27456
G1 F1500 E12.77456
G0 F6000 X89.715 Y108.579
;TYPE:SKIN
G1 F1500 E16.27456
G1 F442 X88.652 Y108.582 E16.31296
G1 F1500 E12.81296
;MESH:void_switch-v47.stl
G0 F6000 X97.421 Y109.199
;TYPE:WALL-INNER
G1 F1500 E16.31296
G1 F600 X97.421 Y108.189 E16.33983
G1 X96.915 Y108.339 E16.35387
G1 X95.936 Y108.339 E16.37992
G1 X95.495 Y108.238 E16.39196
G1 X95.494 Y109.199 E16.41753
G1 X97.421 Y109.199 E16.46881
G0 F6000 X97.821 Y109.724
G1 F600 X97.821 Y108.01 E16.51441
G1 X97.751 Y107.89 E16.51811
G1 X97.591 Y107.837 E16.52259
G1 X97.41 Y107.708 E16.52851
G1 X97.228 Y107.837 E16.53444
G1 X96.895 Y107.934 E16.54367
G1 X95.948 Y107.939 E16.56887
G1 X95.567 Y107.852 E16.57927
G1 X95.43 Y107.763 E16.58362
G1 X95.165 Y107.89 E16.59143
G1 X95.095 Y108.011 E16.59515
G1 X95.092 Y109.727 E16.64081
G1 X95.475 Y109.599 E16.65156
G1 X97.44 Y109.599 E16.70384
G1 X97.821 Y109.724 E16.71451
G0 F6000 X98.13 Y110.599
G1 F447.8 X98.175 Y110.254 E16.72692
G1 F539.3 X98.221 Y109.909 E16.73722
G1 F600 X98.221 Y107.903 E16.7906
G1 X98.007 Y107.535 E16.80192
G1 X97.768 Y107.478 E16.80846
G1 X97.612 Y107.367 E16.81356
G1 F562.1 X97.409 Y106.993 E16.82564
G1 X97.208 Y107.367 E16.8377
G1 F600 X97.051 Y107.478 E16.84282
G1 X96.851 Y107.536 E16.84836
G1 X95.959 Y107.539 E16.87209
G1 X95.731 Y107.487 E16.87832
G1 X95.575 Y107.386 E16.88326
G1 X95.43 Y107.091 E16.89201
G1 X95.284 Y107.386 E16.90077
G1 X95.087 Y107.504 E16.90688
G1 X94.908 Y107.535 E16.91171
G1 X94.695 Y107.903 E16.92302
G1 X94.692 Y109.909 E16.9764
G1 F539.3 X94.738 Y110.254 E16.9867
G1 F448.6 X94.785 Y110.599 E16.99909
G1 X94.949 Y110.359 E17.00944
G1 F539.3 X95.113 Y110.119 E17.01804
G1 F600 X95.475 Y109.999 E17.02819
G1 X97.44 Y109.999 E17.08048
G1 X97.803 Y110.118 E17.09064
