;FLAVOR:Marlin
;TIME:2011
;Filament used: 0.426154m
;Layer height: 0.16
;MINX:35.16
;MINY:24.281
;MINZ:0.16
;MAXX:89.271
;MAXY:61.58
;MAXZ:10.08
;Generated with Cura_SteamEngine main
M82 ;absolute extrusion mode
; Ender 3 Custom Start G-code
G92 E0 ; Reset Extruder
G28 ; Home all axes
M104 S120 ; Start heating up the nozzle most of the way
M190 S68.0 ; Start heating the bed, wait until target temperature reached
M109 S248.0 ; Finish heating the nozzle
G1 Z2.0 F3000 ; Move Z Axis up little to prevent scratching of Heat Bed
G1 X0.1 Y20 Z0.3 F5000.0 ; Move to start position
G1 X0.1 Y200.0 Z0.3 F1500.0 E15 ; Draw the first line
G1 X0.4 Y200.0 Z0.3 F5000.0 ; Move to side a little
G1 X0.4 Y20 Z0.3 F1500.0 E30 ; Draw the second line
G92 E0 ; Reset Extruder
G1 Z2.0 F3000 ; Move Z Axis up little to prevent scratching of Heat Bed
G1 X5 Y20 Z0.3 F5000.0 ; Move over to prevent blob squish
G92 E0
G92 E0
G1 F1500 E-3.5
;LAYER_COUNT:63
;LAYER:0
M107
G0 F6000 X37.952 Y29.643 Z0.16
G0 X35.94 Y35.029
;TYPE:SKIRT
G1 F1500 E0
G1 F600 X36.145 Y33.934 E0.02964
G1 X36.357 Y33.02 E0.05461
G1 X36.646 Y32.128 E0.07956
G1 X37.01 Y31.264 E0.1045
G1 X37.447 Y30.433 E0.12949
G1 X37.952 Y29.643 E0.15443
G1 X38.523 Y28.899 E0.17939
G1 X39.155 Y28.207 E0.20432
G1 X39.844 Y27.57 E0.22929
G1 X40.585 Y26.995 E0.25425
G1 X41.372 Y26.485 E0.2792
G1 X42.199 Y26.043 E0.30415
G1 X43.061 Y25.674 E0.3291
G1 X43.952 Y25.379 E0.35407
G1 X44.864 Y25.162 E0.37902
G1 X45.857 Y25.016 E0.40572
G1 X48.303 Y24.77 E0.47114
G1 X51.279 Y24.383 E0.55099
G1 X52.514 Y24.293 E0.58394
G1 X53.233 Y24.282 E0.60307
G1 X66.594 Y24.281 E0.95858
G1 X67.309 Y24.292 E0.97761
G1 X68.246 Y24.347 E1.00258
G1 X69.174 Y24.481 E1.02753
G1 X70.491 Y24.814 E1.06368
G1 X72.816 Y25.558 E1.12863
G1 X75.224 Y26.256 E1.19534
G1 X77.651 Y26.887 E1.26207
G1 X80.624 Y27.568 E1.34322
G1 X81.529 Y27.817 E1.3682
G1 X82.409 Y28.141 E1.39315
G1 X83.258 Y28.539 E1.4181
G1 X84.07 Y29.008 E1.44305
G1 X84.839 Y29.544 E1.46799
G1 X85.56 Y30.144 E1.49295
G1 X86.227 Y30.803 E1.5179
G1 X86.836 Y31.517 E1.54287
G1 X87.656 Y32.714 E1.58147
G1 X88.159 Y33.642 E1.60956
G1 X88.533 Y34.502 E1.63451
G1 X88.833 Y35.39 E1.65945
G1 X89.056 Y36.301 E1.68441
G1 X89.201 Y37.228 E1.70937
G1 X89.27 Y38.428 E1.74136
G1 X89.271 Y38.767 E1.75038
G1 X89.234 Y39.704 E1.77533
G1 X89.173 Y40.262 E1.79026
G1 X89.031 Y41.317 E1.81859
G1 X88.924 Y42.038 E1.83798
G1 X88.625 Y44.525 E1.90463
G1 X88.398 Y47.002 E1.97082
G1 X88.36 Y47.644 E1.98793
G1 X88.339 Y47.857 E1.99363
G1 X88.244 Y49.19 E2.02918
G1 X88.138 Y50.122 E2.05414
G1 X87.953 Y51.041 E2.07909
G1 X87.69 Y51.942 E2.10406
G1 X87.352 Y52.816 E2.12899
G1 X86.94 Y53.659 E2.15396
G1 X86.458 Y54.463 E2.1789
G1 X85.909 Y55.224 E2.20387
G1 X85.297 Y55.935 E2.22883
G1 X84.627 Y56.591 E2.25378
G1 X83.904 Y57.188 E2.27873
G1 X83.132 Y57.721 E2.30369
G1 X82.318 Y58.186 E2.32864
G1 X81.467 Y58.581 E2.3536
G1 X80.585 Y58.901 E2.37857
G1 X79.68 Y59.145 E2.40351
G1 X79.118 Y59.256 E2.41875
G1 X77.403 Y59.548 E2.46504
G1 X74.872 Y60.029 E2.53359
G1 X72.38 Y60.575 E2.60147
G1 X69.795 Y61.217 E2.67234
G1 X68.877 Y61.411 E2.69731
G1 X67.946 Y61.525 E2.72226
G1 X67.287 Y61.558 E2.73982
G1 X66.051 Y61.58 E2.77271
G1 X53.209 Y61.578 E3.11441
G1 X52.512 Y61.568 E3.13296
G1 X51.893 Y61.541 E3.14945
G1 X50.864 Y61.468 E3.1769
G1 X48.289 Y61.322 E3.24552
G1 X46.084 Y61.26 E3.30422
G1 X45.692 Y61.243 E3.31466
G1 X44.758 Y61.162 E3.3396
G1 X43.834 Y61.002 E3.36455
G1 X42.927 Y60.764 E3.3895
G1 X42.043 Y60.45 E3.41447
G1 X41.189 Y60.061 E3.43944
G1 X40.372 Y59.602 E3.46437
G1 X39.597 Y59.074 E3.48932
G1 X38.869 Y58.482 E3.51429
G1 X38.195 Y57.83 E3.53924
G1 X37.578 Y57.123 E3.56421
G1 X37.024 Y56.367 E3.58915
G1 X36.537 Y55.565 E3.61411
G1 X36.119 Y54.726 E3.63906
G1 X35.775 Y53.853 E3.66402
G1 X35.506 Y52.955 E3.68897
G1 X35.315 Y52.037 E3.71392
G1 X35.202 Y51.106 E3.73887
G1 X35.174 Y50.592 E3.75257
G1 X35.16 Y49.962 E3.76933
G1 X35.16 Y40.488 E4.02142
G1 X35.171 Y39.78 E4.04026
G1 X35.226 Y38.844 E4.06521
G1 X35.386 Y37.782 E4.09378
G1 X35.94 Y35.029 E4.1685
G1 F1500 E0.6685
G0 F6000 X35.96 Y40.501
G1 F1500 E4.1685
G1 F600 X35.971 Y39.793 E4.18735
G1 X36.025 Y38.891 E4.21139
G1 X36.17 Y37.94 E4.23699
G1 X36.744 Y35.086 E4.31445
G1 X36.932 Y34.081 E4.34165
G1 X37.137 Y33.202 E4.36567
G1 X37.42 Y32.344 E4.38971
G1 X37.777 Y31.515 E4.41372
G1 X38.206 Y30.72 E4.43776
G1 X38.704 Y29.967 E4.46178
G1 X39.267 Y29.26 E4.48583
G1 X39.89 Y28.606 E4.50986
G1 X40.568 Y28.01 E4.53388
G1 X41.296 Y27.476 E4.55791
G1 X42.069 Y27.008 E4.58195
G1 X42.88 Y26.611 E4.60598
G1 X43.723 Y26.287 E4.63001
G1 X44.591 Y26.039 E4.65403
G1 X45.478 Y25.869 E4.67806
G1 X45.937 Y25.812 E4.69036
G1 X48.383 Y25.566 E4.75578
G1 X51.382 Y25.176 E4.83624
G1 X52.527 Y25.092 E4.86679
G1 X53.064 Y25.083 E4.88108
G1 X66.423 Y25.08 E5.23654
G1 X67.297 Y25.092 E5.2598
G1 X68.198 Y25.146 E5.28382
G1 X69.092 Y25.279 E5.30787
G1 X70.247 Y25.576 E5.3396
G1 X72.569 Y26.319 E5.40447
G1 X75.01 Y27.027 E5.47209
G1 X77.474 Y27.668 E5.53984
G1 X80.446 Y28.348 E5.62096
G1 X81.316 Y28.589 E5.64498
G1 X82.162 Y28.905 E5.66901
G1 X82.977 Y29.295 E5.69305
G1 X83.753 Y29.756 E5.71707
G1 X84.486 Y30.283 E5.74109
G1 X85.17 Y30.873 E5.76513
G1 X85.799 Y31.521 E5.78916
G1 X86.368 Y32.223 E5.8132
G1 X86.977 Y33.136 E5.8424
G1 X87.454 Y34.022 E5.86918
G1 X87.811 Y34.852 E5.89322
G1 X88.092 Y35.71 E5.91724
G1 X88.297 Y36.59 E5.94128
G1 X88.423 Y37.484 E5.9653
G1 X88.47 Y38.43 E5.99051
G1 X88.471 Y38.769 E5.99953
G1 X88.434 Y39.671 E6.02355
G1 X88.38 Y40.155 E6.03651
G1 X88.239 Y41.2 E6.06456
G1 X88.135 Y41.902 E6.08345
G1 X87.827 Y44.46 E6.152
G1 X87.602 Y46.917 E6.21765
G1 X87.562 Y47.597 E6.23578
G1 X87.54 Y47.812 E6.24153
G1 X87.446 Y49.134 E6.27679
G1 X87.343 Y50.031 E6.30082
G1 X87.16 Y50.915 E6.32484
G1 X86.9 Y51.78 E6.34887
G1 X86.564 Y52.618 E6.37289
G1 X86.156 Y53.424 E6.39693
G1 X85.678 Y54.19 E6.42095
G1 X85.134 Y54.911 E6.44499
G1 X84.528 Y55.581 E6.46902
G1 X83.865 Y56.194 E6.49305
G1 X83.151 Y56.747 E6.51708
G1 X82.391 Y57.235 E6.54111
G1 X81.59 Y57.653 E6.56515
G1 X80.756 Y57.998 E6.58917
G1 X79.895 Y58.269 E6.61319
G1 X78.984 Y58.467 E6.63799
G1 X77.276 Y58.758 E6.68409
G1 X74.688 Y59.249 E6.75418
G1 X72.221 Y59.79 E6.82138
G1 X69.597 Y60.442 E6.89333
G1 X68.712 Y60.627 E6.91738
G1 X67.816 Y60.733 E6.94139
G1 X67.271 Y60.758 E6.95591
G1 X66.051 Y60.78 E6.98838
G1 X53.221 Y60.778 E7.32976
G1 X52.524 Y60.768 E7.34831
G1 X51.949 Y60.743 E7.36362
G1 X50.964 Y60.673 E7.38989
G1 X48.286 Y60.522 E7.46126
G1 X46.279 Y60.466 E7.51469
G1 X45.727 Y60.443 E7.52939
G1 X44.827 Y60.364 E7.55343
G1 X43.938 Y60.206 E7.57745
G1 X43.067 Y59.97 E7.60146
G1 X42.219 Y59.657 E7.62552
G1 X41.403 Y59.271 E7.64953
G1 X40.624 Y58.814 E7.67357
G1 X39.888 Y58.29 E7.69761
G1 X39.202 Y57.703 E7.72163
G1 X38.571 Y57.058 E7.74564
G1 X37.998 Y56.359 E7.76969
G1 X37.49 Y55.612 E7.79372
G1 X37.05 Y54.824 E7.81774
G1 X36.682 Y53.999 E7.84178
G1 X36.388 Y53.145 E7.86581
G1 X36.17 Y52.269 E7.88983
G1 X36.031 Y51.376 E7.91387
G1 X35.974 Y50.567 E7.93545
G1 X35.96 Y49.962 E7.95156
G1 X35.96 Y40.501 E8.2033
G0 F6000 X35.56 Y40.494
G1 F600 X35.571 Y39.786 E8.22214
G1 X35.626 Y38.867 E8.24663
G1 X35.778 Y37.861 E8.2737
G1 X36.352 Y35.007 E8.35116
G1 X36.539 Y34.008 E8.37821
G1 X36.747 Y33.111 E8.40271
G1 X37.033 Y32.236 E8.4272
G1 X37.394 Y31.389 E8.4517
G1 X37.827 Y30.576 E8.47621
G1 X38.328 Y29.804 E8.5007
G1 X38.895 Y29.079 E8.52519
G1 X39.523 Y28.405 E8.5497
G1 X40.206 Y27.788 E8.57419
G1 X40.941 Y27.234 E8.59868
G1 X41.721 Y26.744 E8.62319
G1 X42.541 Y26.325 E8.64769
G1 X43.393 Y25.978 E8.67217
G1 X44.273 Y25.706 E8.69668
G1 X45.173 Y25.512 E8.72118
G1 X45.897 Y25.414 E8.74062
G1 X48.357 Y25.167 E8.8064
G1 X51.33 Y24.78 E8.88618
G1 X52.52 Y24.692 E8.91793
G1 X53.057 Y24.683 E8.93222
G1 X66.423 Y24.68 E9.28786
G1 X67.303 Y24.692 E9.31128
G1 X68.222 Y24.746 E9.33577
G1 X69.133 Y24.88 E9.36027
G1 X70.369 Y25.195 E9.39421
G1 X72.688 Y25.937 E9.459
G1 X75.117 Y26.641 E9.52629
G1 X77.567 Y27.278 E9.59365
G1 X80.535 Y27.958 E9.67467
G1 X81.422 Y28.203 E9.69915
G1 X82.286 Y28.523 E9.72367
G1 X83.118 Y28.917 E9.74816
G1 X83.912 Y29.382 E9.77264
G1 X84.664 Y29.914 E9.79715
G1 X85.366 Y30.509 E9.82164
G1 X86.014 Y31.163 E9.84614
G1 X86.603 Y31.87 E9.87062
G1 X87.317 Y32.925 E9.90452
G1 X87.806 Y33.832 E9.93194
G1 X88.172 Y34.677 E9.95644
G1 X88.463 Y35.551 E9.98095
G1 X88.677 Y36.446 E10.00543
G1 X88.812 Y37.357 E10.02994
G1 X88.87 Y38.429 E10.0585
G1 X88.871 Y38.768 E10.06752
G1 X88.834 Y39.688 E10.09202
G1 X88.777 Y40.208 E10.10594
G1 X88.635 Y41.258 E10.13414
G1 X88.53 Y41.968 E10.15323
G1 X88.228 Y44.474 E10.22039
G1 X87.999 Y46.977 E10.28727
G1 X87.961 Y47.621 E10.30444
G1 X87.939 Y47.833 E10.31011
G1 X87.845 Y49.162 E10.34556
G1 X87.74 Y50.077 E10.37007
G1 X87.557 Y50.979 E10.39456
G1 X87.295 Y51.861 E10.41904
G1 X86.958 Y52.718 E10.44354
G1 X86.548 Y53.542 E10.46803
G1 X86.068 Y54.328 E10.49254
G1 X85.521 Y55.069 E10.51704
G1 X84.912 Y55.759 E10.54153
G1 X84.246 Y56.395 E10.56603
G1 X83.527 Y56.97 E10.59053
G1 X82.761 Y57.48 E10.61502
G1 X81.953 Y57.922 E10.63952
G1 X81.11 Y58.293 E10.66403
G1 X80.239 Y58.588 E10.6885
G1 X79.051 Y58.862 E10.72094
G1 X77.319 Y59.157 E10.76769
G1 X74.777 Y59.64 E10.83653
G1 X72.286 Y60.186 E10.90439
G1 X69.696 Y60.83 E10.9754
G1 X68.794 Y61.019 E10.99992
G1 X67.88 Y61.129 E11.02442
G1 X67.279 Y61.158 E11.04043
G1 X66.051 Y61.18 E11.07311
G1 X53.215 Y61.178 E11.41465
G1 X52.518 Y61.168 E11.4332
G1 X51.921 Y61.142 E11.4491
G1 X50.916 Y61.071 E11.47591
G1 X48.287 Y60.922 E11.54597
G1 X46.268 Y60.866 E11.59971
G1 X45.71 Y60.843 E11.61457
G1 X44.793 Y60.763 E11.63907
G1 X43.886 Y60.604 E11.66357
G1 X42.996 Y60.367 E11.68807
G1 X42.131 Y60.054 E11.71255
G1 X41.295 Y59.666 E11.73707
G1 X40.497 Y59.208 E11.76156
G1 X39.741 Y58.682 E11.78606
G1 X39.034 Y58.092 E11.81056
G1 X38.381 Y57.444 E11.83504
G1 X37.786 Y56.741 E11.85955
G1 X37.255 Y55.989 E11.88404
G1 X36.791 Y55.194 E11.90854
G1 X36.398 Y54.361 E11.93304
G1 X36.078 Y53.498 E11.95753
G1 X35.834 Y52.61 E11.98204
G1 X35.669 Y51.704 E12.00654
G1 X35.574 Y50.58 E12.03656
G1 X35.56 Y49.962 E12.053
G1 X35.56 Y40.494 E12.30493
G1 F1500 E8.80493
;MESH:void_switch-v40.stl
G0 F6000 X49.397 Y41.503
;TYPE:WALL-INNER
G1 F1500 E12.30493
G1 F414.5 X49.397 Y40.823 E12.33112
G1 F415.9 X49.029 Y40.937 E12.34591
G1 F418.8 X47.948 Y40.935 E12.38711
G1 F420.3 X47.645 Y40.86 E12.39897
G1 X47.645 Y41.506 E12.4235
G1 F418.8 X48.521 Y41.505 E12.45689
G1 F415.9 X49.397 Y41.503 E12.49052
G0 F6000 X49.886 Y42.117
G1 F600 X49.886 Y40.403 E12.53612
G1 X49.656 Y40.35 E12.5424
G1 X49.475 Y40.221 E12.54832
G1 X49.293 Y40.35 E12.55425
G1 X48.962 Y40.452 E12.56347
G1 X47.978 Y40.451 E12.58965
G1 X47.631 Y40.365 E12.59916
G1 X47.494 Y40.276 E12.60351
G1 X47.357 Y40.365 E12.60786
G1 X47.159 Y40.407 E12.61324
G1 X47.157 Y42.12 E12.65882
G1 X47.54 Y41.992 E12.66957
G1 X49.505 Y41.992 E12.72185
G1 X49.886 Y42.117 E12.73252
G0 F6000 X50.195 Y42.992
G1 F447.8 X50.24 Y42.647 E12.74493
G1 F539.3 X50.286 Y42.302 E12.75523
G1 F600 X50.286 Y40.113 E12.81347
G1 X50.25 Y40.052 E12.81536
G1 X50.099 Y40.052 E12.81938
G1 X49.833 Y39.991 E12.82664
G1 X49.677 Y39.88 E12.83173
G1 F562.1 X49.474 Y39.506 E12.84382
G1 X49.273 Y39.88 E12.85588
G1 F600 X49.116 Y39.991 E12.861
G1 X48.917 Y40.052 E12.86653
G1 X48.003 Y40.051 E12.89085
G1 X47.795 Y40 E12.89655
G1 X47.639 Y39.899 E12.9015
G1 X47.494 Y39.606 E12.9102
G1 X47.349 Y39.899 E12.91889
G1 X47.193 Y40 E12.92384
G1 X46.947 Y40.052 E12.93053
G1 X46.795 Y40.052 E12.93457
G1 X46.759 Y40.113 E12.93646
G1 X46.757 Y42.302 E12.9947
G1 F539.3 X46.803 Y42.647 E13.00501
G1 F448.6 X46.85 Y42.992 E13.0174
G1 X47.014 Y42.752 E13.02774
G1 F539.3 X47.178 Y42.512 E13.03635
G1 F600 X47.54 Y42.392 E13.0465
G1 X49.505 Y42.392 E13.09878
G1 X49.868 Y42.511 E13.10894
G1 F539.3 X50.031 Y42.751 E13.11753
G1 F447.8 X50.195 Y42.992 E13.12793
G1 F1500 E9.62793
G0 F6000 X50.686 Y50.062
;TYPE:WALL-OUTER
G1 F1500 E13.12793
G1 F600 X50.686 Y40.006 E13.3955
G1 X50.481 Y39.652 E13.40638
G1 X50.099 Y39.652 E13.41655
G1 X49.958 Y39.595 E13.42059
G1 X49.899 Y39.47 E13.42427
G1 X49.898 Y36.152 E13.51256
G1 X49.05 Y36.152 E13.53512
G1 X49.05 Y39.47 E13.62341
G1 X48.991 Y39.595 E13.62708
G1 X48.879 Y39.65 E13.6304
G1 X47.98 Y39.652 E13.65432
G1 F506.3 X47.767 Y39.476 E13.66304
G1 F438 X47.767 Y36.225 E13.78155
G1 F438.8 X47.221 Y36.225 E13.80141
G1 F438 X47.221 Y39.476 E13.91992
G1 F506.3 X47.008 Y39.652 E13.92863
G1 F600 X46.564 Y39.652 E13.94045
G1 X46.359 Y40.006 E13.95133
G1 X46.36 Y50.062 E14.2189
G1 X47.34 Y50.062 E14.24498
G1 X47.34 Y42.992 E14.4331
G1 X47.419 Y42.832 E14.43785
G1 X47.54 Y42.792 E14.44124
G1 X49.505 Y42.792 E14.49352
G1 X49.626 Y42.831 E14.49691
G1 X49.705 Y42.992 E14.50168
G1 X49.706 Y50.062 E14.6898
G1 X50.686 Y50.062 E14.71587
G0 F6000 X50.196 Y49.572
;TYPE:WALL-INNER
G1 F413.8 X50.196 Y46.282 E14.84281
G1 F413.1 X50.195 Y42.992 E14.96996
G1 F1500 E11.46996
G0 F6000 X46.85 Y42.992
G1 F1500 E14.96996
G1 F413.8 X46.85 Y49.572 E15.22383
G1 F1500 E11.72383
G0 F6000 X49.474 Y39.506
G1 F1500 E15.22383
G1 F529.8 X49.474 Y38.041 E15.26797
G1 F532.2 X49.474 Y36.576 E15.31192
G1 F1500 E11.81192
G0 F6000 X53.32 Y37.334
G1 F1500 E15.31192
G1 F423.3 X54.29 Y36.365 E15.36364
G1 X53.319 Y36.366 E15.40026
G1 X53.32 Y37.334 E15.43677
G1 F1500 E11.93677
G0 F6000 X52.89 Y42.342
G1 F1500 E15.43677
G1 F526.3 X53.121 Y41.917 E15.45144
G1 F600 X53.748 Y41.29 E15.47504
G1 X53.39 Y40.932 E15.48851
G1 F603 X53.225 Y40.61 E15.49809
G1 F609.1 X53.223 Y39.491 E15.52742
G1 F613.8 X53.22 Y38.372 E15.55652
G1 F607.6 X53.39 Y37.947 E15.56855
G1 F600 X54.9 Y36.437 E15.62537
G1 F603 X55.222 Y36.272 E15.63495
G1 F609.1 X56.341 Y36.27 E15.66428
G1 F613.8 X57.46 Y36.267 E15.69338
G1 F607.6 X57.885 Y36.437 E15.70541
G1 F600 X58.243 Y36.794 E15.71886
G1 X58.87 Y36.168 E15.74243
G1 F520.6 X59.181 Y35.941 E15.75424
G1 X58.752 Y35.881 E15.76753
G1 F600 X52.835 Y35.882 E15.92497
G1 X52.837 Y37.718 E15.97382
G1 F607.6 X52.83 Y38.372 E15.991
G1 F613.8 X52.831 Y39.057 E16.00882
G1 F610.7 X52.832 Y39.742 E16.02673
G1 F607.6 X52.833 Y40.427 E16.04473
G1 F604.5 X52.834 Y41.112 E16.06282
G1 F601.5 X52.835 Y41.797 E16.081
G1 F560.7 X52.863 Y42.07 E16.08881
G1 F495.9 X52.89 Y42.342 E16.09761
G0 F6000 X53.258 Y41.29
G1 F674.2 X53.192 Y41.328 E16.09941
G1 X53.17 Y41.29 E16.10045
G1 X53.235 Y41.252 E16.10224
G1 F1500 E12.60224
G0 F6000 X58.287 Y36.26
G1 F1500 E16.10224
G1 F674.2 X58.221 Y36.298 E16.10404
G1 X58.199 Y36.26 E16.10508
G1 X58.264 Y36.222 E16.10686
G1 F1500 E12.60686
G0 F6000 X66.132 Y41.516
G1 F1500 E16.10686
G1 F600 X66.132 Y36.682 E16.23549
G1 X61.367 Y36.683 E16.36227
G1 X66.035 Y41.351 E16.53793
G1 X66.132 Y41.516 E16.54302
G1 F1500 E13.04302
G0 F6000 X66.132 Y49.179
G1 F1500 E16.54302
G1 F600 X66.132 Y43.168 E16.70296
G1 X66.035 Y43.333 E16.70806
G1 X63.427 Y45.939 E16.80616
G1 X63.071 Y46.118 E16.81676
G1 X62.892 Y46.474 E16.82736
G1 X60.285 Y49.081 E16.92546
G1 X60.115 Y49.18 E16.9307
G1 X66.132 Y49.179 E17.0908
G1 F1500 E13.5908
G0 F6000 X58.474 Y49.18
G1 F1500 E17.0908
G1 F600 X58.305 Y49.081 E17.09601
G1 X53.636 Y44.414 E17.27166
G1 X53.636 Y49.179 E17.39845
G1 X58.474 Y49.18 E17.52718
G1 F1500 E14.02718
G0 F6000 X66.532 Y49.579
G1 F1500 E17.52718
G1 F600 X66.532 Y43.373 E17.69231
G1 F588.2 X66.524 Y43.101 E17.6997
G1 F563.4 X66.515 Y42.829 E17.70741
G1 F541.8 X66.506 Y42.557 E17.71543
G1 F531 X66.506 Y42.126 E17.72839
G1 F541.8 X66.514 Y41.854 E17.73641
G1 F563.4 X66.523 Y41.582 E17.74412
G1 F588.2 X66.532 Y41.31 E17.7515
G1 F600 X66.532 Y36.282 E17.88529
G1 X60.401 Y36.283 E18.04842
G1 X65.752 Y41.634 E18.24978
G1 F591.1 X65.904 Y41.874 E18.25745
G1 F572.8 X66.057 Y42.114 E18.26539
G1 F563.4 X66.057 Y42.569 E18.27828
G1 F572.8 X65.905 Y42.809 E18.2862
G1 F591.1 X65.752 Y43.05 E18.29391
G1 F600 X63.272 Y45.528 E18.38719
G1 X63.004 Y45.72 E18.39596
G1 X62.744 Y45.791 E18.40313
G1 X62.673 Y46.051 E18.41031
G1 X62.481 Y46.32 E18.4191
G1 X60.003 Y48.799 E18.51236
G1 F591.1 X59.762 Y48.951 E18.52006
G1 F571.4 X59.52 Y49.104 E18.52806
