;FLAVOR:Marlin
;TIME:1520
;Filament used: 0.417083m
;Layer height: 0.16
;MINX:42.937
;MINY:128.088
;MINZ:0.16
;MAXX:97.045
;MAXY:165.387
;MAXZ:10.56
;Generated with Cura_SteamEngine main
M82 ;absolute extrusion mode
; Ender 3 Custom Start G-code
G92 E0 ; Reset Extruder
G28 ; Home all axes
M104 S120 ; Start heating up the nozzle most of the way
M190 S68.0 ; Start heating the bed, wait until target temperature reached
M109 S250.0 ; Finish heating the nozzle
G1 Z2.0 F3000 ; Move Z Axis up little to prevent scratching of Heat Bed
G1 X0.1 Y20 Z0.3 F5000.0 ; Move to start position
G1 X0.1 Y200.0 Z0.3 F1500.0 E15 ; Draw the first line
G1 X0.4 Y200.0 Z0.3 F5000.0 ; Move to side a little
G1 X0.4 Y20 Z0.3 F1500.0 E30 ; Draw the second line
G92 E0 ; Reset Extruder
G1 Z2.0 F3000 ; Move Z Axis up little to prevent scratching of Heat Bed
G1 X5 Y20 Z0.3 F5000.0 ; Move over to prevent blob squish
G92 E0
G92 E0
G1 F1500 E-6.5
;LAYER_COUNT:66
;LAYER:0
M107
G0 F6000 X50.837 Y129.934 Z0.16
G0 X43.722 Y139.262
;TYPE:SKIRT
G1 F1500 E0
G1 F900 X43.922 Y138.195 E0.02889
G1 X44.134 Y137.281 E0.05385
G1 X44.423 Y136.389 E0.0788
G1 X44.787 Y135.524 E0.10377
G1 X45.223 Y134.694 E0.12872
G1 X45.728 Y133.904 E0.15367
G1 X46.299 Y133.16 E0.17862
G1 X46.931 Y132.467 E0.20358
G1 X47.62 Y131.83 E0.22854
G1 X48.36 Y131.255 E0.25348
G1 X49.147 Y130.744 E0.27845
G1 X49.975 Y130.303 E0.30341
G1 X50.837 Y129.934 E0.32836
G1 X51.727 Y129.639 E0.35331
G1 X52.867 Y129.38 E0.38441
G1 X53.338 Y129.299 E0.39713
G1 X55.886 Y128.824 E0.46609
G1 X56.838 Y128.617 E0.49202
G1 X58.256 Y128.325 E0.53054
G1 X59.182 Y128.175 E0.5555
G1 X60.291 Y128.101 E0.58507
G1 X61.01 Y128.09 E0.60421
G1 X74.163 Y128.088 E0.95418
G1 X75.05 Y128.1 E0.97779
G1 X75.986 Y128.155 E1.00273
G1 X76.915 Y128.289 E1.02771
G1 X77.828 Y128.501 E1.05265
G1 X78.394 Y128.675 E1.0684
G1 X79.577 Y129.074 E1.10162
G1 X82.053 Y129.869 E1.17082
G1 X84.476 Y130.573 E1.23796
G1 X86.922 Y131.209 E1.3052
G1 X88.356 Y131.555 E1.34445
G1 X89.258 Y131.814 E1.36942
G1 X90.134 Y132.148 E1.39437
G1 X90.759 Y132.441 E1.41274
G1 X91.019 Y132.573 E1.4205
G1 X91.836 Y133.032 E1.44543
G1 X92.611 Y133.56 E1.47038
G1 X93.339 Y134.152 E1.49535
G1 X94.013 Y134.804 E1.5203
G1 X94.63 Y135.511 E1.54527
G1 X95.184 Y136.267 E1.57021
G1 X95.671 Y137.069 E1.59517
G1 X96.089 Y137.908 E1.62012
G1 X96.433 Y138.781 E1.64508
G1 X96.702 Y139.679 E1.67003
G1 X96.893 Y140.597 E1.69498
G1 X97.006 Y141.529 E1.71996
G1 X97.037 Y142.17 E1.73703
G1 X97.045 Y142.586 E1.7481
G1 X97.023 Y143.523 E1.77304
G1 X96.94 Y144.326 E1.79452
G1 X96.612 Y146.664 E1.85734
G1 X96.323 Y149.196 E1.92515
G1 X96.1 Y151.808 E1.9949
G1 X96.02 Y152.931 E2.02486
G1 X95.914 Y153.863 E2.04982
G1 X95.728 Y154.783 E2.07479
G1 X95.465 Y155.683 E2.09974
G1 X95.126 Y156.557 E2.12468
G1 X94.714 Y157.4 E2.14965
G1 X94.232 Y158.204 E2.17459
G1 X93.682 Y158.964 E2.19956
G1 X93.07 Y159.675 E2.22452
G1 X92.4 Y160.331 E2.24947
G1 X91.676 Y160.928 E2.27444
G1 X90.905 Y161.46 E2.29936
G1 X90.09 Y161.925 E2.32433
G1 X89.239 Y162.319 E2.34928
G1 X88.357 Y162.639 E2.37425
G1 X87.452 Y162.883 E2.39919
G1 X86.927 Y162.987 E2.41343
G1 X86.271 Y163.101 E2.43114
G1 X83.686 Y163.585 E2.50112
G1 X81.204 Y164.123 E2.5687
G1 X78.717 Y164.735 E2.63684
G1 X77.98 Y164.932 E2.65714
G1 X77.477 Y165.054 E2.67091
G1 X77.136 Y165.128 E2.6802
G1 X76.212 Y165.287 E2.70515
G1 X74.966 Y165.377 E2.73839
G1 X74.292 Y165.387 E2.75632
G1 X60.974 Y165.386 E3.11069
G1 X60.264 Y165.375 E3.12958
G1 X59.353 Y165.323 E3.15386
G1 X58.381 Y165.227 E3.17985
G1 X57.517 Y165.129 E3.20299
G1 X55.027 Y164.917 E3.26948
G1 X54.349 Y164.878 E3.28755
G1 X53.178 Y164.796 E3.31879
G1 X52.246 Y164.691 E3.34374
G1 X51.326 Y164.506 E3.36871
G1 X50.426 Y164.244 E3.39365
G1 X49.551 Y163.907 E3.4186
G1 X48.708 Y163.496 E3.44356
G1 X47.903 Y163.014 E3.46852
G1 X47.142 Y162.466 E3.49347
G1 X46.43 Y161.855 E3.51844
G1 X45.773 Y161.186 E3.54339
G1 X45.176 Y160.463 E3.56834
G1 X44.642 Y159.691 E3.59331
G1 X44.176 Y158.878 E3.61825
G1 X43.781 Y158.027 E3.64321
G1 X43.46 Y157.146 E3.66816
G1 X43.215 Y156.241 E3.69311
G1 X43.048 Y155.318 E3.71807
G1 X42.951 Y154.14 E3.74952
G1 X42.937 Y153.512 E3.76623
G1 X42.937 Y144.748 E3.99942
G1 X42.948 Y144.04 E4.01826
G1 X43.003 Y143.104 E4.04321
G1 X43.163 Y142.042 E4.07179
G1 X43.722 Y139.262 E4.14724
G1 F1500 E-2.35276
G0 F6000 X43.737 Y144.761
G1 F1500 E4.14724
G1 F900 X43.748 Y144.053 E4.16608
G1 X43.802 Y143.151 E4.19012
G1 X43.947 Y142.2 E4.21572
G1 X44.505 Y139.425 E4.29104
G1 X44.708 Y138.342 E4.32036
G1 X44.914 Y137.462 E4.3444
G1 X45.196 Y136.605 E4.36841
G1 X45.553 Y135.775 E4.39245
G1 X45.983 Y134.981 E4.41648
G1 X46.48 Y134.227 E4.44051
G1 X47.043 Y133.52 E4.46455
G1 X47.666 Y132.866 E4.48859
G1 X48.344 Y132.27 E4.51261
G1 X49.072 Y131.736 E4.53663
G1 X49.845 Y131.268 E4.56067
G1 X50.656 Y130.871 E4.5847
G1 X51.498 Y130.547 E4.60871
G1 X52.367 Y130.298 E4.63276
G1 X53.003 Y130.168 E4.65003
G1 X53.464 Y130.089 E4.66248
G1 X56.078 Y129.602 E4.73323
G1 X56.876 Y129.427 E4.75496
G1 X58.418 Y129.109 E4.79686
G1 X59.309 Y128.966 E4.82087
G1 X60.304 Y128.9 E4.8474
G1 X60.841 Y128.891 E4.86169
G1 X74.163 Y128.888 E5.21617
G1 X75.038 Y128.9 E5.23945
G1 X75.939 Y128.954 E5.26347
G1 X76.832 Y129.087 E5.28749
G1 X78.139 Y129.433 E5.32346
G1 X79.372 Y129.848 E5.35808
G1 X81.805 Y130.63 E5.42608
G1 X84.252 Y131.341 E5.49388
G1 X86.753 Y131.992 E5.56265
G1 X88.169 Y132.333 E5.6014
G1 X89.036 Y132.583 E5.62541
G1 X89.879 Y132.909 E5.64946
G1 X90.396 Y133.154 E5.66468
G1 X90.656 Y133.286 E5.67244
G1 X91.443 Y133.73 E5.69648
G1 X92.187 Y134.242 E5.72052
G1 X92.883 Y134.818 E5.74455
G1 X93.525 Y135.453 E5.76858
G1 X94.108 Y136.142 E5.7926
G1 X94.629 Y136.88 E5.81663
G1 X95.081 Y137.662 E5.84067
G1 X95.463 Y138.48 E5.86469
G1 X95.772 Y139.329 E5.88873
G1 X96.003 Y140.202 E5.91276
G1 X96.157 Y141.092 E5.93679
G1 X96.237 Y142.185 E5.96595
G1 X96.245 Y142.601 E5.97702
G1 X96.222 Y143.504 E6.00106
G1 X96.148 Y144.214 E6.02005
G1 X95.817 Y146.57 E6.08336
G1 X95.527 Y149.11 E6.15138
G1 X95.302 Y151.75 E6.22188
G1 X95.222 Y152.875 E6.25189
G1 X95.118 Y153.772 E6.27592
G1 X94.935 Y154.656 E6.29994
G1 X94.675 Y155.521 E6.32397
G1 X94.339 Y156.359 E6.34799
G1 X93.93 Y157.164 E6.37202
G1 X93.451 Y157.93 E6.39606
G1 X92.907 Y158.651 E6.42009
G1 X92.301 Y159.321 E6.44413
G1 X91.638 Y159.934 E6.46815
G1 X90.924 Y160.486 E6.49217
G1 X90.163 Y160.974 E6.51622
G1 X89.363 Y161.391 E6.54023
G1 X88.528 Y161.737 E6.56428
G1 X87.667 Y162.007 E6.58829
G1 X86.791 Y162.199 E6.61215
G1 X86.059 Y162.326 E6.63192
G1 X83.547 Y162.797 E6.69992
G1 X81.021 Y163.344 E6.76869
G1 X78.526 Y163.958 E6.83706
G1 X77.774 Y164.159 E6.85777
G1 X76.966 Y164.346 E6.87984
G1 X76.076 Y164.498 E6.90386
G1 X74.954 Y164.577 E6.93379
G1 X74.28 Y164.587 E6.95173
G1 X60.986 Y164.586 E7.30545
G1 X60.276 Y164.575 E7.32435
G1 X59.431 Y164.527 E7.34687
G1 X58.459 Y164.431 E7.37286
G1 X57.609 Y164.335 E7.39562
G1 X55.102 Y164.121 E7.46257
G1 X54.538 Y164.089 E7.4776
G1 X53.233 Y163.998 E7.51241
G1 X52.336 Y163.895 E7.53643
G1 X51.452 Y163.713 E7.56044
G1 X50.587 Y163.454 E7.58447
G1 X49.748 Y163.119 E7.60851
G1 X48.942 Y162.711 E7.63255
G1 X48.176 Y162.234 E7.65656
G1 X47.454 Y161.69 E7.68061
G1 X46.784 Y161.085 E7.70463
G1 X46.169 Y160.423 E7.72867
G1 X45.616 Y159.71 E7.75268
G1 X45.128 Y158.95 E7.77671
G1 X44.709 Y158.15 E7.80074
G1 X44.363 Y157.316 E7.82477
G1 X44.091 Y156.454 E7.84882
G1 X43.897 Y155.572 E7.87285
G1 X43.782 Y154.677 E7.89686
G1 X43.75 Y154.117 E7.91178
G1 X43.737 Y153.512 E7.92788
G1 X43.737 Y144.761 E8.16073
G0 F6000 X43.337 Y144.754
G1 F900 X43.348 Y144.046 E8.17957
G1 X43.403 Y143.127 E8.20407
G1 X43.555 Y142.121 E8.23114
G1 X44.112 Y139.35 E8.30635
G1 X44.315 Y138.268 E8.33564
G1 X44.524 Y137.372 E8.36012
G1 X44.81 Y136.496 E8.38464
G1 X45.17 Y135.649 E8.40913
G1 X45.603 Y134.837 E8.43361
G1 X46.104 Y134.065 E8.4581
G1 X46.671 Y133.339 E8.48261
G1 X47.299 Y132.665 E8.50712
G1 X47.982 Y132.049 E8.5316
G1 X48.717 Y131.494 E8.5561
G1 X49.497 Y131.004 E8.58061
G1 X50.316 Y130.585 E8.60509
G1 X51.169 Y130.238 E8.62959
G1 X52.048 Y129.966 E8.65408
G1 X52.935 Y129.774 E8.67823
G1 X53.401 Y129.694 E8.69081
G1 X55.979 Y129.214 E8.76058
G1 X56.79 Y129.036 E8.78267
G1 X58.337 Y128.717 E8.8247
G1 X59.246 Y128.57 E8.8492
G1 X60.297 Y128.5 E8.87723
G1 X60.834 Y128.491 E8.89152
G1 X74.163 Y128.488 E9.24618
G1 X75.044 Y128.5 E9.26962
G1 X75.963 Y128.554 E9.29412
G1 X76.874 Y128.688 E9.31862
G1 X77.77 Y128.9 E9.34312
G1 X78.267 Y129.054 E9.35696
G1 X79.475 Y129.461 E9.39088
G1 X81.934 Y130.251 E9.4596
G1 X84.36 Y130.956 E9.52683
G1 X86.85 Y131.604 E9.59529
G1 X88.262 Y131.944 E9.63393
G1 X89.147 Y132.198 E9.65843
G1 X90.007 Y132.529 E9.68295
G1 X90.578 Y132.797 E9.69973
G1 X90.838 Y132.929 E9.70749
G1 X91.64 Y133.381 E9.73199
G1 X92.399 Y133.901 E9.75647
G1 X93.111 Y134.485 E9.78097
G1 X93.77 Y135.129 E9.80549
G1 X94.37 Y135.827 E9.82998
G1 X94.907 Y136.574 E9.85446
G1 X95.377 Y137.366 E9.87896
G1 X95.777 Y138.195 E9.90346
G1 X96.104 Y139.056 E9.92796
G1 X96.355 Y139.942 E9.95246
G1 X96.527 Y140.846 E9.97695
G1 X96.637 Y142.177 E10.01249
G1 X96.645 Y142.593 E10.02356
G1 X96.623 Y143.514 E10.04807
G1 X96.544 Y144.27 E10.06829
G1 X96.217 Y146.598 E10.13085
G1 X95.925 Y149.153 E10.19927
G1 X95.699 Y151.815 E10.27036
G1 X95.621 Y152.903 E10.29938
G1 X95.516 Y153.818 E10.32389
G1 X95.332 Y154.72 E10.34838
G1 X95.07 Y155.602 E10.37286
G1 X94.732 Y156.459 E10.39738
G1 X94.322 Y157.283 E10.42187
G1 X93.841 Y158.068 E10.44636
G1 X93.295 Y158.809 E10.47085
G1 X92.686 Y159.499 E10.49534
G1 X92.019 Y160.134 E10.51985
G1 X91.3 Y160.709 E10.54434
G1 X90.533 Y161.219 E10.56885
G1 X89.726 Y161.661 E10.59333
G1 X88.883 Y162.031 E10.61783
G1 X88.011 Y162.327 E10.64233
G1 X86.859 Y162.593 E10.67379
G1 X86.207 Y162.706 E10.6914
G1 X83.592 Y163.196 E10.76219
G1 X81.104 Y163.735 E10.82993
G1 X78.664 Y164.336 E10.89679
G1 X77.877 Y164.546 E10.91846
G1 X77.051 Y164.737 E10.94102
G1 X76.144 Y164.893 E10.96551
G1 X74.96 Y164.977 E10.99709
G1 X74.286 Y164.987 E11.01503
G1 X60.98 Y164.986 E11.36908
G1 X60.27 Y164.975 E11.38797
G1 X59.392 Y164.925 E11.41137
G1 X58.26 Y164.812 E11.44164
G1 X57.567 Y164.733 E11.4602
G1 X55.046 Y164.518 E11.52752
G1 X53.206 Y164.397 E11.57659
G1 X52.291 Y164.293 E11.60109
G1 X51.389 Y164.11 E11.62558
G1 X50.506 Y163.849 E11.65008
G1 X49.649 Y163.513 E11.67457
G1 X48.824 Y163.103 E11.69909
G1 X48.038 Y162.624 E11.72358
G1 X47.297 Y162.078 E11.74807
G1 X46.605 Y161.47 E11.77258
G1 X45.97 Y160.804 E11.79706
G1 X45.394 Y160.086 E11.82156
G1 X44.883 Y159.32 E11.84606
G1 X44.44 Y158.513 E11.87055
G1 X44.069 Y157.67 E11.89506
G1 X43.772 Y156.799 E11.91954
G1 X43.552 Y155.905 E11.94404
G1 X43.411 Y154.995 E11.96854
G1 X43.35 Y154.129 E11.99164
G1 X43.337 Y153.512 E12.00806
G1 X43.337 Y144.754 E12.2411
G1 F1500 E5.7411
;MESH:void_switch-v23.stl
G0 F6000 X57.263 Y145.992
;TYPE:WALL-INNER
G1 F1500 E12.2411
G1 F900 X57.263 Y144.962 E12.2685
G1 X56.748 Y145.112 E12.28278
G1 X55.786 Y145.112 E12.30837
G1 X55.336 Y145.011 E12.32065
G1 X55.336 Y145.992 E12.34675
G1 X57.263 Y145.992 E12.39802
G0 F6000 X57.663 Y146.518
G1 F900 X57.663 Y144.663 E12.44738
G1 X57.433 Y144.61 E12.45366
G1 X57.252 Y144.481 E12.45957
G1 X57.07 Y144.61 E12.46551
G1 X56.731 Y144.707 E12.47489
G1 X55.795 Y144.712 E12.4998
G1 X55.408 Y144.625 E12.51035
G1 X55.271 Y144.536 E12.5147
G1 X55.134 Y144.625 E12.51905
G1 X54.936 Y144.667 E12.52443
G1 X54.936 Y146.518 E12.57368
G1 X55.316 Y146.392 E12.58434
G1 X57.283 Y146.392 E12.63667
G1 X57.663 Y146.518 E12.64733
G0 F6000 X57.973 Y147.392
G1 F672.9 X58.018 Y147.047 E12.65971
G1 F809 X58.063 Y146.702 E12.67001
G1 F900 X58.063 Y144.376 E12.7319
G1 X58.026 Y144.312 E12.73386
G1 X57.876 Y144.312 E12.73786
G1 X57.61 Y144.251 E12.74512
G1 X57.454 Y144.14 E12.75021
G1 F843.1 X57.251 Y143.766 E12.7623
G1 X57.05 Y144.14 E12.77436
G1 F900 X56.893 Y144.251 E12.77948
G1 X56.69 Y144.309 E12.78509
G1 X55.804 Y144.312 E12.80867
G1 X55.572 Y144.26 E12.81499
G1 X55.416 Y144.159 E12.81994
G1 X55.271 Y143.866 E12.82864
G1 X55.126 Y144.159 E12.83734
G1 X54.97 Y144.26 E12.84228
G1 X54.724 Y144.312 E12.84897
G1 X54.573 Y144.312 E12.85299
G1 X54.536 Y144.376 E12.85496
G1 X54.536 Y146.702 E12.91685
G1 F809 X54.581 Y147.047 E12.92715
G1 F672.9 X54.626 Y147.392 E12.93953
G1 X54.79 Y147.152 E12.94987
G1 F809 X54.955 Y146.911 E12.95852
G1 F900 X55.316 Y146.792 E12.96863
G1 X57.283 Y146.792 E13.02097
G1 X57.644 Y146.911 E13.03108
G1 F809 X57.808 Y147.151 E13.03969
G1 F672.9 X57.973 Y147.392 E13.05008
G1 F1500 E6.55008
G0 F6000 X58.463 Y153.632
;TYPE:WALL-OUTER
G1 F1500 E13.05008
G1 F900 X58.463 Y144.268 E13.29924
G1 X58.256 Y143.912 E13.3102
G1 X57.876 Y143.912 E13.32031
G1 X57.735 Y143.855 E13.32436
G1 X57.676 Y143.73 E13.32803
G1 X57.675 Y140.412 E13.41632
G1 X56.827 Y140.412 E13.43888
G1 X56.827 Y143.73 E13.52717
G1 X56.768 Y143.855 E13.53085
G1 X56.648 Y143.911 E13.53437
G1 X55.757 Y143.912 E13.55808
G1 F759.5 X55.544 Y143.736 E13.56679
G1 F656.9 X55.544 Y140.485 E13.6853
G1 F658.1 X54.998 Y140.485 E13.70517
G1 F656.9 X54.998 Y143.736 E13.82368
G1 F759.5 X54.785 Y143.912 E13.83239
G1 F900 X54.343 Y143.912 E13.84415
G1 X54.136 Y144.268 E13.85511
G1 X54.136 Y153.632 E14.10427
G1 X55.116 Y153.632 E14.13034
G1 X55.116 Y147.392 E14.29638
G1 X55.195 Y147.231 E14.30115
G1 X55.316 Y147.192 E14.30453
G1 X57.283 Y147.192 E14.35687
G1 X57.404 Y147.231 E14.36025
G1 X57.483 Y147.392 E14.36502
G1 X57.483 Y153.632 E14.53106
G1 X58.463 Y153.632 E14.55713
G0 F6000 X57.973 Y153.142
;TYPE:WALL-INNER
G1 F620.7 X57.973 Y147.392 E14.77898
G1 F1500 E8.27898
G0 F6000 X54.626 Y147.392
G1 F1500 E14.77898
G1 F620.7 X54.626 Y153.142 E15.00082
G1 F1500 E8.50082
G0 F6000 X57.251 Y143.766
G1 F1500 E15.00082
G1 F794.7 X57.251 Y142.301 E15.04497
G1 F798.2 X57.251 Y140.836 E15.08892
G1 F1500 E8.58892
G0 F6000 X56.82 Y145.549
;TYPE:SKIN
G1 F1500 E15.08892
G1 F639.4 X55.776 Y145.552 E15.12802
G1 F1500 E8.62802
G0 F6000 X61.09 Y141.114
;TYPE:WALL-INNER
G1 F1500 E15.12802
G1 F649.8 X62.036 Y140.168 E15.17732
G1 X61.09 Y140.168 E15.21218
G1 X61.09 Y141.114 E15.24705
G1 F1500 E8.74705
G0 F6000 X60.689 Y146.15
G1 F1500 E15.24705
G1 F653.4 X60.888 Y145.673 E15.26599
G1 F655.7 X61.35 Y145.211 E15.28985
G1 F674.2 X61.096 Y144.957 E15.30261
G1 F814.5 X60.957 Y144.539 E15.31556
G1 F989 X60.955 Y143.367 E15.34394
G1 F997.2 X60.952 Y142.195 E15.37208
G1 F947.4 X61.107 Y141.771 E15.3835
G1 F900 X62.693 Y140.185 E15.44318
G1 F939.9 X63.017 Y140.035 E15.45227
G1 F989 X64.189 Y140.033 E15.48065
G1 F997.2 X65.361 Y140.03 E15.5088
G1 F900 X65.617 Y140.099 E15.51585
G1 F750 X65.875 Y140.169 E15.52439
G1 F672.9 X66.133 Y140.427 E15.53737
G1 F654.5 X66.594 Y139.966 E15.56122
G1 F646.3 X66.955 Y139.772 E15.57641
G1 F642.9 X66.544 Y139.768 E15.59172
G1 F651 X66.133 Y139.764 E15.60684
G1 F692.3 X65.989 Y139.735 E15.61192
G1 F787.7 X65.675 Y139.703 E15.62151
G1 F918.4 X65.36 Y139.67 E15.62977
G1 F997.2 X64.173 Y139.671 E15.65828
G1 F989 X62.986 Y139.672 E15.68702
G1 F939.9 X62.488 Y139.69 E15.69972
G1 F900 X60.612 Y139.69 E15.74963
G1 X60.612 Y141.566 E15.79955
G1 F923.1 X60.602 Y141.881 E15.80773
G1 F973 X60.592 Y142.196 E15.81548
G1 F997.2 X60.593 Y143.383 E15.84399
G1 F989 X60.595 Y144.57 E15.87273
G1 F906.8 X60.626 Y144.818 E15.87933
G1 F784.3 X60.657 Y145.067 E15.88699
G1 F693.6 X60.687 Y145.211 E15.89207
G1 F653.4 X60.689 Y146.15 E15.92648
G1 F1500 E9.42648
G0 F6000 X66.323 Y152.988
G1 F1500 E15.92648
G1 F900 X66.081 Y152.847 E15.93394
G1 X61.412 Y148.177 E16.10965
G1 X61.412 Y152.987 E16.23763
G1 X66.323 Y152.988 E16.36831
G1 F1500 E9.86831
G0 F6000 X73.909 Y152.988
G1 F1500 E16.36831
G1 F900 X73.909 Y146.902 E16.53024
G1 X73.769 Y147.141 E16.53761
G1 X71.332 Y149.576 E16.62928
G1 X71.131 Y149.743 E16.63623
G1 X70.817 Y149.895 E16.64551
G1 X70.665 Y150.21 E16.65482
G1 X70.499 Y150.411 E16.66176
G1 X68.063 Y152.847 E16.75342
G1 X67.82 Y152.988 E16.7609
G1 X73.909 Y152.988 E16.92291
G1 F1500 E10.42291
G0 F6000 X73.909 Y145.397
G1 F1500 E16.92291
G1 F900 X73.909 Y140.489 E17.05351
