;FLAVOR:Marlin
;TIME:2050
;Filament used: 0.413625m
;Layer height: 0.16
;MINX:10.731
;MINY:123.146
;MINZ:0.16
;MAXX:64.767
;MAXY:160.446
;MAXZ:10.08
;Generated with Cura_SteamEngine main
M82 ;absolute extrusion mode
; Ender 3 Custom Start G-code
G92 E0 ; Reset Extruder
G28 ; Home all axes
M104 S120 ; Start heating up the nozzle most of the way
M190 S68.0 ; Start heating the bed, wait until target temperature reached
M109 S248.0 ; Finish heating the nozzle
G1 Z2.0 F3000 ; Move Z Axis up little to prevent scratching of Heat Bed
G1 X0.1 Y20 Z0.3 F5000.0 ; Move to start position
G1 X0.1 Y200.0 Z0.3 F1500.0 E15 ; Draw the first line
G1 X0.4 Y200.0 Z0.3 F5000.0 ; Move to side a little
G1 X0.4 Y20 Z0.3 F1500.0 E30 ; Draw the second line
G92 E0 ; Reset Extruder
G1 Z2.0 F3000 ; Move Z Axis up little to prevent scratching of Heat Bed
G1 X5 Y20 Z0.3 F5000.0 ; Move over to prevent blob squish
G92 E0
G92 E0
G1 F1500 E-6.5
;LAYER_COUNT:63
;LAYER:0
M107
G0 F6000 X20.397 Y124.028 Z0.16
G0 X11.333 Y134.715
;TYPE:SKIRT
G1 F1500 E0
G1 F600 X11.5 Y133.745 E0.02619
G1 X11.677 Y132.798 E0.05182
G1 X11.889 Y131.885 E0.07676
G1 X12.178 Y130.992 E0.10174
G1 X12.542 Y130.128 E0.12668
G1 X12.979 Y129.298 E0.15164
G1 X13.484 Y128.508 E0.17659
G1 X14.055 Y127.764 E0.20155
G1 X14.687 Y127.071 E0.2265
G1 X15.376 Y126.435 E0.25145
G1 X16.117 Y125.86 E0.27641
G1 X16.904 Y125.35 E0.30136
G1 X17.732 Y124.908 E0.32633
G1 X18.594 Y124.539 E0.35128
G1 X19.484 Y124.245 E0.37622
G1 X20.397 Y124.028 E0.40119
G1 X21.388 Y123.882 E0.42785
G1 X23.834 Y123.636 E0.49326
G1 X26.81 Y123.249 E0.57311
G1 X28.045 Y123.159 E0.60606
G1 X28.764 Y123.148 E0.62519
G1 X41.917 Y123.146 E0.97517
G1 X42.803 Y123.158 E0.99875
G1 X43.74 Y123.213 E1.02372
G1 X44.668 Y123.347 E1.04867
G1 X45.581 Y123.559 E1.07361
G1 X46.146 Y123.733 E1.08934
G1 X46.798 Y123.953 E1.10765
G1 X49.296 Y124.755 E1.17746
G1 X51.702 Y125.454 E1.24412
G1 X54.143 Y126.089 E1.31124
G1 X55.305 Y126.356 E1.34296
G1 X55.949 Y126.513 E1.3606
G1 X56.542 Y126.672 E1.37693
G1 X57.435 Y126.958 E1.40188
G1 X58.3 Y127.319 E1.42682
G1 X59.132 Y127.753 E1.45179
G1 X59.923 Y128.256 E1.47673
G1 X60.669 Y128.825 E1.5017
G1 X61.364 Y129.455 E1.52666
G1 X62.002 Y130.142 E1.5516
G1 X62.449 Y130.698 E1.57059
G1 X62.993 Y131.462 E1.59554
G1 X63.469 Y132.27 E1.6205
G1 X63.875 Y133.115 E1.64544
G1 X64.208 Y133.992 E1.6704
G1 X64.465 Y134.894 E1.69536
G1 X64.644 Y135.815 E1.72032
G1 X64.743 Y136.747 E1.74526
G1 X64.766 Y137.422 E1.76323
G1 X64.767 Y137.804 E1.77339
G1 X64.729 Y138.741 E1.79835
G1 X64.658 Y139.377 E1.81537
G1 X64.332 Y141.68 E1.87726
G1 X64.044 Y144.195 E1.94462
G1 X63.815 Y146.882 E2.01638
G1 X63.74 Y147.936 E2.04449
G1 X63.634 Y148.867 E2.06942
G1 X63.449 Y149.787 E2.09439
G1 X63.186 Y150.687 E2.11934
G1 X62.848 Y151.562 E2.1443
G1 X62.436 Y152.405 E2.16927
G1 X61.954 Y153.209 E2.19421
G1 X61.405 Y153.97 E2.21918
G1 X60.794 Y154.681 E2.24412
G1 X60.124 Y155.337 E2.26907
G1 X59.4 Y155.934 E2.29404
G1 X58.629 Y156.467 E2.31898
G1 X57.814 Y156.932 E2.34395
G1 X56.963 Y157.326 E2.3689
G1 X56.082 Y157.647 E2.39385
G1 X54.774 Y157.974 E2.42972
G1 X51.799 Y158.526 E2.51023
G1 X49.376 Y159.049 E2.57619
G1 X46.921 Y159.656 E2.64348
G1 X45.784 Y159.966 E2.67484
G1 X45.331 Y160.082 E2.68728
G1 X44.413 Y160.276 E2.71225
G1 X43.482 Y160.391 E2.73721
G1 X42.818 Y160.424 E2.7549
G1 X41.582 Y160.446 E2.78779
G1 X28.728 Y160.444 E3.12981
G1 X28.018 Y160.433 E3.1487
G1 X27.105 Y160.381 E3.17304
G1 X26.023 Y160.274 E3.20197
G1 X25.288 Y160.191 E3.22165
G1 X22.748 Y159.977 E3.28947
G1 X20.975 Y159.862 E3.33675
G1 X20.043 Y159.757 E3.3617
G1 X19.123 Y159.573 E3.38667
G1 X18.222 Y159.311 E3.41163
G1 X17.347 Y158.974 E3.43658
G1 X16.504 Y158.563 E3.46154
G1 X15.699 Y158.082 E3.48649
G1 X14.938 Y157.534 E3.51144
G1 X14.226 Y156.923 E3.53641
G1 X13.569 Y156.254 E3.56136
G1 X12.972 Y155.531 E3.5863
G1 X12.438 Y154.76 E3.61126
G1 X11.972 Y153.946 E3.63622
G1 X11.576 Y153.096 E3.66117
G1 X11.255 Y152.215 E3.68612
G1 X11.01 Y151.31 E3.71106
G1 X10.842 Y150.387 E3.73603
G1 X10.744 Y149.193 E3.7679
G1 X10.731 Y148.565 E3.78462
G1 X10.731 Y139.311 E4.03085
G1 X10.742 Y138.639 E4.04873
G1 X10.798 Y137.703 E4.07368
G1 X10.926 Y136.812 E4.09763
G1 X11.091 Y135.926 E4.12161
G1 X11.333 Y134.715 E4.15447
G1 F1500 E-2.34553
G0 F6000 X11.131 Y139.318
G1 F1500 E4.15447
G1 F600 X11.142 Y138.646 E4.17236
G1 X11.197 Y137.727 E4.19685
G1 X11.319 Y136.885 E4.21949
G1 X11.483 Y136.004 E4.24333
G1 X11.733 Y134.755 E4.27723
G1 X11.924 Y133.65 E4.30706
G1 X12.07 Y132.872 E4.32813
G1 X12.279 Y131.975 E4.35263
G1 X12.565 Y131.1 E4.37713
G1 X12.926 Y130.253 E4.40163
G1 X13.359 Y129.441 E4.42611
G1 X13.86 Y128.669 E4.4506
G1 X14.427 Y127.943 E4.47511
G1 X15.055 Y127.27 E4.4996
G1 X15.739 Y126.653 E4.52411
G1 X16.473 Y126.099 E4.54858
G1 X17.253 Y125.61 E4.57308
G1 X18.073 Y125.19 E4.59759
G1 X18.926 Y124.843 E4.6221
G1 X19.806 Y124.572 E4.6466
G1 X20.706 Y124.378 E4.67109
G1 X21.428 Y124.28 E4.69048
G1 X23.888 Y124.033 E4.75627
G1 X26.861 Y123.646 E4.83604
G1 X28.051 Y123.558 E4.86779
G1 X28.588 Y123.549 E4.88208
G1 X41.917 Y123.546 E5.23674
G1 X42.797 Y123.558 E5.26016
G1 X43.716 Y123.612 E5.28465
G1 X44.627 Y123.746 E5.30915
G1 X45.523 Y123.958 E5.33365
G1 X46.018 Y124.112 E5.34745
G1 X46.675 Y124.333 E5.36589
G1 X49.177 Y125.137 E5.43582
G1 X51.586 Y125.837 E5.50257
G1 X54.066 Y126.482 E5.57075
G1 X55.215 Y126.746 E5.60212
G1 X56.126 Y126.972 E5.62709
G1 X56.436 Y127.057 E5.63565
G1 X57.312 Y127.339 E5.66013
G1 X58.161 Y127.696 E5.68464
G1 X58.976 Y128.125 E5.70915
G1 X59.75 Y128.623 E5.73363
G1 X60.478 Y129.187 E5.75814
G1 X61.155 Y129.811 E5.78264
G1 X62.06 Y130.841 E5.81912
G1 X62.666 Y131.694 E5.84696
G1 X63.132 Y132.488 E5.87146
G1 X63.528 Y133.319 E5.89595
G1 X63.849 Y134.182 E5.92045
G1 X64.095 Y135.069 E5.94494
G1 X64.263 Y135.974 E5.96943
G1 X64.351 Y136.891 E5.99395
G1 X64.366 Y137.423 E6.00811
G1 X64.367 Y137.805 E6.01827
G1 X64.329 Y138.725 E6.04277
G1 X64.262 Y139.321 E6.05873
G1 X63.937 Y141.615 E6.12038
G1 X63.647 Y144.152 E6.18832
G1 X63.412 Y146.903 E6.26179
G1 X63.341 Y147.907 E6.28857
G1 X63.237 Y148.822 E6.31307
G1 X63.053 Y149.724 E6.33757
G1 X62.791 Y150.607 E6.36208
G1 X62.454 Y151.464 E6.38658
G1 X62.044 Y152.288 E6.41107
G1 X61.564 Y153.073 E6.43555
G1 X61.017 Y153.814 E6.46006
G1 X60.409 Y154.505 E6.48455
G1 X59.742 Y155.14 E6.50905
G1 X59.023 Y155.715 E6.53355
G1 X58.257 Y156.226 E6.55805
G1 X57.45 Y156.668 E6.58253
G1 X56.607 Y157.038 E6.60703
G1 X55.735 Y157.334 E6.63153
G1 X54.701 Y157.58 E6.65981
G1 X51.746 Y158.128 E6.73978
G1 X49.293 Y158.658 E6.80655
G1 X46.798 Y159.274 E6.87494
G1 X45.685 Y159.579 E6.90564
G1 X45.232 Y159.695 E6.91808
G1 X44.331 Y159.884 E6.94258
G1 X43.417 Y159.995 E6.96708
G1 X42.81 Y160.024 E6.98325
G1 X41.582 Y160.046 E7.01593
G1 X28.734 Y160.044 E7.35779
G1 X28.024 Y160.033 E7.37668
G1 X27.145 Y159.983 E7.40011
G1 X26.063 Y159.876 E7.42904
G1 X25.294 Y159.79 E7.44963
G1 X22.802 Y159.579 E7.51617
G1 X22.02 Y159.534 E7.53702
G1 X21.002 Y159.463 E7.56417
G1 X20.088 Y159.359 E7.58865
G1 X19.185 Y159.177 E7.61316
G1 X18.302 Y158.916 E7.63766
G1 X17.445 Y158.58 E7.66215
G1 X16.621 Y158.171 E7.68663
G1 X15.834 Y157.692 E7.71114
G1 X15.093 Y157.146 E7.73563
G1 X14.402 Y156.538 E7.76012
G1 X13.766 Y155.872 E7.78462
G1 X13.19 Y155.154 E7.80912
G1 X12.678 Y154.388 E7.83363
G1 X12.235 Y153.581 E7.85813
G1 X11.864 Y152.739 E7.88261
G1 X11.567 Y151.868 E7.9071
G1 X11.347 Y150.974 E7.93159
G1 X11.205 Y150.064 E7.9561
G1 X11.144 Y149.182 E7.97962
G1 X11.131 Y148.565 E7.99605
G1 X11.131 Y139.318 E8.24209
G0 F6000 X11.531 Y139.324
G1 F600 X11.542 Y138.652 E8.25997
G1 X11.597 Y137.751 E8.28399
G1 X11.712 Y136.958 E8.30531
G1 X11.848 Y136.225 E8.32515
G1 X12.12 Y134.865 E8.36205
G1 X12.317 Y133.724 E8.39286
G1 X12.463 Y132.946 E8.41392
G1 X12.669 Y132.066 E8.43797
G1 X12.951 Y131.209 E8.46198
G1 X13.309 Y130.379 E8.48603
G1 X13.738 Y129.585 E8.51004
G1 X14.236 Y128.831 E8.53409
G1 X14.799 Y128.125 E8.55811
G1 X15.422 Y127.471 E8.58215
G1 X16.1 Y126.875 E8.60617
G1 X16.829 Y126.341 E8.63021
G1 X17.601 Y125.874 E8.65422
G1 X18.412 Y125.477 E8.67825
G1 X19.256 Y125.153 E8.7023
G1 X20.124 Y124.905 E8.72632
G1 X21.011 Y124.735 E8.75035
G1 X21.468 Y124.678 E8.76261
G1 X23.914 Y124.432 E8.82802
G1 X26.913 Y124.042 E8.90849
G1 X28.058 Y123.958 E8.93904
G1 X28.595 Y123.949 E8.95333
G1 X41.917 Y123.946 E9.3078
G1 X42.791 Y123.958 E9.33106
G1 X43.692 Y124.012 E9.35507
G1 X44.586 Y124.145 E9.37912
G1 X45.891 Y124.491 E9.41505
G1 X46.593 Y124.728 E9.43476
G1 X49.048 Y125.516 E9.50337
G1 X51.478 Y126.222 E9.5707
G1 X53.981 Y126.873 E9.63951
G1 X55.274 Y127.171 E9.67482
G1 X55.758 Y127.29 E9.68808
G1 X56.33 Y127.443 E9.70384
G1 X57.19 Y127.72 E9.72788
G1 X58.021 Y128.072 E9.75189
G1 X58.819 Y128.497 E9.77595
G1 X59.575 Y128.99 E9.79996
G1 X60.285 Y129.548 E9.82399
G1 X60.943 Y130.166 E9.84801
G1 X61.747 Y131.091 E9.88062
G1 X62.34 Y131.926 E9.90787
G1 X62.795 Y132.706 E9.9319
G1 X63.179 Y133.523 E9.95592
G1 X63.49 Y134.371 E9.97995
G1 X63.724 Y135.243 E10.00397
G1 X63.88 Y136.132 E10.02799
G1 X63.966 Y137.424 E10.06244
G1 X63.967 Y137.806 E10.07261
G1 X63.929 Y138.709 E10.09666
G1 X63.866 Y139.265 E10.11155
G1 X63.537 Y141.586 E10.17392
G1 X63.249 Y144.109 E10.24149
G1 X63.016 Y146.829 E10.31413
G1 X62.942 Y147.879 E10.34214
G1 X62.839 Y148.776 E10.36616
G1 X62.656 Y149.661 E10.39021
G1 X62.396 Y150.526 E10.41424
G1 X62.06 Y151.364 E10.43826
G1 X61.652 Y152.169 E10.46228
G1 X61.174 Y152.936 E10.48632
G1 X60.63 Y153.656 E10.51033
G1 X60.024 Y154.326 E10.53437
G1 X59.362 Y154.94 E10.5584
G1 X58.648 Y155.493 E10.58243
G1 X57.887 Y155.98 E10.60647
G1 X57.087 Y156.399 E10.6305
G1 X56.253 Y156.744 E10.65451
G1 X55.391 Y157.015 E10.67855
G1 X54.628 Y157.187 E10.69937
G1 X51.654 Y157.739 E10.77985
G1 X49.217 Y158.265 E10.84619
G1 X46.711 Y158.884 E10.91487
G1 X45.757 Y159.146 E10.9412
G1 X45.132 Y159.307 E10.95837
G1 X44.248 Y159.492 E10.9824
G1 X43.351 Y159.598 E11.00643
G1 X42.802 Y159.624 E11.02106
G1 X41.582 Y159.646 E11.05352
G1 X28.74 Y159.644 E11.39523
G1 X28.03 Y159.633 E11.41412
G1 X27.184 Y159.584 E11.43667
G1 X25.372 Y159.396 E11.48514
G1 X22.824 Y159.18 E11.55318
G1 X22.181 Y159.144 E11.57032
G1 X21.03 Y159.064 E11.60102
G1 X20.133 Y158.962 E11.62504
G1 X19.248 Y158.78 E11.64908
G1 X18.383 Y158.521 E11.6731
G1 X17.544 Y158.186 E11.69714
G1 X16.739 Y157.779 E11.72114
G1 X15.972 Y157.301 E11.74519
G1 X15.25 Y156.758 E11.76923
G1 X14.58 Y156.153 E11.79325
G1 X13.965 Y155.492 E11.81727
G1 X13.412 Y154.778 E11.8413
G1 X12.923 Y154.018 E11.86535
G1 X12.504 Y153.218 E11.88938
G1 X12.158 Y152.384 E11.9134
G1 X11.886 Y151.523 E11.93743
G1 X11.692 Y150.641 E11.96146
G1 X11.576 Y149.745 E11.9855
G1 X11.544 Y149.171 E12.0008
G1 X11.531 Y148.565 E12.01692
G1 X11.531 Y139.324 E12.26281
G1 F1500 E5.76281
;MESH:void_switch-v38.stl
G0 F6000 X21.065 Y139.324
G0 X22.15 Y139.324
G0 X24.892 Y140.362
;TYPE:WALL-INNER
G1 F1500 E12.26281
G1 F420.3 X24.892 Y139.693 E12.28822
G1 F421.8 X24.547 Y139.8 E12.30189
G1 F424 X23.508 Y139.8 E12.34101
G1 F424.8 X23.213 Y139.727 E12.35243
G1 X23.213 Y140.365 E12.37641
G1 F424 X24.053 Y140.364 E12.40804
G1 F421.8 X24.893 Y140.362 E12.43983
G0 F6000 X25.377 Y140.958
G1 F600 X25.377 Y139.259 E12.48504
G1 X25.174 Y139.21 E12.49059
G1 X25.006 Y139.085 E12.49617
G1 X24.837 Y139.21 E12.50176
G1 X24.486 Y139.318 E12.51153
G1 X23.528 Y139.318 E12.53702
G1 X23.149 Y139.225 E12.54741
G1 X23.025 Y139.141 E12.55139
G1 X22.901 Y139.225 E12.55538
G1 X22.73 Y139.263 E12.56004
G1 X22.73 Y140.96 E12.60519
G1 X23.067 Y140.848 E12.61464
G1 X25.041 Y140.847 E12.66716
G1 X25.377 Y140.958 E12.67658
G0 F6000 X25.709 Y141.848
G1 F478.1 X25.743 Y141.514 E12.68779
G1 F553 X25.777 Y141.179 E12.69751
G1 F600 X25.777 Y138.982 E12.75597
G1 X25.74 Y138.919 E12.75791
G1 X25.63 Y138.919 E12.76084
G1 X25.356 Y138.853 E12.76834
G1 X25.201 Y138.738 E12.77348
G1 F562.1 X25.005 Y138.372 E12.78527
G1 X24.811 Y138.738 E12.79703
G1 F600 X24.655 Y138.853 E12.80219
G1 X24.458 Y138.914 E12.80768
G1 X23.546 Y138.918 E12.83195
G1 X23.318 Y138.862 E12.83819
G1 X23.162 Y138.758 E12.84318
G1 X23.025 Y138.474 E12.85157
G1 X22.888 Y138.758 E12.85996
G1 X22.732 Y138.862 E12.86495
G1 X22.478 Y138.918 E12.87187
G1 X22.367 Y138.918 E12.87482
G1 X22.33 Y138.981 E12.87677
G1 X22.33 Y141.179 E12.93525
G1 F553 X22.364 Y141.513 E12.94494
G1 F478.1 X22.399 Y141.848 E12.95619
G1 X22.552 Y141.608 E12.9657
G1 F553 X22.706 Y141.367 E12.97395
G1 F600 X23.067 Y141.248 E12.98407
G1 X25.041 Y141.247 E13.03659
G1 X25.403 Y141.366 E13.04673
G1 F553 X25.556 Y141.607 E13.05497
G1 F478.1 X25.709 Y141.848 E13.06451
G1 F1500 E6.56451
G0 F6000 X25.907 Y148.427
G1 F1500 E13.06451
G0 F6000 X26.177 Y148.697
;TYPE:WALL-OUTER
G1 F600 X26.177 Y138.874 E13.32588
G1 X25.971 Y138.519 E13.3368
G1 X25.63 Y138.519 E13.34587
G1 X25.487 Y138.458 E13.35001
G1 X25.43 Y138.336 E13.35359
G1 X25.429 Y135.018 E13.44188
G1 X24.581 Y135.018 E13.46444
G1 X24.581 Y138.336 E13.55273
G1 X24.525 Y138.458 E13.5563
G1 X24.407 Y138.517 E13.55981
G1 X23.509 Y138.518 E13.5837
G1 F506.3 X23.298 Y138.342 E13.59237
G1 F438 X23.298 Y135.091 E13.71087
G1 F438.8 X22.752 Y135.091 E13.73074
G1 F438 X22.752 Y138.342 E13.84925
G1 F506.3 X22.541 Y138.518 E13.85791
G1 F600 X22.136 Y138.518 E13.86869
G1 X21.93 Y138.874 E13.87963
G1 X21.931 Y148.697 E14.14101
G1 X22.865 Y148.697 E14.16586
G1 X22.867 Y141.848 E14.3481
G1 X22.946 Y141.687 E14.35287
G1 X23.067 Y141.648 E14.35625
G1 X25.041 Y141.647 E14.40878
G1 X25.162 Y141.687 E14.41217
G1 X25.241 Y141.848 E14.41694
G1 X25.243 Y148.697 E14.59918
G1 X26.177 Y148.697 E14.62403
G0 F6000 X25.71 Y148.23
;TYPE:WALL-INNER
G1 F449.4 X25.71 Y145.039 E14.73738
G1 F448.6 X25.709 Y141.848 E14.85094
G0 F6000 X25.469 Y141.42
G0 X22.639 Y141.42
G0 X22.399 Y141.848
G1 F448.6 X22.399 Y145.039 E14.9645
G1 F449.4 X22.398 Y148.23 E15.07785
G0 F6000 X22.639 Y141.42
G0 X25.005 Y139.218
G0 X25.005 Y138.372
G1 F529.8 X25.005 Y136.907 E15.122
G1 F532.2 X25.005 Y135.442 E15.16595
G1 F1500 E8.66595
G0 F6000 X25.229 Y136.425
G0 X26.294 Y136.424
G0 X27.101 Y136.425
G0 X28.186 Y136.425
G0 X28.766 Y136.424
G1 F1500 E15.16595
G1 F600 X30.042 Y135.148 E15.21397
G1 X28.766 Y135.148 E15.24792
G1 X28.766 Y136.424 E15.28187
G0 F6000 X29.183 Y135.522
G1 F689.7 X29.161 Y135.559 E15.28287
G1 X29.097 Y135.522 E15.28458
G1 X29.161 Y135.485 E15.28629
G0 F6000 X28.961 Y136.772
G0 X28.604 Y140.516
G0 X28.435 Y141.2
G1 F510.6 X28.68 Y140.776 E15.3016
G1 F600 X29.269 Y140.186 E15.32378
G1 X28.924 Y139.84 E15.33678
G1 F601.5 X28.758 Y139.518 E15.3464
G1 F604.5 X28.757 Y138.764 E15.36631
G1 F607.6 X28.756 Y138.01 E15.38612
G1 F612.2 X28.754 Y137.256 E15.40578
G1 F607.6 X28.924 Y136.832 E15.41779
G1 F600 X30.45 Y135.306 E15.47521
G1 F601.5 X30.772 Y135.14 E15.48482
G1 F606.1 X31.903 Y135.138 E15.51462
G1 F610.7 X33.034 Y135.135 E15.54418
G1 F606.1 X33.458 Y135.306 E15.55623
G1 F600 X33.804 Y135.652 E15.56925
G1 X34.393 Y135.062 E15.59143
G1 F505.3 X34.702 Y134.822 E15.60379
G1 X34.263 Y134.748 E15.61786
G1 F600 X28.366 Y134.748 E15.77477
G1 X28.366 Y140.646 E15.9317
G1 F551.7 X28.4 Y140.923 E15.93978
G1 F475.2 X28.435 Y141.2 E15.94916
G0 F6000 X28.604 Y140.516
G0 X28.784 Y140.186
G1 F689.7 X28.762 Y140.223 E15.95015
G1 X28.698 Y140.186 E15.95187
G1 X28.762 Y140.149 E15.95358
G0 F6000 X28.913 Y137.076
G0 X30.694 Y135.295
G0 X33.847 Y135.122
G1 F685.7 X33.825 Y135.159 E15.95458
G1 X33.761 Y135.122 E15.9563
G1 X33.825 Y135.085 E15.95802
G0 F6000 X34.818 Y134.881
G0 X41.663 Y140.447
G1 F600 X41.663 Y135.547 E16.0884
G1 X36.86 Y135.548 E16.2162
G1 X41.523 Y140.209 E16.39163
G1 X41.663 Y140.447 E16.39898
G0 F6000 X41.663 Y148.045
G1 F600 X41.663 Y141.952 E16.5611
G1 X41.523 Y142.191 E16.56847
G1 X38.931 Y144.783 E16.666
G1 X38.58 Y144.962 E16.67649
G1 X38.401 Y145.313 E16.68697
G1 X35.809 Y147.905 E16.78451
G1 X35.566 Y148.046 E16.79198
G1 X41.663 Y148.045 E16.95421
G0 F6000 X39.723 Y148.056
G0 X34.067 Y148.044
G1 F600 X33.827 Y147.905 E16.96159
G1 X29.166 Y143.242 E17.13702
G1 X29.167 Y148.045 E17.26482
