;FLAVOR:Marlin
;TIME:2048
;Filament used: 0.43908m
;Layer height: 0.16
;MINX:38.309
;MINY:91.279
;MINZ:0.16
;MAXX:92.42
;MAXY:128.579
;MAXZ:10.08
;Generated with Cura_SteamEngine main
M82 ;absolute extrusion mode
; Ender 3 Custom Start G-code
G92 E0 ; Reset Extruder
G28 ; Home all axes
M104 S120 ; Start heating up the nozzle most of the way
M190 S68.0 ; Start heating the bed, wait until target temperature reached
M109 S248.0 ; Finish heating the nozzle
G1 Z2.0 F3000 ; Move Z Axis up little to prevent scratching of Heat Bed
G1 X0.1 Y20 Z0.3 F5000.0 ; Move to start position
G1 X0.1 Y200.0 Z0.3 F1500.0 E15 ; Draw the first line
G1 X0.4 Y200.0 Z0.3 F5000.0 ; Move to side a little
G1 X0.4 Y20 Z0.3 F1500.0 E30 ; Draw the second line
G92 E0 ; Reset Extruder
G1 Z2.0 F3000 ; Move Z Axis up little to prevent scratching of Heat Bed
G1 X5 Y20 Z0.3 F5000.0 ; Move over to prevent blob squish
G92 E0
G92 E0
G1 F1500 E-3.5
;LAYER_COUNT:63
;LAYER:0
M107
G0 F6000 X45.348 Y93.042 Z0.16
G0 X39.083 Y102.059
;TYPE:SKIRT
G1 F1500 E0
G1 F600 X39.294 Y100.933 E0.03048
G1 X39.506 Y100.019 E0.05545
G1 X39.795 Y99.127 E0.0804
G1 X40.159 Y98.263 E0.10534
G1 X40.596 Y97.432 E0.13033
G1 X41.101 Y96.642 E0.15527
G1 X41.672 Y95.898 E0.18023
G1 X42.304 Y95.206 E0.20516
G1 X42.993 Y94.569 E0.23013
G1 X43.734 Y93.994 E0.25509
G1 X44.521 Y93.484 E0.28004
G1 X45.348 Y93.042 E0.30499
G1 X46.21 Y92.673 E0.32994
G1 X47.101 Y92.378 E0.35491
G1 X48.013 Y92.161 E0.37986
G1 X49.001 Y92.016 E0.40643
G1 X51.564 Y91.757 E0.47497
G1 X53.787 Y91.475 E0.5346
G1 X54.287 Y91.405 E0.54803
G1 X55.581 Y91.302 E0.58257
G1 X56.854 Y91.279 E0.61645
G1 X69.72 Y91.281 E0.95879
G1 X70.424 Y91.292 E0.97752
G1 X71.36 Y91.347 E1.00247
G1 X72.288 Y91.481 E1.02742
G1 X73.215 Y91.698 E1.05275
G1 X74.534 Y92.067 E1.0892
G1 X77.092 Y92.737 E1.15955
G1 X79.556 Y93.307 E1.22685
G1 X82.241 Y93.848 E1.29973
G1 X83.293 Y94.044 E1.3282
G1 X84.207 Y94.254 E1.35315
G1 X85.099 Y94.542 E1.3781
G1 X85.964 Y94.905 E1.40306
G1 X86.795 Y95.34 E1.42801
G1 X87.586 Y95.844 E1.45297
G1 X88.331 Y96.414 E1.47793
G1 X89.024 Y97.045 E1.50287
G1 X89.662 Y97.733 E1.52783
G1 X90.207 Y98.421 E1.55119
G1 X90.79 Y99.284 E1.5789
G1 X91.247 Y100.103 E1.60385
G1 X91.632 Y100.958 E1.6288
G1 X91.943 Y101.842 E1.65374
G1 X92.178 Y102.751 E1.67872
G1 X92.334 Y103.675 E1.70365
G1 X92.42 Y105.074 E1.74095
G1 X92.419 Y105.46 E1.75122
G1 X92.329 Y106.833 E1.78783
G1 X92.223 Y107.653 E1.80983
G1 X92.054 Y108.832 E1.84152
G1 X91.773 Y111.285 E1.90722
G1 X91.555 Y113.826 E1.97508
G1 X91.403 Y116.462 E2.04534
G1 X91.309 Y117.395 E2.07029
G1 X91.136 Y118.317 E2.09525
G1 X90.885 Y119.221 E2.12021
G1 X90.558 Y120.1 E2.14517
G1 X90.157 Y120.948 E2.17012
G1 X89.686 Y121.758 E2.19506
G1 X89.147 Y122.526 E2.22002
G1 X88.545 Y123.245 E2.24497
G1 X87.884 Y123.91 E2.26992
G1 X87.168 Y124.517 E2.2949
G1 X86.404 Y125.06 E2.31984
G1 X85.596 Y125.536 E2.34479
G1 X84.75 Y125.941 E2.36975
G1 X83.873 Y126.273 E2.3947
G1 X82.971 Y126.529 E2.41965
G1 X81.85 Y126.736 E2.44998
G1 X79.587 Y127.033 E2.51071
G1 X77.074 Y127.427 E2.57839
G1 X74.627 Y127.884 E2.64463
G1 X73.963 Y128.028 E2.66271
G1 X72.428 Y128.343 E2.7044
G1 X71.502 Y128.493 E2.72936
G1 X70.401 Y128.566 E2.75872
G1 X69.682 Y128.577 E2.77786
G1 X56.529 Y128.579 E3.12783
G1 X55.651 Y128.568 E3.1512
G1 X55.021 Y128.541 E3.16797
G1 X52.082 Y128.369 E3.24631
G1 X49.026 Y128.288 E3.32765
G1 X48.09 Y128.223 E3.35262
G1 X47.164 Y128.079 E3.37755
G1 X46.253 Y127.857 E3.4025
G1 X45.364 Y127.557 E3.42747
G1 X44.504 Y127.183 E3.45242
G1 X43.679 Y126.737 E3.47737
G1 X42.895 Y126.223 E3.50232
G1 X42.157 Y125.643 E3.52729
G1 X41.472 Y125.003 E3.55224
G1 X40.844 Y124.306 E3.5772
G1 X40.277 Y123.559 E3.60215
G1 X39.776 Y122.766 E3.62711
G1 X39.344 Y121.934 E3.65206
G1 X38.985 Y121.067 E3.67703
G1 X38.701 Y120.173 E3.70199
G1 X38.494 Y119.259 E3.72692
G1 X38.366 Y118.33 E3.75187
G1 X38.321 Y117.579 E3.77189
G1 X38.309 Y116.987 E3.78765
G1 X38.309 Y107.487 E4.04042
G1 X38.32 Y106.781 E4.05921
G1 X38.375 Y105.844 E4.08419
G1 X38.535 Y104.785 E4.11268
G1 X39.083 Y102.059 E4.18667
G1 F1500 E0.68667
G0 F6000 X39.109 Y107.499
G1 F1500 E4.18667
G1 F600 X39.12 Y106.793 E4.20546
G1 X39.174 Y105.892 E4.22947
G1 X39.319 Y104.942 E4.25504
G1 X39.884 Y102.132 E4.33131
G1 X40.081 Y101.08 E4.35979
G1 X40.286 Y100.201 E4.3838
G1 X40.569 Y99.343 E4.40784
G1 X40.926 Y98.514 E4.43186
G1 X41.355 Y97.719 E4.4559
G1 X41.853 Y96.966 E4.47992
G1 X42.416 Y96.259 E4.50397
G1 X43.039 Y95.605 E4.528
G1 X43.717 Y95.009 E4.55202
G1 X44.445 Y94.475 E4.57604
G1 X45.218 Y94.007 E4.60009
G1 X46.029 Y93.61 E4.62411
G1 X46.872 Y93.286 E4.64814
G1 X47.74 Y93.038 E4.67216
G1 X48.627 Y92.868 E4.69619
G1 X49.082 Y92.812 E4.70839
G1 X51.665 Y92.551 E4.77747
G1 X53.824 Y92.277 E4.83538
G1 X54.397 Y92.197 E4.85077
G1 X55.597 Y92.102 E4.8828
G1 X56.854 Y92.079 E4.91625
G1 X69.707 Y92.081 E5.25825
G1 X70.411 Y92.092 E5.27698
G1 X71.313 Y92.146 E5.30103
G1 X72.206 Y92.28 E5.32505
G1 X73 Y92.468 E5.34676
G1 X74.367 Y92.851 E5.38454
G1 X76.879 Y93.509 E5.45363
G1 X79.395 Y94.091 E5.52235
G1 X82.08 Y94.632 E5.59522
G1 X83.146 Y94.83 E5.62407
G1 X84.026 Y95.034 E5.64811
G1 X84.884 Y95.316 E5.67214
G1 X85.714 Y95.672 E5.69617
G1 X86.509 Y96.1 E5.7202
G1 X87.264 Y96.597 E5.74425
G1 X87.971 Y97.158 E5.76826
G1 X88.626 Y97.78 E5.7923
G1 X89.544 Y98.867 E5.83015
G1 X90.126 Y99.731 E5.85787
G1 X90.562 Y100.522 E5.8819
G1 X90.926 Y101.348 E5.90592
G1 X91.216 Y102.204 E5.92997
G1 X91.429 Y103.081 E5.95398
G1 X91.564 Y103.974 E5.97802
G1 X91.62 Y105.072 E6.00727
G1 X91.619 Y105.458 E6.01754
G1 X91.536 Y106.731 E6.05148
G1 X91.431 Y107.54 E6.07319
G1 X91.265 Y108.701 E6.1044
G1 X90.975 Y111.232 E6.17218
G1 X90.756 Y113.781 E6.24026
G1 X90.604 Y116.416 E6.31048
G1 X90.512 Y117.314 E6.3345
G1 X90.341 Y118.201 E6.35854
G1 X90.093 Y119.069 E6.38256
G1 X89.768 Y119.912 E6.4066
G1 X89.37 Y120.723 E6.43064
G1 X88.902 Y121.495 E6.45466
G1 X88.368 Y122.223 E6.47868
G1 X87.771 Y122.901 E6.50272
G1 X87.117 Y123.524 E6.52675
G1 X86.41 Y124.086 E6.55078
G1 X85.656 Y124.583 E6.57481
G1 X84.861 Y125.012 E6.59885
G1 X84.032 Y125.369 E6.62287
G1 X83.174 Y125.651 E6.6469
G1 X82.294 Y125.856 E6.67094
G1 X81.746 Y125.943 E6.6857
G1 X79.439 Y126.245 E6.74761
G1 X76.974 Y126.633 E6.81401
G1 X74.454 Y127.103 E6.88222
G1 X73.685 Y127.269 E6.90315
G1 X72.267 Y127.56 E6.94167
G1 X71.376 Y127.702 E6.96567
G1 X70.388 Y127.767 E6.99202
G1 X69.851 Y127.776 E7.00631
G1 X56.529 Y127.779 E7.36078
G1 X55.662 Y127.768 E7.38385
G1 X55.078 Y127.743 E7.39941
G1 X52.081 Y127.568 E7.47929
G1 X49.047 Y127.488 E7.56004
G1 X48.146 Y127.425 E7.58408
G1 X47.255 Y127.281 E7.60809
G1 X46.379 Y127.06 E7.63213
G1 X45.527 Y126.762 E7.65615
G1 X44.704 Y126.389 E7.68019
G1 X43.917 Y125.946 E7.70422
G1 X43.173 Y125.434 E7.72825
G1 X42.477 Y124.859 E7.75227
G1 X41.835 Y124.224 E7.7763
G1 X41.251 Y123.535 E7.80033
G1 X40.73 Y122.797 E7.82437
G1 X40.277 Y122.016 E7.84839
G1 X39.894 Y121.198 E7.87243
G1 X39.586 Y120.349 E7.89646
G1 X39.354 Y119.476 E7.92049
G1 X39.199 Y118.586 E7.94453
G1 X39.12 Y117.559 E7.97194
G1 X39.109 Y116.987 E7.98716
G1 X39.109 Y107.499 E8.23962
G0 F6000 X38.709 Y107.493
G1 F600 X38.72 Y106.787 E8.25841
G1 X38.775 Y105.868 E8.2829
G1 X38.927 Y104.863 E8.30995
G1 X39.494 Y102.044 E8.38646
G1 X39.688 Y101.007 E8.41453
G1 X39.896 Y100.11 E8.43903
G1 X40.182 Y99.235 E8.46352
G1 X40.543 Y98.388 E8.48802
G1 X40.976 Y97.575 E8.51253
G1 X41.477 Y96.803 E8.53702
G1 X42.044 Y96.078 E8.56151
G1 X42.672 Y95.404 E8.58602
G1 X43.355 Y94.787 E8.61051
G1 X44.09 Y94.233 E8.635
G1 X44.87 Y93.743 E8.65951
G1 X45.69 Y93.324 E8.68402
G1 X46.542 Y92.977 E8.70849
G1 X47.422 Y92.705 E8.733
G1 X48.322 Y92.511 E8.7575
G1 X49.042 Y92.414 E8.77683
G1 X51.61 Y92.155 E8.84551
G1 X53.811 Y91.875 E8.90454
G1 X54.342 Y91.801 E8.91881
G1 X55.589 Y91.702 E8.95209
G1 X56.854 Y91.679 E8.98576
G1 X69.714 Y91.681 E9.32794
G1 X70.418 Y91.692 E9.34667
G1 X71.337 Y91.747 E9.37117
G1 X72.248 Y91.881 E9.39567
G1 X73.107 Y92.083 E9.41915
G1 X74.45 Y92.459 E9.45626
G1 X76.998 Y93.126 E9.52634
G1 X79.459 Y93.696 E9.59356
G1 X82.155 Y94.239 E9.66673
G1 X83.22 Y94.437 E9.69556
G1 X84.117 Y94.644 E9.72005
G1 X84.992 Y94.929 E9.74454
G1 X85.84 Y95.288 E9.76904
G1 X86.653 Y95.72 E9.79354
G1 X87.426 Y96.221 E9.81805
G1 X88.152 Y96.786 E9.84252
G1 X88.826 Y97.413 E9.86702
G1 X89.444 Y98.096 E9.89153
G1 X89.943 Y98.744 E9.91329
G1 X90.458 Y99.508 E9.9378
G1 X90.904 Y100.313 E9.96229
G1 X91.279 Y101.154 E9.98679
G1 X91.58 Y102.024 E10.01129
G1 X91.804 Y102.917 E10.03578
G1 X91.95 Y103.826 E10.06028
G1 X92.02 Y105.073 E10.09351
G1 X92.019 Y105.459 E10.10378
G1 X91.933 Y106.782 E10.13906
G1 X91.848 Y107.444 E10.15682
G1 X91.66 Y108.762 E10.19225
G1 X91.372 Y111.276 E10.25958
G1 X91.155 Y113.805 E10.32711
G1 X91.003 Y116.439 E10.39732
G1 X90.911 Y117.355 E10.42181
G1 X90.739 Y118.259 E10.4463
G1 X90.489 Y119.146 E10.47082
G1 X90.163 Y120.007 E10.49532
G1 X89.764 Y120.836 E10.5198
G1 X89.294 Y121.628 E10.5443
G1 X88.757 Y122.376 E10.5688
G1 X88.158 Y123.075 E10.5933
G1 X87.5 Y123.719 E10.61779
G1 X86.789 Y124.303 E10.64228
G1 X86.029 Y124.824 E10.66679
G1 X85.228 Y125.277 E10.69128
G1 X84.39 Y125.658 E10.71577
G1 X83.522 Y125.965 E10.74027
G1 X82.631 Y126.196 E10.76476
G1 X81.798 Y126.339 E10.78725
G1 X79.551 Y126.633 E10.84755
G1 X77.004 Y127.034 E10.91615
G1 X74.547 Y127.492 E10.98266
G1 X73.766 Y127.661 E11.00392
G1 X72.348 Y127.952 E11.04244
G1 X71.439 Y128.097 E11.06693
G1 X70.395 Y128.167 E11.09477
G1 X69.858 Y128.176 E11.10906
G1 X56.529 Y128.179 E11.46372
G1 X55.657 Y128.168 E11.48692
G1 X55.049 Y128.142 E11.50312
G1 X52.08 Y127.969 E11.58225
G1 X49.037 Y127.888 E11.66325
G1 X48.118 Y127.824 E11.68776
G1 X47.209 Y127.68 E11.71225
G1 X46.315 Y127.458 E11.73676
G1 X45.445 Y127.159 E11.76124
G1 X44.603 Y126.786 E11.78574
G1 X43.797 Y126.341 E11.81024
G1 X43.033 Y125.828 E11.83472
G1 X42.316 Y125.251 E11.85921
G1 X41.651 Y124.613 E11.88373
G1 X41.045 Y123.92 E11.90823
G1 X40.501 Y123.178 E11.93271
G1 X40.024 Y122.39 E11.95722
G1 X39.616 Y121.565 E11.98171
G1 X39.282 Y120.707 E12.00621
G1 X39.024 Y119.823 E12.03071
G1 X38.843 Y118.921 E12.05519
G1 X38.721 Y117.569 E12.09131
G1 X38.709 Y116.987 E12.1068
G1 X38.709 Y107.493 E12.35941
G1 F1500 E8.85941
;MESH:void_switch-v41.stl
G0 F6000 X52.541 Y108.517
;TYPE:WALL-INNER
G1 F1500 E12.35941
G1 F407.5 X52.541 Y107.828 E12.38641
G1 F408.9 X52.169 Y107.941 E12.40159
G1 F411.7 X51.105 Y107.94 E12.44285
G1 F413.1 X50.799 Y107.864 E12.45504
G1 X50.798 Y108.521 E12.48043
G1 F411.7 X51.67 Y108.519 E12.51425
G1 F408.9 X52.542 Y108.517 E12.5483
G0 F6000 X53.035 Y109.137
G1 F600 X53.035 Y107.402 E12.59446
G1 X52.805 Y107.349 E12.60074
G1 X52.624 Y107.22 E12.60666
G1 X52.442 Y107.349 E12.61259
G1 X52.105 Y107.451 E12.62196
G1 X51.133 Y107.45 E12.64783
G1 X50.781 Y107.364 E12.65747
G1 X50.644 Y107.275 E12.66181
G1 X50.507 Y107.364 E12.66616
G1 X50.309 Y107.406 E12.67155
G1 X50.306 Y109.139 E12.71766
G1 X50.689 Y109.011 E12.7284
G1 X52.655 Y109.011 E12.78071
G1 X53.035 Y109.137 E12.79137
G0 F6000 X53.345 Y110.011
G1 F448.6 X53.39 Y109.666 E12.80375
G1 F539.3 X53.435 Y109.321 E12.81405
G1 F600 X53.435 Y107.112 E12.87283
G1 X53.399 Y107.051 E12.87471
G1 X53.248 Y107.051 E12.87873
G1 X52.982 Y106.99 E12.88599
G1 X52.826 Y106.879 E12.89108
G1 F562.1 X52.623 Y106.505 E12.90317
G1 X52.422 Y106.879 E12.91523
G1 F600 X52.265 Y106.99 E12.92035
G1 X52.062 Y107.051 E12.92599
G1 X51.156 Y107.051 E12.95009
G1 X50.945 Y106.999 E12.95588
G1 X50.789 Y106.898 E12.96082
G1 X50.644 Y106.603 E12.96957
G1 X50.498 Y106.898 E12.97833
G1 X50.343 Y106.999 E12.98325
G1 X50.096 Y107.051 E12.98996
G1 X49.944 Y107.051 E12.99401
G1 X49.908 Y107.112 E12.99589
G1 X49.906 Y109.321 E13.05467
G1 F539.3 X49.952 Y109.666 E13.06497
G1 F448.6 X49.999 Y110.011 E13.07737
G1 X50.163 Y109.771 E13.08771
G1 F539.3 X50.327 Y109.531 E13.09632
G1 F600 X50.689 Y109.411 E13.10646
G1 X52.655 Y109.411 E13.15877
G1 X53.016 Y109.53 E13.16889
G1 F539.3 X53.18 Y109.77 E13.17749
G1 F448.6 X53.345 Y110.011 E13.18789
G1 F1500 E9.68789
G0 F6000 X53.835 Y117.101
;TYPE:WALL-OUTER
G1 F1500 E13.18789
G1 F600 X53.835 Y107.005 E13.45652
G1 X53.63 Y106.651 E13.46741
G1 X53.248 Y106.651 E13.47757
G1 X53.107 Y106.594 E13.48162
G1 X53.048 Y106.469 E13.4853
G1 X53.047 Y103.151 E13.57358
G1 X52.199 Y103.151 E13.59615
G1 X52.199 Y106.469 E13.68443
G1 X52.14 Y106.594 E13.68811
G1 X52.027 Y106.649 E13.69145
G1 X51.13 Y106.651 E13.71532
G1 F505.3 X50.917 Y106.475 E13.72405
G1 F437.2 X50.917 Y104.849 E13.78343
G1 F438.8 X50.917 Y103.223 E13.8426
G1 X50.37 Y103.224 E13.8625
G1 X50.37 Y104.85 E13.92166
G1 F437.2 X50.37 Y106.476 E13.98105
G1 F505.3 X50.159 Y106.651 E13.98971
G1 F600 X49.713 Y106.651 E14.00157
G1 X49.508 Y107.005 E14.01246
G1 X49.509 Y117.101 E14.28109
G1 X50.489 Y117.101 E14.30717
G1 X50.489 Y110.011 E14.49582
G1 X50.568 Y109.851 E14.50057
G1 X50.689 Y109.811 E14.50396
G1 X52.655 Y109.811 E14.55627
G1 X52.776 Y109.85 E14.55966
G1 X52.855 Y110.011 E14.56443
G1 X52.856 Y117.101 E14.75308
G1 X53.835 Y117.101 E14.77913
G0 F6000 X53.345 Y116.611
;TYPE:WALL-INNER
G1 F413.8 X53.345 Y110.011 E15.03377
G1 F1500 E11.53377
G0 F6000 X49.999 Y110.011
G1 F1500 E15.03377
G1 F413.8 X49.999 Y116.611 E15.28841
G1 F1500 E11.78841
G0 F6000 X52.623 Y106.505
G1 F1500 E15.28841
G1 F529.8 X52.623 Y105.04 E15.33255
G1 F532.2 X52.623 Y103.575 E15.3765
G1 F1500 E11.8765
G0 F6000 X56.468 Y104.334
G1 F1500 E15.3765
G1 F422.5 X57.437 Y103.364 E15.42831
G1 X56.468 Y103.364 E15.46492
G1 X56.468 Y104.334 E15.50157
G1 F1500 E12.00157
G0 F6000 X56.039 Y109.341
G1 F1500 E15.50157
G1 F525.2 X56.271 Y108.916 E15.51629
G1 F600 X56.897 Y108.289 E15.53986
G1 X56.538 Y107.93 E15.55337
G1 F603 X56.374 Y107.609 E15.56292
G1 F607.6 X56.372 Y106.49 E15.59232
G1 F612.2 X56.369 Y105.371 E15.6215
G1 F607.6 X56.539 Y104.946 E15.63353
G1 F600 X58.049 Y103.436 E15.69035
G1 F603 X58.371 Y103.271 E15.69993
G1 F607.6 X59.49 Y103.269 E15.72933
G1 F612.2 X60.609 Y103.266 E15.75851
G1 F607.6 X61.033 Y103.435 E15.7705
G1 F600 X61.393 Y103.794 E15.78403
G1 X62.02 Y103.168 E15.8076
G1 F519.5 X62.331 Y102.94 E15.81945
G1 X61.902 Y102.881 E15.83276
G1 F603 X61.045 Y102.88 E15.85545
G1 F606.1 X60.188 Y102.878 E15.87803
G1 F609.1 X59.331 Y102.877 E15.90049
G1 F612.2 X58.474 Y102.875 E15.92283
G1 X57.644 Y102.876 E15.94448
G1 F607.6 X56.814 Y102.878 E15.96629
G1 F603 X55.984 Y102.88 E15.98826
G1 F601.5 X55.983 Y103.651 E16.00872
G1 F604.5 X55.982 Y104.422 E16.02909
G1 F606.1 X55.981 Y105.193 E16.0494
G1 F609.1 X55.98 Y105.964 E16.0696
G1 F610.7 X55.979 Y106.735 E16.08976
G1 F613.8 X55.978 Y107.506 E16.10981
G1 F610.7 X55.98 Y108.152 E16.1267
G1 F604.5 X55.983 Y108.798 E16.14376
G1 F560.7 X56.011 Y109.069 E16.15152
G1 F494.8 X56.039 Y109.341 E16.16034
G0 F6000 X56.406 Y108.289
G1 F670.4 X56.34 Y108.327 E16.16215
G1 X56.318 Y108.289 E16.1632
G1 X56.383 Y108.251 E16.16499
G1 F1500 E12.66499
G0 F6000 X61.437 Y103.259
G1 F1500 E16.16499
G1 F670.4 X61.371 Y103.297 E16.1668
G1 X61.349 Y103.259 E16.16785
G1 X61.414 Y103.221 E16.16964
G1 F1500 E12.66964
G0 F6000 X69.28 Y108.515
G1 F1500 E16.16964
G1 F600 X69.28 Y103.68 E16.29829
G1 X64.512 Y103.68 E16.42516
G1 X69.183 Y108.351 E16.60093
G1 X69.28 Y108.515 E16.606
G1 F1500 E13.106
G0 F6000 X69.28 Y116.177
G1 F1500 E16.606
G1 F600 X69.28 Y110.166 E16.76594
G1 X69.183 Y110.331 E16.77103
G1 X66.578 Y112.938 E16.86909
G1 X66.22 Y113.117 E16.87974
G1 X66.042 Y113.473 E16.89034
G1 X63.435 Y116.08 E16.98844
G1 X63.266 Y116.179 E16.99365
G1 X69.28 Y116.177 E17.15367
G1 F1500 E13.65367
G0 F6000 X61.625 Y116.179
G1 F1500 E17.15367
G1 F600 X61.455 Y116.08 E17.1589
G1 X56.783 Y111.409 E17.33469
G1 X56.783 Y116.178 E17.46158
G1 X61.625 Y116.179 E17.59042
G1 F1500 E14.09042
G0 F6000 X69.68 Y116.577
G1 F1500 E17.59042
G1 F600 X69.68 Y110.371 E17.75555
G1 F588.2 X69.672 Y110.1 E17.76291
G1 F563.4 X69.663 Y109.829 E17.77059
G1 F541.8 X69.655 Y109.558 E17.77858
G1 F531 X69.654 Y109.125 E17.7916
G1 F541.8 X69.662 Y108.854 E17.79959
G1 F563.4 X69.671 Y108.583 E17.80727
