;FLAVOR:Marlin
;TIME:2061
;Filament used: 0.415997m
;Layer height: 0.16
;MINX:142.83
;MINY:107.244
;MINZ:0.16
;MAXX:180.125
;MAXY:161.354
;MAXZ:10.88
;Generated with Cura_SteamEngine main
M82 ;absolute extrusion mode
; Ender 3 Custom Start G-code
G92 E0 ; Reset Extruder
G28 ; Home all axes
M104 S120 ; Start heating up the nozzle most of the way
M190 S68.0 ; Start heating the bed, wait until target temperature reached
M109 S248.0 ; Finish heating the nozzle
G1 Z2.0 F3000 ; Move Z Axis up little to prevent scratching of Heat Bed
G1 X0.1 Y20 Z0.3 F5000.0 ; Move to start position
G1 X0.1 Y200.0 Z0.3 F1500.0 E15 ; Draw the first line
G1 X0.4 Y200.0 Z0.3 F5000.0 ; Move to side a little
G1 X0.4 Y20 Z0.3 F1500.0 E30 ; Draw the second line
G92 E0 ; Reset Extruder
G1 Z2.0 F3000 ; Move Z Axis up little to prevent scratching of Heat Bed
G1 X5 Y20 Z0.3 F5000.0 ; Move over to prevent blob squish
G92 E0
G92 E0
G1 F1500 E-6.5
;LAYER_COUNT:68
;LAYER:0
M107
G0 F6000 X147.919 Y111.781 Z0.16
G0 X145.73 Y117.246
;TYPE:SKIRT
G1 F1500 E0
G1 F600 X145.995 Y116.02 E0.03337
G1 X146.232 Y115.113 E0.05832
G1 X146.546 Y114.229 E0.08328
G1 X146.933 Y113.375 E0.10823
G1 X147.392 Y112.557 E0.13319
G1 X147.919 Y111.781 E0.15814
G1 X148.511 Y111.053 E0.18311
G1 X149.162 Y110.378 E0.20806
G1 X149.868 Y109.761 E0.23301
G1 X150.624 Y109.206 E0.25797
G1 X151.248 Y108.816 E0.27755
G1 X152.072 Y108.368 E0.3025
G1 X152.931 Y107.992 E0.32745
G1 X153.819 Y107.69 E0.35241
G1 X154.729 Y107.466 E0.37735
G1 X155.656 Y107.319 E0.40232
G1 X156.752 Y107.249 E0.43154
G1 X157.107 Y107.244 E0.44099
G1 X158.045 Y107.271 E0.46596
G1 X158.714 Y107.339 E0.48385
G1 X159.773 Y107.48 E0.51228
G1 X160.514 Y107.589 E0.53221
G1 X163.068 Y107.892 E0.60064
G1 X165.519 Y108.114 E0.66612
G1 X166.295 Y108.16 E0.68681
G1 X167.829 Y108.269 E0.72773
G1 X168.761 Y108.375 E0.75268
G1 X169.68 Y108.56 E0.77763
G1 X170.58 Y108.823 E0.80258
G1 X171.455 Y109.161 E0.82754
G1 X172.297 Y109.573 E0.85248
G1 X173.102 Y110.055 E0.87744
G1 X173.862 Y110.604 E0.90239
G1 X174.573 Y111.216 E0.92735
G1 X175.23 Y111.886 E0.95232
G1 X175.826 Y112.61 E0.97727
G1 X176.359 Y113.381 E1.00221
G1 X176.825 Y114.196 E1.02719
G1 X177.219 Y115.047 E1.05214
G1 X177.539 Y115.928 E1.07708
G1 X177.783 Y116.834 E1.10205
G1 X177.891 Y117.375 E1.11673
G1 X177.98 Y117.892 E1.13069
G1 X178.244 Y119.559 E1.1756
G1 X178.703 Y122.026 E1.24237
G1 X179.235 Y124.494 E1.30954
G1 X179.781 Y126.736 E1.37094
G1 X179.971 Y127.654 E1.39589
G1 X180.081 Y128.586 E1.42086
G1 X180.112 Y129.242 E1.43833
G1 X180.125 Y130.053 E1.45991
G1 X180.123 Y143.316 E1.81282
G1 X180.112 Y144.019 E1.83152
G1 X180.057 Y144.955 E1.85647
G1 X179.923 Y145.884 E1.88145
G1 X179.677 Y146.915 E1.90965
G1 X178.937 Y149.463 E1.98025
G1 X178.252 Y152.103 E2.05282
G1 X178.043 Y152.957 E2.07621
G1 X177.782 Y153.858 E2.10117
G1 X177.445 Y154.733 E2.12612
G1 X177.034 Y155.576 E2.15108
G1 X176.553 Y156.381 E2.17603
G1 X176.005 Y157.143 E2.201
G1 X175.395 Y157.855 E2.22595
G1 X174.726 Y158.512 E2.2509
G1 X174.003 Y159.11 E2.27587
G1 X173.233 Y159.644 E2.3008
G1 X172.419 Y160.111 E2.32577
G1 X171.569 Y160.506 E2.35071
G1 X170.688 Y160.828 E2.37567
G1 X169.783 Y161.073 E2.40061
G1 X168.86 Y161.241 E2.42558
G1 X167.696 Y161.339 E2.45666
G1 X167.033 Y161.354 E2.4743
G1 X159.05 Y161.353 E2.68672
G1 X158.349 Y161.343 E2.70537
G1 X157.413 Y161.29 E2.73032
G1 X156.339 Y161.128 E2.75922
G1 X153.608 Y160.579 E2.83334
G1 X152.482 Y160.368 E2.86382
G1 X151.568 Y160.156 E2.88878
G1 X150.676 Y159.867 E2.91373
G1 X149.812 Y159.503 E2.93868
G1 X148.981 Y159.066 E2.96366
G1 X148.191 Y158.561 E2.98861
G1 X147.447 Y157.99 E3.01356
G1 X146.755 Y157.358 E3.0385
G1 X146.118 Y156.669 E3.06347
G1 X145.543 Y155.928 E3.08842
G1 X145.033 Y155.141 E3.11338
G1 X144.591 Y154.314 E3.13833
G1 X144.222 Y153.452 E3.16328
G1 X143.927 Y152.561 E3.18825
G1 X143.71 Y151.649 E3.2132
G1 X143.564 Y150.656 E3.2399
G1 X143.319 Y148.215 E3.30518
G1 X142.931 Y145.236 E3.38511
G1 X142.841 Y144.002 E3.41803
G1 X142.83 Y143.283 E3.43717
G1 X142.833 Y129.943 E3.79212
G1 X142.844 Y129.243 E3.81075
G1 X142.899 Y128.307 E3.8357
G1 X143.033 Y127.379 E3.86064
G1 X143.291 Y126.307 E3.88998
G1 X143.522 Y125.523 E3.91173
G1 X143.999 Y124.001 E3.95417
G1 X144.679 Y121.601 E4.02054
G1 X145.306 Y119.12 E4.08863
G1 X145.73 Y117.246 E4.13976
G1 F1500 E-2.36024
G0 F6000 X145.067 Y121.699
G1 F1500 E4.13976
G1 F600 X145.691 Y119.228 E4.20757
G1 X146.123 Y117.322 E4.25957
G1 X146.386 Y116.105 E4.2927
G1 X146.62 Y115.214 E4.31721
G1 X146.929 Y114.347 E4.3417
G1 X147.313 Y113.51 E4.36621
G1 X147.768 Y112.71 E4.3907
G1 X148.291 Y111.952 E4.4152
G1 X148.878 Y111.242 E4.43971
G1 X149.524 Y110.586 E4.46421
G1 X150.224 Y109.989 E4.48869
G1 X151.357 Y109.211 E4.52526
G1 X152.263 Y108.72 E4.55268
G1 X153.107 Y108.353 E4.57717
G1 X153.98 Y108.06 E4.60167
G1 X154.875 Y107.845 E4.62616
G1 X155.785 Y107.708 E4.65065
G1 X156.758 Y107.649 E4.67658
G1 X157.113 Y107.644 E4.68603
G1 X158.033 Y107.671 E4.71052
G1 X158.661 Y107.736 E4.72732
G1 X159.873 Y107.898 E4.75986
G1 X160.509 Y107.992 E4.77696
G1 X162.985 Y108.286 E4.84331
G1 X165.525 Y108.516 E4.91117
G1 X166.391 Y108.568 E4.93425
G1 X167.8 Y108.668 E4.97184
G1 X168.715 Y108.773 E4.99634
G1 X169.617 Y108.957 E5.02084
G1 X170.5 Y109.218 E5.04534
G1 X171.357 Y109.555 E5.06984
G1 X172.181 Y109.965 E5.09433
G1 X172.966 Y110.446 E5.11883
G1 X173.707 Y110.992 E5.14332
G1 X174.398 Y111.601 E5.16783
G1 X175.033 Y112.267 E5.19231
G1 X175.608 Y112.986 E5.21681
G1 X176.118 Y113.753 E5.24132
G1 X176.561 Y114.56 E5.26581
G1 X176.931 Y115.403 E5.29031
G1 X177.227 Y116.275 E5.31481
G1 X177.496 Y117.443 E5.3467
G1 X177.61 Y118.108 E5.36465
G1 X177.848 Y119.617 E5.4053
G1 X178.313 Y122.112 E5.47283
G1 X178.846 Y124.585 E5.54015
G1 X179.228 Y126.177 E5.58371
G1 X179.393 Y126.833 E5.60171
G1 X179.579 Y127.735 E5.62621
G1 X179.685 Y128.65 E5.65072
G1 X179.712 Y129.248 E5.66665
G1 X179.725 Y130.059 E5.68823
G1 X179.723 Y143.31 E6.04081
G1 X179.712 Y144.013 E6.05952
G1 X179.657 Y144.932 E6.08402
G1 X179.523 Y145.843 E6.10852
G1 X179.292 Y146.803 E6.13479
G1 X178.563 Y149.315 E6.20439
G1 X177.869 Y151.988 E6.27787
G1 X177.655 Y152.862 E6.30181
G1 X177.397 Y153.746 E6.32632
G1 X177.064 Y154.604 E6.35081
G1 X176.658 Y155.43 E6.3753
G1 X176.182 Y156.218 E6.39979
G1 X175.639 Y156.962 E6.4243
G1 X175.033 Y157.655 E6.44879
G1 X174.37 Y158.294 E6.4733
G1 X173.653 Y158.872 E6.4978
G1 X172.89 Y159.386 E6.52228
G1 X172.084 Y159.832 E6.54679
G1 X171.243 Y160.206 E6.57128
G1 X170.373 Y160.506 E6.59577
G1 X169.48 Y160.73 E6.62026
G1 X168.57 Y160.874 E6.64478
G1 X167.684 Y160.939 E6.66842
G1 X167.033 Y160.954 E6.68574
G1 X159.056 Y160.953 E6.898
G1 X158.355 Y160.943 E6.91665
G1 X157.436 Y160.89 E6.94114
G1 X156.417 Y160.736 E6.96857
G1 X153.593 Y160.168 E7.04521
G1 X152.556 Y159.974 E7.07328
G1 X151.659 Y159.766 E7.09778
G1 X150.784 Y159.48 E7.12228
G1 X149.937 Y159.119 E7.14678
G1 X149.124 Y158.686 E7.17129
G1 X148.352 Y158.185 E7.19577
G1 X147.627 Y157.618 E7.22026
G1 X146.953 Y156.99 E7.24478
G1 X146.336 Y156.307 E7.26927
G1 X145.782 Y155.572 E7.29376
G1 X145.292 Y154.792 E7.31827
G1 X144.873 Y153.972 E7.34277
G1 X144.526 Y153.12 E7.36725
G1 X144.254 Y152.24 E7.39176
G1 X144.06 Y151.34 E7.41625
G1 X143.962 Y150.616 E7.43569
G1 X143.715 Y148.156 E7.50148
G1 X143.328 Y145.184 E7.58122
G1 X143.241 Y143.996 E7.61292
G1 X143.23 Y143.283 E7.63189
G1 X143.233 Y129.949 E7.98669
G1 X143.244 Y129.249 E8.00531
G1 X143.299 Y128.33 E8.02981
G1 X143.433 Y127.42 E8.05428
G1 X143.675 Y126.42 E8.08166
G1 X143.962 Y125.452 E8.10853
G1 X144.386 Y124.103 E8.14615
G1 X145.067 Y121.699 E8.21263
G1 F1500 E1.71263
G0 F6000 X143.633 Y129.956
G1 F1500 E8.21263
G1 F600 X143.644 Y129.256 E8.23126
G1 X143.698 Y128.354 E8.25531
G1 X143.832 Y127.461 E8.27933
G1 X144.059 Y126.533 E8.30475
G1 X144.29 Y125.749 E8.3265
G1 X144.757 Y124.259 E8.36805
G1 X145.462 Y121.773 E8.4368
G1 X146.079 Y119.327 E8.50393
G1 X146.512 Y117.415 E8.55609
G1 X146.777 Y116.189 E8.58946
G1 X147.007 Y115.316 E8.61349
G1 X147.313 Y114.466 E8.63752
G1 X147.693 Y113.647 E8.66155
G1 X148.144 Y112.864 E8.68559
G1 X148.662 Y112.125 E8.7096
G1 X149.244 Y111.434 E8.73364
G1 X149.885 Y110.797 E8.75769
G1 X150.579 Y110.22 E8.7817
G1 X151.569 Y109.551 E8.81349
G1 X152.453 Y109.072 E8.84025
G1 X153.282 Y108.714 E8.86427
G1 X154.14 Y108.43 E8.88832
G1 X155.019 Y108.224 E8.91234
G1 X155.913 Y108.097 E8.93637
G1 X156.763 Y108.049 E8.95902
G1 X157.118 Y108.044 E8.96847
G1 X158.021 Y108.071 E8.99251
G1 X158.608 Y108.132 E9.00821
G1 X159.667 Y108.273 E9.03664
G1 X160.44 Y108.387 E9.05743
G1 X162.974 Y108.687 E9.12532
G1 X165.466 Y108.912 E9.1919
G1 X166.363 Y108.967 E9.21581
G1 X167.772 Y109.067 E9.2534
G1 X168.669 Y109.17 E9.27742
G1 X169.554 Y109.353 E9.30147
G1 X170.418 Y109.613 E9.32548
G1 X171.257 Y109.949 E9.34953
G1 X172.062 Y110.357 E9.37354
G1 X172.828 Y110.836 E9.39758
G1 X173.549 Y111.38 E9.42161
G1 X174.219 Y111.985 E9.44563
G1 X174.833 Y112.648 E9.46967
G1 X175.385 Y113.362 E9.49369
G1 X175.873 Y114.123 E9.51774
G1 X176.291 Y114.923 E9.54176
G1 X176.637 Y115.757 E9.56579
G1 X176.907 Y116.619 E9.58982
G1 X177.102 Y117.511 E9.61411
G1 X177.215 Y118.17 E9.63191
G1 X177.453 Y119.681 E9.67261
G1 X177.922 Y122.197 E9.74071
G1 X178.456 Y124.675 E9.80815
G1 X179.005 Y126.931 E9.86993
G1 X179.186 Y127.816 E9.89397
G1 X179.289 Y128.713 E9.91799
G1 X179.312 Y129.255 E9.93243
G1 X179.326 Y130.231 E9.9584
G1 X179.323 Y143.304 E10.30625
G1 X179.312 Y144.007 E10.32496
G1 X179.258 Y144.908 E10.34897
G1 X179.124 Y145.801 E10.373
G1 X178.908 Y146.692 E10.39739
G1 X178.175 Y149.217 E10.46735
G1 X177.473 Y151.922 E10.54171
G1 X177.266 Y152.767 E10.56486
G1 X177.013 Y153.634 E10.58889
G1 X176.684 Y154.475 E10.61292
G1 X176.282 Y155.284 E10.63696
G1 X175.81 Y156.054 E10.66099
G1 X175.272 Y156.779 E10.68501
G1 X174.672 Y157.454 E10.70904
G1 X174.014 Y158.073 E10.73308
G1 X173.305 Y158.631 E10.75709
G1 X172.548 Y159.125 E10.78114
G1 X171.751 Y159.549 E10.80516
G1 X170.92 Y159.902 E10.82918
G1 X170.06 Y160.18 E10.85323
G1 X169.18 Y160.38 E10.87724
G1 X168.285 Y160.502 E10.90128
G1 X167.672 Y160.539 E10.91762
G1 X167.033 Y160.554 E10.93463
G1 X159.062 Y160.553 E11.14672
G1 X158.361 Y160.543 E11.16537
G1 X157.459 Y160.49 E11.18942
G1 X156.496 Y160.344 E11.21533
G1 X153.681 Y159.778 E11.29173
G1 X152.629 Y159.581 E11.32021
G1 X151.75 Y159.376 E11.34423
G1 X150.892 Y159.093 E11.36827
G1 X150.063 Y158.736 E11.39228
G1 X149.268 Y158.307 E11.41632
G1 X148.515 Y157.809 E11.44034
G1 X147.808 Y157.246 E11.46439
G1 X147.154 Y156.623 E11.48842
G1 X146.558 Y155.945 E11.51244
G1 X146.024 Y155.217 E11.53647
G1 X145.556 Y154.444 E11.56051
G1 X145.159 Y153.633 E11.58454
G1 X144.835 Y152.79 E11.60857
G1 X144.587 Y151.922 E11.63259
G1 X144.417 Y151.035 E11.65662
G1 X144.36 Y150.576 E11.66892
G1 X144.115 Y148.135 E11.7342
G1 X143.724 Y145.133 E11.81475
G1 X143.64 Y143.989 E11.84527
G1 X143.631 Y143.458 E11.85941
G1 X143.633 Y129.956 E12.21867
G1 F1500 E5.71867
;MESH:void_switch-v11.stl
G0 F6000 X156.048 Y126.568
G0 X157.126 Y126.567
G0 X158.094 Y125.599
;TYPE:WALL-INNER
G1 F1500 E12.21867
G1 F634.9 X158.458 Y125.613 E12.22783
G1 F606.1 X158.623 Y125.659 E12.23234
G1 F600 X158.679 Y125.637 E12.23394
G1 F629.9 X159.075 Y125.6 E12.24402
G1 F663 X165.677 Y125.6 E12.403
G1 X165.677 Y125.238 E12.41172
G1 X159.075 Y125.238 E12.57069
G1 F629.9 X158.644 Y125.248 E12.58162
G1 F606.1 X158.461 Y125.228 E12.58647
G1 F634.9 X158.094 Y125.238 E12.5957
G1 F659.3 X158.094 Y125.599 E12.60444
G0 F6000 X157.712 Y125.981
G1 F600 X158.267 Y125.984 E12.61921
G1 X158.623 Y126.093 E12.62912
G1 X158.792 Y126.021 E12.634
G1 X159.075 Y125.981 E12.64161
G1 X166.058 Y125.981 E12.82741
G1 X166.058 Y124.857 E12.85732
G1 X158.798 Y124.857 E13.0505
G1 X158.498 Y124.807 E13.05859
G1 X158.249 Y124.856 E13.06534
G1 X157.712 Y124.856 E13.07963
G1 X157.712 Y125.981 E13.10956
G0 F6000 X157.508 Y126.381
G1 F600 X158.229 Y126.382 E13.12875
G1 X158.434 Y126.44 E13.13442
G1 X158.623 Y126.6 E13.14101
G1 X158.812 Y126.44 E13.1476
G1 X158.996 Y126.381 E13.15274
G1 X166.458 Y126.381 E13.35129
G1 X166.458 Y124.457 E13.40248
G1 X158.798 Y124.457 E13.6063
G1 X158.582 Y124.417 E13.61214
G1 X158.498 Y124.304 E13.61589
G1 X158.414 Y124.417 E13.61964
G1 X158.229 Y124.456 E13.62467
G1 X157.498 Y124.456 E13.64412
G1 X157.312 Y124.3 E13.65058
G1 X157.312 Y126.577 E13.71116
G1 X157.508 Y126.381 E13.71854
G1 F1500 E7.21854
G0 F6000 X157.582 Y126.111
G0 X158.498 Y124.756
G1 F1500 E13.71854
G0 F6000 X158.498 Y123.882
;TYPE:WALL-OUTER
G1 F399.3 X158.498 Y122.356 E13.77955
G0 F6000 X158.498 Y121.456
G0 X158.106 Y120.96
;TYPE:WALL-INNER
G1 F610.7 X158.498 Y120.995 E13.78984
G1 F606.1 X158.644 Y120.964 E13.79377
G1 F629.9 X159.075 Y120.975 E13.80469
G1 F663 X165.677 Y120.975 E13.96367
G1 X165.677 Y120.613 E13.97239
G1 X159.075 Y120.612 E14.13137
G1 F629.9 X158.679 Y120.575 E14.14145
G1 F603 X158.645 Y120.562 E14.14241
G1 F609.1 X158.264 Y120.626 E14.15254
G1 F610.7 X158.106 Y120.627 E14.15667
G1 X158.106 Y120.96 E14.16537
G0 F6000 X157.71 Y121.356
G1 F600 X158.248 Y121.356 E14.17969
G1 X158.498 Y121.405 E14.18647
G1 X158.798 Y121.355 E14.19456
G1 X166.058 Y121.356 E14.38773
G1 X166.058 Y120.232 E14.41764
G1 X159.075 Y120.231 E14.60345
G1 X158.792 Y120.191 E14.61105
G1 X158.623 Y120.119 E14.61594
G1 X158.327 Y120.23 E14.62435
G1 X157.71 Y120.231 E14.64077
G1 X157.71 Y121.356 E14.6707
G0 F6000 X157.498 Y121.756
G1 F600 X158.228 Y121.756 E14.69013
G1 X158.413 Y121.795 E14.69516
G1 X158.498 Y121.919 E14.69916
G1 X158.583 Y121.795 E14.70316
G1 X158.798 Y121.755 E14.70898
G1 X166.458 Y121.756 E14.91279
G1 X166.458 Y119.832 E14.96399
G1 X158.997 Y119.831 E15.16251
G1 X158.812 Y119.772 E15.16768
G1 X158.623 Y119.612 E15.17427
G1 X158.434 Y119.772 E15.18086
G1 X158.211 Y119.831 E15.18699
G1 X157.508 Y119.831 E15.2057
G1 X157.31 Y119.665 E15.21257
G1 X157.31 Y121.944 E15.27321
G1 X157.498 Y121.756 E15.28029
G1 F1500 E8.78029
G0 F6000 X157.58 Y121.486
G0 X157.124 Y121.942
G0 X156.046 Y121.943
G0 X156.048 Y127.717
G0 X156.912 Y127.716
;TYPE:WALL-OUTER
G1 F1500 E15.28029
G1 F603 X156.996 Y127.781 E15.2831
G1 X157.228 Y127.782 E15.28924
G1 X157.309 Y127.717 E15.29199
G1 X157.309 Y126.981 E15.31148
G1 F601.5 X157.508 Y126.781 E15.31897
G1 F600 X158.236 Y126.781 E15.33834
G1 X158.334 Y126.863 E15.34174
G1 X158.429 Y127.105 E15.34865
G1 X158.902 Y126.933 E15.36205
G1 X158.912 Y126.863 E15.36393
G1 X159.04 Y126.783 E15.36794
G1 X166.858 Y126.781 E15.57597
G1 X166.858 Y124.356 E15.64049
G1 F532.2 X166.807 Y123.899 E15.65429
G1 X166.558 Y124.056 E15.66312
G1 F600 X158.746 Y124.057 E15.87098
G1 F479 X158.498 Y123.882 E15.8811
G1 X158.252 Y124.056 E15.89114
G1 F600 X157.498 Y124.056 E15.9112
G1 F603 X157.302 Y123.89 E15.918
G1 F607.6 X157.301 Y122.356 E15.95831
G1 F604.5 X157.498 Y122.156 E15.96572
G1 F600 X158.254 Y122.156 E15.98584
G1 F480 X158.498 Y122.356 E15.99633
G1 X158.743 Y122.155 E16.00687
G1 F600 X166.558 Y122.156 E16.21481
G1 F533.3 X166.808 Y122.356 E16.2244
G1 F505.3 X166.833 Y122.106 E16.23233
G1 F564.7 X166.858 Y121.856 E16.23944
G1 F600 X166.858 Y119.432 E16.30394
G1 X159.039 Y119.428 E16.51198
G1 X158.913 Y119.349 E16.51594
G1 X158.903 Y119.28 E16.5178
G1 X158.429 Y119.108 E16.53121
G1 X158.333 Y119.349 E16.53812
G1 X158.237 Y119.431 E16.54148
G1 X157.508 Y119.431 E16.56087
G1 F598.5 X157.309 Y119.266 E16.56777
G1 X157.307 Y118.506 E16.58804
G1 F600 X157.269 Y118.433 E16.59023
G1 X156.973 Y118.432 E16.59811
G1 X156.91 Y118.518 E16.60094
G1 F601.5 X156.91 Y121.584 E16.68232
G1 X156.911 Y124.65 E16.7637
G1 F603 X156.912 Y127.716 E16.84487
G1 F1500 E10.34487
G0 F6000 X158.561 Y126.823
G0 X166.807 Y123.899
G1 F1500 E16.84487
G1 F479 X166.808 Y122.356 E16.89629
G0 F6000 X165.858 Y121.274
G1 F1500 E10.39629
G0 F6000 X166.644 Y121.942
G0 X166.642 Y129.4
G0 X167.553 Y130.555
G0 X167.724 Y136.355
;TYPE:WALL-INNER
G1 F1500 E16.89629
G1 F600 X167.725 Y130.383 E17.0552
G1 X161.744 Y130.38 E17.21434
G1 X161.885 Y130.461 E17.21867
G1 X164.502 Y133.078 E17.31714
G1 X164.68 Y133.428 E17.32759
