;FLAVOR:Marlin
;TIME:2113
;Filament used: 0.407549m
;Layer height: 0.16
;MINX:83.095
;MINY:114.292
;MINZ:0.16
;MAXX:137.204
;MAXY:151.592
;MAXZ:10.56
;Generated with Cura_SteamEngine main
M82 ;absolute extrusion mode
; Ender 3 Custom Start G-code
G92 E0 ; Reset Extruder
G28 ; Home all axes
M104 S120 ; Start heating up the nozzle most of the way
M190 S68.0 ; Start heating the bed, wait until target temperature reached
M109 S248.0 ; Finish heating the nozzle
G1 Z2.0 F3000 ; Move Z Axis up little to prevent scratching of Heat Bed
G1 X0.1 Y20 Z0.3 F5000.0 ; Move to start position
G1 X0.1 Y200.0 Z0.3 F1500.0 E15 ; Draw the first line
G1 X0.4 Y200.0 Z0.3 F5000.0 ; Move to side a little
G1 X0.4 Y20 Z0.3 F1500.0 E30 ; Draw the second line
G92 E0 ; Reset Extruder
G1 Z2.0 F3000 ; Move Z Axis up little to prevent scratching of Heat Bed
G1 X5 Y20 Z0.3 F5000.0 ; Move over to prevent blob squish
G92 E0
G92 E0
G1 F1500 E-6.5
;LAYER_COUNT:66
;LAYER:0
M107
G0 F6000 X88.521 Y117.424 Z0.16
G0 X83.878 Y125.442
;TYPE:SKIRT
G1 F1500 E0
G1 F600 X84.081 Y124.362 E0.02924
G1 X84.293 Y123.449 E0.05418
G1 X84.582 Y122.556 E0.07915
G1 X84.946 Y121.692 E0.1041
G1 X85.383 Y120.862 E0.12906
G1 X85.888 Y120.072 E0.15401
G1 X86.459 Y119.328 E0.17896
G1 X87.091 Y118.635 E0.20392
G1 X87.78 Y117.999 E0.22887
G1 X88.521 Y117.424 E0.25382
G1 X89.308 Y116.914 E0.27878
G1 X90.136 Y116.472 E0.30375
G1 X90.998 Y116.103 E0.3287
G1 X91.888 Y115.809 E0.35364
G1 X93.027 Y115.55 E0.38472
G1 X94.392 Y115.315 E0.42157
G1 X96.93 Y114.842 E0.49027
G1 X97.744 Y114.668 E0.51242
G1 X98.502 Y114.518 E0.53298
G1 X99.429 Y114.377 E0.55793
G1 X100.405 Y114.314 E0.58395
G1 X101.65 Y114.292 E0.61708
G1 X114.507 Y114.294 E0.95918
G1 X115.211 Y114.305 E0.97792
G1 X116.147 Y114.36 E1.00287
G1 X117.075 Y114.494 E1.02781
G1 X117.989 Y114.707 E1.05279
G1 X118.62 Y114.903 E1.07037
G1 X119.528 Y115.216 E1.09592
G1 X122.007 Y116.031 E1.16536
G1 X124.349 Y116.729 E1.23038
G1 X127.556 Y117.573 E1.31862
G1 X128.615 Y117.832 E1.34763
G1 X129.516 Y118.094 E1.37259
G1 X130.391 Y118.431 E1.39754
G1 X131.234 Y118.841 E1.42249
G1 X132.039 Y119.322 E1.44744
G1 X132.835 Y119.898 E1.47358
G1 X133.033 Y120.055 E1.48031
G1 X133.743 Y120.668 E1.50526
G1 X134.397 Y121.34 E1.53022
G1 X134.992 Y122.065 E1.55517
G1 X135.523 Y122.838 E1.58012
G1 X135.987 Y123.654 E1.6051
G1 X136.379 Y124.506 E1.63006
G1 X136.697 Y125.388 E1.655
G1 X136.938 Y126.294 E1.67995
G1 X137.102 Y127.217 E1.70489
G1 X137.198 Y128.531 E1.73995
G1 X137.204 Y128.991 E1.75219
G1 X137.176 Y129.928 E1.77713
G1 X137.097 Y130.669 E1.79696
G1 X136.783 Y132.899 E1.85688
G1 X136.497 Y135.406 E1.92402
G1 X136.275 Y138.01 E1.99356
G1 X136.181 Y139.346 E2.0292
G1 X136.075 Y140.278 E2.05415
G1 X135.89 Y141.197 E2.0791
G1 X135.628 Y142.098 E2.10407
G1 X135.29 Y142.973 E2.12902
G1 X134.878 Y143.815 E2.15397
G1 X134.397 Y144.62 E2.17892
G1 X133.848 Y145.381 E2.20389
G1 X133.237 Y146.092 E2.22883
G1 X132.567 Y146.749 E2.2538
G1 X131.844 Y147.346 E2.27875
G1 X131.073 Y147.879 E2.30369
G1 X130.258 Y148.345 E2.32867
G1 X129.408 Y148.74 E2.35361
G1 X128.526 Y149.061 E2.37858
G1 X127.621 Y149.305 E2.40352
G1 X126.923 Y149.438 E2.42243
G1 X124.32 Y149.849 E2.49255
G1 X121.828 Y150.314 E2.56
G1 X119.353 Y150.85 E2.62738
G1 X117.597 Y151.272 E2.67543
G1 X116.677 Y151.452 E2.70038
G1 X115.745 Y151.553 E2.72532
G1 X115.201 Y151.576 E2.73981
G1 X114.388 Y151.589 E2.76144
G1 X101.278 Y151.592 E3.11028
G1 X100.373 Y151.578 E3.13436
G1 X99.437 Y151.523 E3.15931
G1 X98.509 Y151.388 E3.18426
G1 X97.339 Y151.099 E3.21633
G1 X96.171 Y150.742 E3.24883
G1 X93.725 Y150.03 E3.31661
G1 X91.324 Y149.403 E3.38264
G1 X90.427 Y149.127 E3.40761
G1 X89.557 Y148.776 E3.43257
G1 X88.721 Y148.353 E3.4575
G1 X87.923 Y147.859 E3.48247
G1 X87.17 Y147.3 E3.50743
G1 X86.468 Y146.678 E3.53238
G1 X85.821 Y145.999 E3.55734
G1 X85.235 Y145.267 E3.58229
G1 X84.713 Y144.488 E3.60724
G1 X84.259 Y143.667 E3.6322
G1 X83.877 Y142.811 E3.65715
G1 X83.569 Y141.925 E3.6821
G1 X83.338 Y141.016 E3.70706
G1 X83.185 Y140.09 E3.73203
G1 X83.109 Y139.102 E3.7584
G1 X83.095 Y138.472 E3.77517
G1 X83.095 Y130.917 E3.97619
G1 X83.106 Y130.211 E3.99498
G1 X83.161 Y129.274 E4.01995
G1 X83.321 Y128.215 E4.04845
G1 X83.878 Y125.442 E4.12371
G1 F1500 E-2.37629
G0 F6000 X83.895 Y130.929
G1 F1500 E4.12371
G1 F600 X83.906 Y130.223 E4.1425
G1 X83.96 Y129.322 E4.16651
G1 X84.105 Y128.372 E4.19208
G1 X84.667 Y125.575 E4.26799
G1 X84.867 Y124.51 E4.29683
G1 X85.073 Y123.63 E4.32088
G1 X85.355 Y122.773 E4.34488
G1 X85.713 Y121.943 E4.36893
G1 X86.142 Y121.149 E4.39295
G1 X86.64 Y120.395 E4.41699
G1 X87.203 Y119.689 E4.44102
G1 X87.826 Y119.035 E4.46505
G1 X88.504 Y118.439 E4.48907
G1 X89.233 Y117.905 E4.51311
G1 X90.005 Y117.438 E4.53712
G1 X90.817 Y117.041 E4.56117
G1 X91.66 Y116.717 E4.5852
G1 X92.528 Y116.469 E4.60922
G1 X93.162 Y116.339 E4.62644
G1 X94.46 Y116.116 E4.66149
G1 X97.101 Y115.624 E4.73297
G1 X97.912 Y115.45 E4.75504
G1 X98.656 Y115.303 E4.77522
G1 X99.549 Y115.168 E4.79925
G1 X100.421 Y115.114 E4.82249
G1 X101.65 Y115.092 E4.8552
G1 X114.494 Y115.094 E5.19695
G1 X115.198 Y115.105 E5.21569
G1 X116.1 Y115.159 E5.23973
G1 X116.993 Y115.293 E5.26376
G1 X117.871 Y115.505 E5.28779
G1 X118.36 Y115.66 E5.30144
G1 X119.249 Y115.966 E5.32646
G1 X121.739 Y116.785 E5.39621
G1 X124.162 Y117.507 E5.46348
G1 X127.343 Y118.344 E5.551
G1 X128.425 Y118.609 E5.58064
G1 X129.292 Y118.862 E5.60467
G1 X130.133 Y119.191 E5.6287
G1 X130.941 Y119.593 E5.65271
G1 X131.711 Y120.065 E5.67674
G1 X132.338 Y120.525 E5.69744
G1 X132.536 Y120.682 E5.70416
G1 X133.218 Y121.274 E5.72819
G1 X133.846 Y121.923 E5.75222
G1 X134.413 Y122.626 E5.77625
G1 X134.915 Y123.376 E5.80026
G1 X135.35 Y124.168 E5.82431
G1 X135.713 Y124.995 E5.84834
G1 X136.001 Y125.851 E5.87237
G1 X136.212 Y126.729 E5.8964
G1 X136.345 Y127.623 E5.92045
G1 X136.398 Y128.541 E5.94491
G1 X136.404 Y129.001 E5.95715
G1 X136.376 Y129.904 E5.98119
G1 X136.305 Y130.557 E5.99867
G1 X135.988 Y132.81 E6.05921
G1 X135.702 Y135.317 E6.12635
G1 X135.477 Y137.952 E6.19672
G1 X135.383 Y139.29 E6.23241
G1 X135.279 Y140.187 E6.25643
G1 X135.097 Y141.072 E6.28047
G1 X134.837 Y141.936 E6.30448
G1 X134.502 Y142.775 E6.32852
G1 X134.094 Y143.581 E6.35256
G1 X133.616 Y144.347 E6.37658
G1 X133.073 Y145.068 E6.4006
G1 X132.467 Y145.738 E6.42464
G1 X131.805 Y146.352 E6.44866
G1 X131.091 Y146.905 E6.47269
G1 X130.331 Y147.393 E6.49672
G1 X129.531 Y147.812 E6.52075
G1 X128.697 Y148.158 E6.54478
G1 X127.835 Y148.429 E6.56882
G1 X126.799 Y148.648 E6.597
G1 X124.186 Y149.061 E6.66739
G1 X121.655 Y149.533 E6.73589
G1 X119.17 Y150.071 E6.80354
G1 X117.41 Y150.494 E6.85171
G1 X116.524 Y150.666 E6.87572
G1 X115.188 Y150.776 E6.91139
G1 X114.375 Y150.789 E6.93303
G1 X101.106 Y150.791 E7.28609
G1 X100.387 Y150.779 E7.30522
G1 X99.485 Y150.724 E7.32927
G1 X98.592 Y150.589 E7.3533
G1 X97.573 Y150.334 E7.38125
G1 X96.419 Y149.981 E7.41336
G1 X93.931 Y149.257 E7.48231
G1 X91.526 Y148.629 E7.54844
G1 X90.663 Y148.362 E7.57248
G1 X89.827 Y148.02 E7.59652
G1 X89.025 Y147.605 E7.62054
G1 X88.262 Y147.122 E7.64457
G1 X87.546 Y146.572 E7.66859
G1 X86.88 Y145.961 E7.69264
G1 X86.272 Y145.294 E7.71666
G1 X85.724 Y144.576 E7.74069
G1 X85.243 Y143.812 E7.76471
G1 X84.831 Y143.008 E7.78875
G1 X84.491 Y142.171 E7.81279
G1 X84.227 Y141.308 E7.8368
G1 X84.041 Y140.424 E7.86084
G1 X83.909 Y139.077 E7.89685
G1 X83.895 Y138.472 E7.91295
G1 X83.895 Y130.929 E8.11366
G0 F6000 X83.495 Y130.923
G1 F600 X83.506 Y130.217 E8.13245
G1 X83.561 Y129.298 E8.15694
G1 X83.713 Y128.293 E8.18399
G1 X84.274 Y125.501 E8.25976
G1 X84.474 Y124.436 E8.2886
G1 X84.683 Y123.539 E8.3131
G1 X84.969 Y122.664 E8.3376
G1 X85.33 Y121.817 E8.3621
G1 X85.763 Y121.005 E8.38658
G1 X86.264 Y120.233 E8.41107
G1 X86.831 Y119.507 E8.43558
G1 X87.459 Y118.834 E8.46007
G1 X88.143 Y118.217 E8.48458
G1 X88.877 Y117.663 E8.50905
G1 X89.658 Y117.174 E8.53357
G1 X90.477 Y116.754 E8.55806
G1 X91.33 Y116.407 E8.58256
G1 X92.21 Y116.136 E8.60706
G1 X93.094 Y115.945 E8.63113
G1 X94.397 Y115.721 E8.66631
G1 X97.015 Y115.233 E8.73717
G1 X98.008 Y115.022 E8.76418
G1 X98.579 Y114.91 E8.77966
G1 X99.489 Y114.772 E8.80415
G1 X100.413 Y114.714 E8.82879
G1 X101.65 Y114.692 E8.86171
G1 X114.501 Y114.694 E9.20365
G1 X115.205 Y114.705 E9.22238
G1 X116.124 Y114.76 E9.24688
G1 X117.035 Y114.894 E9.27138
G1 X117.93 Y115.106 E9.29585
G1 X118.49 Y115.282 E9.31147
G1 X119.356 Y115.58 E9.33584
G1 X121.869 Y116.407 E9.40623
G1 X124.252 Y117.117 E9.47239
G1 X127.483 Y117.967 E9.56129
G1 X128.52 Y118.221 E9.5897
G1 X129.404 Y118.478 E9.61419
G1 X130.262 Y118.811 E9.63868
G1 X131.088 Y119.218 E9.66318
G1 X131.876 Y119.694 E9.68768
G1 X132.587 Y120.211 E9.71107
G1 X132.785 Y120.368 E9.7178
G1 X133.481 Y120.971 E9.7423
G1 X134.122 Y121.632 E9.7668
G1 X134.703 Y122.346 E9.79129
G1 X135.22 Y123.108 E9.81579
G1 X135.669 Y123.911 E9.84027
G1 X136.046 Y124.751 E9.86477
G1 X136.35 Y125.62 E9.88927
G1 X136.576 Y126.513 E9.91378
G1 X136.725 Y127.421 E9.93826
G1 X136.798 Y128.536 E9.96799
G1 X136.804 Y128.996 E9.98023
G1 X136.776 Y129.916 E10.00472
G1 X136.701 Y130.613 E10.02338
G1 X136.387 Y132.838 E10.08317
G1 X136.1 Y135.36 E10.15071
G1 X135.874 Y138.015 E10.22161
G1 X135.782 Y139.318 E10.25636
G1 X135.677 Y140.233 E10.28087
G1 X135.494 Y141.135 E10.30536
G1 X135.233 Y142.018 E10.32986
G1 X134.896 Y142.875 E10.35436
G1 X134.486 Y143.699 E10.37885
G1 X134.006 Y144.485 E10.40336
G1 X133.46 Y145.226 E10.42785
G1 X132.852 Y145.917 E10.45234
G1 X132.186 Y146.552 E10.47682
G1 X131.467 Y147.128 E10.50133
G1 X130.701 Y147.639 E10.52584
G1 X129.894 Y148.081 E10.55032
G1 X129.051 Y148.452 E10.57482
G1 X128.179 Y148.748 E10.59933
G1 X126.861 Y149.043 E10.63526
G1 X124.25 Y149.455 E10.7056
G1 X121.741 Y149.924 E10.77351
G1 X119.271 Y150.458 E10.84075
G1 X117.504 Y150.883 E10.88911
G1 X116.6 Y151.059 E10.91362
G1 X115.685 Y151.156 E10.9381
G1 X115.194 Y151.176 E10.95118
G1 X114.381 Y151.189 E10.97281
G1 X101.099 Y151.191 E11.32622
G1 X100.38 Y151.179 E11.34535
G1 X99.461 Y151.123 E11.36985
G1 X98.55 Y150.988 E11.39436
G1 X97.456 Y150.716 E11.42435
G1 X96.338 Y150.374 E11.45546
G1 X93.823 Y149.643 E11.52515
G1 X91.425 Y149.016 E11.5911
G1 X90.545 Y148.745 E11.6156
G1 X89.692 Y148.398 E11.6401
G1 X88.872 Y147.979 E11.66461
G1 X88.092 Y147.49 E11.6891
G1 X87.357 Y146.936 E11.71359
G1 X86.673 Y146.319 E11.7381
G1 X86.045 Y145.646 E11.76259
G1 X85.478 Y144.921 E11.78708
G1 X84.976 Y144.149 E11.81159
G1 X84.543 Y143.337 E11.83607
G1 X84.182 Y142.49 E11.86057
G1 X83.896 Y141.615 E11.88507
G1 X83.686 Y140.718 E11.90958
G1 X83.556 Y139.807 E11.93406
G1 X83.509 Y139.09 E11.95318
G1 X83.495 Y138.472 E11.96963
G1 X83.495 Y130.923 E12.1705
G1 F1500 E5.6705
;MESH:void_switch-v16.stl
G0 F6000 X97.821 Y131.786
;TYPE:WALL-INNER
G1 F1500 E12.1705
G1 F600 X97.821 Y130.832 E12.19588
G1 X97.591 Y130.779 E12.20216
G1 X97.41 Y130.65 E12.20807
G1 X97.228 Y130.779 E12.21401
G1 X96.915 Y130.881 E12.22277
G1 X95.977 Y130.881 E12.24773
G1 X95.657 Y130.83 E12.25635
G1 X95.43 Y130.705 E12.26324
G1 X95.293 Y130.794 E12.26759
G1 X95.095 Y130.836 E12.27298
G1 X95.092 Y131.789 E12.29833
G1 X95.475 Y131.661 E12.30908
G1 X97.44 Y131.661 E12.36136
G1 X97.821 Y131.786 E12.37203
G0 F6000 X97.37 Y131.21
G1 F538.1 X96.959 Y131.271 E12.38436
G1 F620.2 X96.468 Y131.271 E12.397
G1 F628.3 X95.977 Y131.271 E12.40948
G1 F575.5 X95.521 Y131.234 E12.42217
G1 F1500 E5.92217
G0 F6000 X98.13 Y132.661
G1 F1500 E12.42217
G1 F447.8 X98.175 Y132.316 E12.43457
G1 F539.3 X98.221 Y131.971 E12.44488
G1 F600 X98.221 Y130.545 E12.48282
G1 X98.184 Y130.481 E12.48479
G1 X98.034 Y130.481 E12.48878
G1 X97.768 Y130.42 E12.49604
G1 X97.612 Y130.309 E12.50113
G1 F562.1 X97.409 Y129.935 E12.51322
G1 X97.208 Y130.309 E12.52528
G1 F600 X97.051 Y130.42 E12.5304
G1 X96.865 Y130.481 E12.53561
G1 X95.977 Y130.481 E12.55923
G1 X95.785 Y130.45 E12.56441
G1 X95.575 Y130.328 E12.57087
G1 X95.43 Y130.033 E12.57962
G1 X95.284 Y130.328 E12.58838
G1 X95.129 Y130.429 E12.5933
G1 X94.882 Y130.481 E12.60001
G1 X94.731 Y130.481 E12.60403
G1 X94.694 Y130.568 E12.60655
G1 X94.692 Y131.971 E12.64388
G1 F539.3 X94.738 Y132.316 E12.65418
G1 F448.6 X94.785 Y132.661 E12.66657
G1 X94.949 Y132.421 E12.67692
G1 F539.3 X95.113 Y132.181 E12.68552
G1 F600 X95.475 Y132.061 E12.69567
G1 X97.44 Y132.061 E12.74795
G1 X97.803 Y132.18 E12.75812
G1 F539.3 X97.966 Y132.42 E12.76671
G1 F447.8 X98.13 Y132.661 E12.7771
G1 F1500 E6.2771
G0 F6000 X97.641 Y138.567
;TYPE:WALL-OUTER
G1 F1500 E12.7771
G1 F600 X98.621 Y138.567 E12.80318
G1 X98.621 Y130.437 E13.0195
G1 X98.414 Y130.081 E13.03046
G1 X98.034 Y130.081 E13.04057
G1 X97.893 Y130.024 E13.04462
G1 X97.834 Y129.899 E13.04829
G1 X97.833 Y126.581 E13.13658
G1 X96.985 Y126.581 E13.15914
G1 X96.985 Y129.899 E13.24743
G1 X96.926 Y130.024 E13.25111
G1 X96.82 Y130.079 E13.25428
G1 X95.93 Y130.081 E13.27797
G1 F505.3 X95.703 Y129.905 E13.28704
G1 F437.2 X95.703 Y128.279 E13.34642
G1 F438.8 X95.703 Y126.653 E13.40559
G1 X95.156 Y126.654 E13.42549
G1 X95.156 Y128.28 E13.48466
G1 F437.2 X95.156 Y129.906 E13.54404
G1 F505.3 X94.945 Y130.081 E13.5527
G1 F600 X94.501 Y130.081 E13.56451
G1 X94.294 Y130.437 E13.57547
G1 X94.294 Y130.568 E13.57895
G1 X94.295 Y138.567 E13.79179
G1 X95.275 Y138.567 E13.81787
G1 X95.275 Y132.661 E13.97502
G1 X95.354 Y132.501 E13.97976
G1 X95.475 Y132.461 E13.98316
G1 X97.44 Y132.461 E14.03544
G1 X97.561 Y132.5 E14.03882
G1 X97.64 Y132.661 E14.04359
G1 X97.641 Y138.567 E14.20074
G0 F6000 X98.131 Y138.077
;TYPE:WALL-INNER
G1 F413.8 X98.131 Y135.369 E14.30522
G1 F413.1 X98.13 Y132.661 E14.40988
G1 F1500 E7.90988
G0 F6000 X97.409 Y129.935
G1 F1500 E14.40988
G1 F529.8 X97.409 Y128.47 E14.45403
G1 F532.2 X97.409 Y127.005 E14.49798
G1 F1500 E7.99798
G0 F6000 X94.785 Y132.661
G1 F1500 E14.49798
G1 F413.8 X94.785 Y138.077 E14.70694
G1 F1500 E8.20694
G0 F6000 X106.379 Y139.19
G1 F1500 E14.70694
G1 F600 X106.243 Y139.112 E14.71111
G1 X101.568 Y134.436 E14.88705
G1 X101.568 Y139.191 E15.01357
G1 X106.379 Y139.19 E15.14158
G1 F1500 E8.64158
G0 F6000 X108.09 Y139.19
G1 F1500 E15.14158
G1 F600 X114.066 Y139.189 E15.30059
G1 X114.066 Y133.216 E15.45952
G1 X113.988 Y133.349 E15.46362
G1 X111.369 Y135.966 E15.56214
G1 X111.02 Y136.144 E15.57256
G1 X110.842 Y136.494 E15.58301
G1 X108.225 Y139.112 E15.6815
G1 X108.09 Y139.19 E15.68565
G1 F1500 E9.18565
G0 F6000 X114.066 Y131.5
G1 F1500 E15.68565
G1 F600 X114.066 Y126.693 E15.81356
G1 X109.313 Y126.693 E15.94003
G1 X113.988 Y131.367 E16.11592
G1 X114.066 Y131.5 E16.12003
G1 F1500 E9.62003
G0 F6000 X106.211 Y139.59
G1 F1500 E16.12003
G1 F589.7 X106.481 Y139.584 E16.12734
G1 F568.7 X106.751 Y139.577 E16.13492
G1 F549.2 X107.021 Y139.57 E16.14277
G1 F540.5 X107.449 Y139.569 E16.15541
G1 F550.5 X107.718 Y139.575 E16.16322
G1 F568.7 X107.987 Y139.582 E16.17077
G1 F589.7 X108.256 Y139.589 E16.17806
G1 F600 X114.466 Y139.589 E16.34329
G1 X114.466 Y133.381 E16.50848
G1 F589.7 X114.459 Y133.111 E16.51579
G1 F570.1 X114.452 Y132.841 E16.52335
G1 F551.7 X114.445 Y132.571 E16.53117
G1 F541.8 X114.445 Y132.144 E16.54375
G1 F551.7 X114.452 Y131.874 E16.55157
G1 F570.1 X114.459 Y131.604 E16.55913
G1 F589.7 X114.466 Y131.334 E16.56644
G1 F600 X114.466 Y126.293 E16.70057
G1 X108.347 Y126.293 E16.86339
G1 X113.705 Y131.65 E17.06499
G1 F592.6 X113.855 Y131.89 E17.07261
G1 F578.3 X114.005 Y132.13 E17.08043
G1 F570.1 X114.005 Y132.586 E17.0932
G1 F578.3 X113.855 Y132.826 E17.10101
G1 F592.6 X113.705 Y133.066 E17.10863
G1 F600 X111.211 Y135.558 E17.20244
G1 X110.945 Y135.749 E17.21116
G1 X110.7 Y135.824 E17.21798
G1 X110.625 Y136.069 E17.22479
G1 X110.434 Y136.336 E17.23353
G1 X107.942 Y138.829 E17.32732
G1 F592.6 X107.702 Y138.979 E17.33494
G1 F576.9 X107.461 Y139.129 E17.3428
G1 F568.7 X107.007 Y139.129 E17.35554
G1 F576.9 X106.767 Y138.979 E17.36338
G1 F592.6 X106.526 Y138.829 E17.37102
G1 F600 X101.168 Y133.471 E17.57264
G1 X101.168 Y139.591 E17.73548
G1 X106.211 Y139.59 E17.86967
G1 F1500 E11.36967
G0 F6000 X114.866 Y139.989
G1 F1500 E17.86967
G1 F600 X114.866 Y125.893 E18.24474
G1 X107.774 Y125.893 E18.43344
