;FLAVOR:Marlin
;TIME:1955
;Filament used: 0.419012m
;Layer height: 0.16
;MINX:83.094
;MINY:91.353
;MINZ:0.16
;MAXX:137.207
;MAXY:128.648
;MAXZ:10.56
;Generated with Cura_SteamEngine main
M82 ;absolute extrusion mode
; Ender 3 Custom Start G-code
G92 E0 ; Reset Extruder
G28 ; Home all axes
M104 S120 ; Start heating up the nozzle most of the way
M190 S68.0 ; Start heating the bed, wait until target temperature reached
M109 S248.0 ; Finish heating the nozzle
G1 Z2.0 F3000 ; Move Z Axis up little to prevent scratching of Heat Bed
G1 X0.1 Y20 Z0.3 F5000.0 ; Move to start position
G1 X0.1 Y200.0 Z0.3 F1500.0 E15 ; Draw the first line
G1 X0.4 Y200.0 Z0.3 F5000.0 ; Move to side a little
G1 X0.4 Y20 Z0.3 F1500.0 E30 ; Draw the second line
G92 E0 ; Reset Extruder
G1 Z2.0 F3000 ; Move Z Axis up little to prevent scratching of Heat Bed
G1 X5 Y20 Z0.3 F5000.0 ; Move over to prevent blob squish
G92 E0
G92 E0
G1 F1500 E-3.5
;LAYER_COUNT:66
;LAYER:0
M107
G0 F6000 X87.669 Y95.15 Z0.16
G0 X84.054 Y101.561
;TYPE:SKIRT
G1 F1500 E0
G1 F600 X84.254 Y100.645 E0.02495
G1 X84.531 Y99.749 E0.0499
G1 X84.884 Y98.88 E0.07486
G1 X85.309 Y98.044 E0.09981
G1 X85.804 Y97.248 E0.12475
G1 X86.365 Y96.496 E0.14972
G1 X86.988 Y95.795 E0.17467
G1 X87.669 Y95.15 E0.19963
G1 X88.402 Y94.565 E0.22458
G1 X89.182 Y94.044 E0.24954
G1 X90.004 Y93.592 E0.2745
G1 X90.861 Y93.212 E0.29945
G1 X91.748 Y92.906 E0.32441
G1 X93.033 Y92.605 E0.35953
G1 X94.298 Y92.388 E0.39368
G1 X96.859 Y91.911 E0.463
G1 X98.347 Y91.599 E0.50345
G1 X99.272 Y91.446 E0.5284
G1 X100.429 Y91.366 E0.55926
G1 X101.241 Y91.353 E0.58086
G1 X114.505 Y91.355 E0.93379
G1 X115.205 Y91.366 E0.95242
G1 X116.141 Y91.421 E0.97737
G1 X117.069 Y91.555 E1.00232
G1 X118.149 Y91.816 E1.03188
G1 X119.2 Y92.128 E1.06105
G1 X120.328 Y92.483 E1.09252
G1 X122.719 Y93.162 E1.15865
G1 X125.182 Y93.786 E1.22626
G1 X127.112 Y94.224 E1.27892
G1 X128.374 Y94.497 E1.31328
G1 X129.282 Y94.734 E1.33825
G1 X130.166 Y95.047 E1.3632
G1 X131.02 Y95.435 E1.38816
G1 X131.838 Y95.893 E1.4131
G1 X132.614 Y96.42 E1.43806
G1 X133.342 Y97.011 E1.46301
G1 X134.169 Y97.818 E1.49376
G1 X134.857 Y98.62 E1.52187
G1 X135.405 Y99.381 E1.54683
G1 X135.885 Y100.187 E1.57179
G1 X136.295 Y101.03 E1.59673
G1 X136.632 Y101.906 E1.6217
G1 X136.893 Y102.806 E1.64664
G1 X137.077 Y103.726 E1.6716
G1 X137.181 Y104.658 E1.69655
G1 X137.207 Y105.474 E1.71828
G1 X137.205 Y105.848 E1.72823
G1 X137.115 Y107.196 E1.76418
G1 X137.034 Y107.815 E1.78079
G1 X136.799 Y109.459 E1.82498
G1 X136.518 Y111.934 E1.89125
G1 X136.302 Y114.462 E1.95876
G1 X136.247 Y115.401 E1.98379
G1 X136.179 Y116.36 E2.00937
G1 X136.073 Y117.292 E2.03433
G1 X135.888 Y118.211 E2.05928
G1 X135.625 Y119.112 E2.08425
G1 X135.287 Y119.986 E2.10918
G1 X134.875 Y120.829 E2.13415
G1 X134.393 Y121.633 E2.15909
G1 X133.844 Y122.394 E2.18406
G1 X133.232 Y123.105 E2.20902
G1 X132.562 Y123.761 E2.23397
G1 X131.839 Y124.358 E2.25892
G1 X131.067 Y124.891 E2.28388
G1 X130.253 Y125.356 E2.30883
G1 X129.402 Y125.751 E2.33379
G1 X128.521 Y126.071 E2.35873
G1 X127.615 Y126.315 E2.3837
G1 X127.066 Y126.424 E2.39859
G1 X126.425 Y126.533 E2.41589
G1 X124.858 Y126.779 E2.4581
G1 X122.381 Y127.241 E2.52514
G1 X119.959 Y127.763 E2.59106
G1 X119.043 Y127.992 E2.61619
G1 X118.832 Y128.035 E2.62192
G1 X117.569 Y128.337 E2.65647
G1 X116.648 Y128.516 E2.68144
G1 X115.715 Y128.616 E2.7064
G1 X115.22 Y128.636 E2.71958
G1 X114.479 Y128.648 E2.7393
G1 X101.144 Y128.645 E3.09412
G1 X100.457 Y128.635 E3.11241
G1 X99.544 Y128.584 E3.13674
G1 X98.356 Y128.468 E3.1685
G1 X95.858 Y128.255 E3.23521
G1 X94.036 Y128.152 E3.28376
G1 X93.349 Y128.105 E3.30208
G1 X92.416 Y128.001 E3.32706
G1 X91.497 Y127.818 E3.352
G1 X90.596 Y127.557 E3.37696
G1 X89.721 Y127.22 E3.40191
G1 X88.877 Y126.81 E3.42687
G1 X88.072 Y126.329 E3.45182
G1 X87.31 Y125.782 E3.47678
G1 X86.598 Y125.172 E3.50173
G1 X85.94 Y124.503 E3.5267
G1 X85.342 Y123.781 E3.55164
G1 X84.807 Y123.01 E3.57661
G1 X84.34 Y122.197 E3.60156
G1 X83.944 Y121.347 E3.62651
G1 X83.622 Y120.466 E3.65147
G1 X83.376 Y119.561 E3.67642
G1 X83.208 Y118.638 E3.70139
G1 X83.109 Y117.455 E3.73297
G1 X83.094 Y116.792 E3.75062
G1 X83.095 Y108.275 E3.97724
G1 X83.106 Y107.569 E3.99603
G1 X83.161 Y106.632 E4.021
G1 X83.289 Y105.737 E4.04506
G1 X83.475 Y104.739 E4.07207
G1 X83.667 Y103.788 E4.09789
G1 X84.054 Y101.561 E4.15803
G1 F1500 E0.65803
G0 F6000 X83.895 Y108.287
G1 F1500 E4.15803
G1 F600 X83.906 Y107.581 E4.17682
G1 X83.96 Y106.68 E4.20084
G1 X84.076 Y105.882 E4.22229
G1 X84.259 Y104.898 E4.24892
G1 X84.451 Y103.944 E4.27482
G1 X84.842 Y101.699 E4.33545
G1 X85.036 Y100.817 E4.35948
G1 X85.307 Y99.955 E4.38352
G1 X85.654 Y99.121 E4.40756
G1 X86.073 Y98.321 E4.43159
G1 X86.561 Y97.561 E4.45562
G1 X87.114 Y96.847 E4.47965
G1 X87.728 Y96.185 E4.50367
G1 X88.398 Y95.58 E4.52769
G1 X89.12 Y95.037 E4.55173
G1 X89.886 Y94.559 E4.57576
G1 X90.692 Y94.151 E4.59979
G1 X91.531 Y93.816 E4.62383
G1 X92.396 Y93.557 E4.64786
G1 X93.168 Y93.394 E4.66885
G1 X94.369 Y93.188 E4.70128
G1 X97.038 Y92.691 E4.77351
G1 X98.511 Y92.382 E4.81356
G1 X99.402 Y92.236 E4.83758
G1 X100.442 Y92.166 E4.86532
G1 X101.419 Y92.152 E4.89132
G1 X114.492 Y92.155 E5.23917
G1 X115.192 Y92.166 E5.25779
G1 X116.094 Y92.22 E5.28184
G1 X116.987 Y92.354 E5.30586
G1 X117.922 Y92.583 E5.33148
G1 X118.96 Y92.891 E5.36029
G1 X120.08 Y93.244 E5.39153
G1 X122.523 Y93.937 E5.4591
G1 X125.002 Y94.565 E5.52715
G1 X126.959 Y95.01 E5.58055
G1 X128.205 Y95.279 E5.61447
G1 X129.079 Y95.508 E5.63851
G1 X129.928 Y95.814 E5.66252
G1 X130.748 Y96.194 E5.68657
G1 X131.53 Y96.645 E5.71059
G1 X132.27 Y97.163 E5.73462
G1 X132.961 Y97.745 E5.75866
G1 X133.594 Y98.374 E5.7824
G1 X134.249 Y99.14 E5.80922
G1 X134.772 Y99.876 E5.83325
G1 X135.229 Y100.656 E5.8573
G1 X135.614 Y101.472 E5.88131
G1 X135.926 Y102.32 E5.90535
G1 X136.162 Y103.192 E5.92939
G1 X136.319 Y104.081 E5.95341
G1 X136.398 Y104.981 E5.97745
G1 X136.407 Y105.47 E5.99046
G1 X136.405 Y105.844 E6.00041
G1 X136.321 Y107.094 E6.03375
G1 X136.242 Y107.702 E6.05006
G1 X136.005 Y109.364 E6.09473
G1 X135.723 Y111.844 E6.16114
G1 X135.505 Y114.385 E6.229
G1 X135.459 Y115.201 E6.25075
G1 X135.381 Y116.303 E6.28015
G1 X135.278 Y117.201 E6.3042
G1 X135.095 Y118.085 E6.32822
G1 X134.835 Y118.95 E6.35225
G1 X134.499 Y119.788 E6.37627
G1 X134.091 Y120.594 E6.40031
G1 X133.613 Y121.36 E6.42434
G1 X133.069 Y122.081 E6.44837
G1 X132.463 Y122.751 E6.47241
G1 X131.801 Y123.364 E6.49641
G1 X131.086 Y123.917 E6.52046
G1 X130.326 Y124.404 E6.54448
G1 X129.526 Y124.823 E6.56851
G1 X128.691 Y125.168 E6.59255
G1 X127.83 Y125.439 E6.61657
G1 X126.93 Y125.635 E6.64108
G1 X126.301 Y125.742 E6.65805
G1 X124.725 Y125.99 E6.7005
G1 X122.25 Y126.451 E6.76749
G1 X119.777 Y126.984 E6.8348
G1 X118.849 Y127.216 E6.86026
G1 X118.65 Y127.256 E6.86566
G1 X117.383 Y127.559 E6.90032
G1 X116.496 Y127.73 E6.92436
G1 X115.205 Y127.836 E6.95882
G1 X114.479 Y127.848 E6.97814
G1 X101.156 Y127.845 E7.33264
G1 X100.469 Y127.835 E7.35093
G1 X99.622 Y127.787 E7.3735
G1 X98.507 Y127.678 E7.40331
G1 X95.898 Y127.456 E7.47298
G1 X93.955 Y127.345 E7.52476
G1 X93.403 Y127.307 E7.53949
G1 X92.506 Y127.205 E7.56351
G1 X91.621 Y127.024 E7.58754
G1 X90.756 Y126.766 E7.61156
G1 X89.917 Y126.432 E7.63559
G1 X89.111 Y126.025 E7.65961
G1 X88.343 Y125.549 E7.68366
G1 X87.621 Y125.006 E7.70769
G1 X86.95 Y124.402 E7.73172
G1 X86.335 Y123.741 E7.75574
G1 X85.781 Y123.027 E7.77978
G1 X85.292 Y122.268 E7.80381
G1 X84.872 Y121.469 E7.82783
G1 X84.525 Y120.635 E7.85186
G1 X84.252 Y119.774 E7.8759
G1 X84.057 Y118.892 E7.89993
G1 X83.941 Y117.997 E7.92394
G1 X83.908 Y117.432 E7.939
G1 X83.894 Y116.792 E7.95604
G1 X83.895 Y108.287 E8.18234
G0 F6000 X83.495 Y108.281
G1 F600 X83.506 Y107.575 E8.20113
G1 X83.561 Y106.656 E8.22562
G1 X83.682 Y105.809 E8.24839
G1 X83.867 Y104.818 E8.27521
G1 X84.059 Y103.867 E8.30103
G1 X84.448 Y101.63 E8.36144
G1 X84.645 Y100.731 E8.38593
G1 X84.919 Y99.852 E8.41043
G1 X85.269 Y99 E8.43494
G1 X85.691 Y98.182 E8.45943
G1 X86.183 Y97.404 E8.48392
G1 X86.74 Y96.671 E8.50842
G1 X87.359 Y95.989 E8.53293
G1 X88.034 Y95.364 E8.5574
G1 X88.761 Y94.799 E8.5819
G1 X89.535 Y94.3 E8.60641
G1 X90.349 Y93.869 E8.63091
G1 X91.197 Y93.511 E8.65541
G1 X92.073 Y93.228 E8.6799
G1 X93.1 Y92.999 E8.7079
G1 X94.373 Y92.781 E8.74226
G1 X96.969 Y92.297 E8.81253
G1 X98.429 Y91.991 E8.85222
G1 X99.337 Y91.841 E8.87671
G1 X100.435 Y91.766 E8.90599
G1 X101.247 Y91.753 E8.9276
G1 X114.499 Y91.755 E9.28021
G1 X115.199 Y91.766 E9.29884
G1 X116.118 Y91.821 E9.32334
G1 X117.028 Y91.955 E9.34781
G1 X118.036 Y92.199 E9.37541
G1 X118.899 Y92.454 E9.39935
G1 X120.172 Y92.854 E9.43485
G1 X122.617 Y93.548 E9.50248
G1 X125.121 Y94.182 E9.57121
G1 X127.016 Y94.613 E9.62292
G1 X128.29 Y94.888 E9.6576
G1 X129.18 Y95.121 E9.68208
G1 X130.047 Y95.431 E9.70658
G1 X130.884 Y95.814 E9.73107
G1 X131.685 Y96.269 E9.75558
G1 X132.443 Y96.792 E9.78009
G1 X133.152 Y97.378 E9.80456
G1 X133.882 Y98.095 E9.83179
G1 X134.553 Y98.88 E9.85927
G1 X135.089 Y99.629 E9.88377
G1 X135.557 Y100.422 E9.90827
G1 X135.955 Y101.252 E9.93277
G1 X136.28 Y102.113 E9.95725
G1 X136.528 Y103 E9.98176
G1 X136.699 Y103.905 E10.00627
G1 X136.79 Y104.821 E10.03076
G1 X136.807 Y105.472 E10.04809
G1 X136.805 Y105.846 E10.05804
G1 X136.718 Y107.145 E10.09268
G1 X136.638 Y107.759 E10.10916
G1 X136.404 Y109.399 E10.15323
G1 X136.117 Y111.922 E10.2208
G1 X135.904 Y114.406 E10.28714
G1 X135.858 Y115.224 E10.30894
G1 X135.78 Y116.332 E10.33849
G1 X135.676 Y117.246 E10.36297
G1 X135.492 Y118.148 E10.38746
G1 X135.23 Y119.031 E10.41197
G1 X134.893 Y119.888 E10.43647
G1 X134.483 Y120.712 E10.46096
G1 X134.003 Y121.498 E10.48547
G1 X133.456 Y122.239 E10.50997
G1 X132.847 Y122.929 E10.53446
G1 X132.181 Y123.565 E10.55897
G1 X131.462 Y124.14 E10.58346
G1 X130.696 Y124.65 E10.60795
G1 X129.888 Y125.092 E10.63245
G1 X129.046 Y125.463 E10.65694
G1 X128.174 Y125.758 E10.68143
G1 X126.998 Y126.03 E10.71355
G1 X126.508 Y126.114 E10.72678
G1 X124.829 Y126.378 E10.772
G1 X122.295 Y126.85 E10.84058
G1 X119.868 Y127.373 E10.90664
G1 X118.946 Y127.604 E10.93194
G1 X118.745 Y127.645 E10.93739
G1 X117.476 Y127.948 E10.97211
G1 X116.572 Y128.123 E10.99661
G1 X115.213 Y128.236 E11.03289
G1 X114.479 Y128.248 E11.05243
G1 X101.15 Y128.245 E11.40709
G1 X100.463 Y128.235 E11.42537
G1 X99.583 Y128.185 E11.44882
G1 X98.513 Y128.08 E11.47743
G1 X95.841 Y127.853 E11.54878
G1 X93.928 Y127.744 E11.59977
G1 X93.376 Y127.706 E11.61449
G1 X92.461 Y127.603 E11.63899
G1 X91.559 Y127.421 E11.66347
G1 X90.675 Y127.161 E11.68799
G1 X89.818 Y126.826 E11.71247
G1 X88.993 Y126.417 E11.73698
G1 X88.206 Y125.939 E11.76148
G1 X87.464 Y125.394 E11.78597
G1 X86.772 Y124.787 E11.81046
G1 X86.136 Y124.122 E11.83495
G1 X85.559 Y123.404 E11.85946
G1 X85.047 Y122.639 E11.88395
G1 X84.603 Y121.832 E11.90846
G1 X84.231 Y120.99 E11.93295
G1 X83.934 Y120.119 E11.95744
G1 X83.713 Y119.225 E11.98194
G1 X83.57 Y118.315 E12.00645
G1 X83.509 Y117.444 E12.02969
G1 X83.494 Y116.792 E12.04704
G1 X83.495 Y108.281 E12.2735
G1 F1500 E8.7735
;MESH:void_switch-v46.stl
G0 F6000 X97.421 Y109.199
;TYPE:WALL-INNER
G1 F1500 E12.2735
G1 F600 X97.421 Y108.189 E12.30037
G1 X96.915 Y108.339 E12.31442
G1 X95.936 Y108.339 E12.34047
G1 X95.495 Y108.238 E12.3525
G1 X95.494 Y109.199 E12.37807
G1 X97.421 Y109.199 E12.42935
G0 F6000 X97.821 Y109.724
G1 F600 X97.821 Y108.01 E12.47495
G1 X97.751 Y107.89 E12.47865
G1 X97.591 Y107.837 E12.48314
G1 X97.41 Y107.708 E12.48905
G1 X97.228 Y107.837 E12.49499
G1 X96.895 Y107.934 E12.50421
G1 X95.948 Y107.939 E12.52941
G1 X95.567 Y107.852 E12.53981
G1 X95.43 Y107.763 E12.54416
G1 X95.165 Y107.89 E12.55198
G1 X95.095 Y108.011 E12.5557
G1 X95.092 Y109.727 E12.60136
G1 X95.475 Y109.599 E12.6121
G1 X97.44 Y109.599 E12.66439
G1 X97.821 Y109.724 E12.67506
G0 F6000 X98.13 Y110.599
G1 F447.8 X98.175 Y110.254 E12.68746
G1 F539.3 X98.221 Y109.909 E12.69776
G1 F600 X98.221 Y107.903 E12.75114
G1 X98.007 Y107.535 E12.76247
G1 X97.768 Y107.478 E12.769
G1 X97.612 Y107.367 E12.7741
G1 F562.1 X97.409 Y106.993 E12.78619
G1 X97.208 Y107.367 E12.79825
G1 F600 X97.051 Y107.478 E12.80336
G1 X96.851 Y107.536 E12.8089
G1 X95.959 Y107.539 E12.83264
G1 X95.731 Y107.487 E12.83886
G1 X95.575 Y107.386 E12.84381
G1 X95.43 Y107.091 E12.85255
G1 X95.284 Y107.386 E12.86131
G1 X95.087 Y107.504 E12.86742
G1 X94.908 Y107.535 E12.87225
G1 X94.695 Y107.903 E12.88357
G1 X94.692 Y109.909 E12.93694
G1 F539.3 X94.738 Y110.254 E12.94725
G1 F448.6 X94.785 Y110.599 E12.95964
G1 X94.949 Y110.359 E12.96998
G1 F539.3 X95.113 Y110.119 E12.97859
G1 F600 X95.475 Y109.999 E12.98873
G1 X97.44 Y109.999 E13.04102
G1 X97.803 Y110.118 E13.05118
G1 F539.3 X97.966 Y110.358 E13.05977
G1 F447.8 X98.13 Y110.599 E13.07017
G1 F1500 E9.57017
G0 F6000 X97.641 Y116.939
;TYPE:WALL-OUTER
G1 F1500 E13.07017
G1 F600 X98.621 Y116.939 E13.09624
G1 X98.621 Y107.795 E13.33955
G1 X98.24 Y107.139 E13.35973
G1 X97.945 Y107.119 E13.3676
G1 X97.834 Y106.957 E13.37282
G1 X97.833 Y103.639 E13.46111
G1 X96.985 Y103.639 E13.48367
G1 X96.985 Y106.957 E13.57196
G1 X96.926 Y107.082 E13.57564
G1 X96.807 Y107.138 E13.57914
G1 X95.916 Y107.139 E13.60284
G1 F505.3 X95.703 Y106.963 E13.61157
G1 F437.2 X95.702 Y103.713 E13.73026
G1 F438 X95.156 Y103.713 E13.75017
G1 F437.2 X95.156 Y106.963 E13.86886
G1 F505.3 X94.951 Y107.128 E13.87717
G1 F600 X94.675 Y107.139 E13.88452
G1 X94.295 Y107.795 E13.90469
G1 X94.295 Y116.94 E14.14802
G1 X95.275 Y116.939 E14.1741
G1 X95.275 Y110.599 E14.3428
G1 X95.354 Y110.439 E14.34754
G1 X95.475 Y110.399 E14.35093
G1 X97.44 Y110.399 E14.40322
G1 X97.561 Y110.438 E14.4066
G1 X97.64 Y110.599 E14.41137
G1 X97.641 Y116.939 E14.58007
G0 F6000 X98.131 Y116.449
;TYPE:WALL-INNER
G1 F413.8 X98.131 Y113.524 E14.69292
G1 F413.1 X98.13 Y110.599 E14.80597
G1 F1500 E11.30597
G0 F6000 X94.785 Y110.599
G1 F1500 E14.80597
G1 F413.8 X94.785 Y116.449 E15.03167
G1 F1500 E11.53167
G0 F6000 X97.409 Y106.993
G1 F1500 E15.03167
G1 F529.8 X97.409 Y105.528 E15.07582
G1 F532.2 X97.409 Y104.063 E15.11977
G1 F1500 E11.61977
G0 F6000 X96.988 Y108.766
;TYPE:SKIN
G1 F1500 E15.11977
G1 F442 X95.925 Y108.769 E15.15816
G1 F1500 E11.65816
G0 F6000 X101.237 Y104.329
;TYPE:WALL-INNER
G1 F1500 E15.15816
G1 F449.4 X102.147 Y103.419 E15.20388
G1 X101.237 Y103.42 E15.2362
G1 X101.237 Y104.329 E15.26849
G1 F1500 E11.76849
G0 F6000 X100.798 Y109.345
G1 F1500 E15.26849
G1 F490.8 X100.963 Y108.879 E15.28457
G1 F464.2 X101.451 Y108.392 E15.30828
G1 F475.2 X101.22 Y108.161 E15.31926
G1 F570.1 X101.088 Y107.763 E15.331
G1 F691.6 X101.086 Y106.592 E15.35803
G1 F697.7 X101.083 Y105.421 E15.38482
G1 F646.9 X101.229 Y104.997 E15.39589
G1 F600 X102.815 Y103.411 E15.45557
G1 F641.7 X103.141 Y103.27 E15.46441
G1 F693.6 X104.312 Y103.268 E15.49136
G1 F699.7 X105.483 Y103.265 E15.51808
G1 F633.2 X105.73 Y103.332 E15.52453
G1 F528.6 X105.978 Y103.4 E15.5323
G1 F477.1 X106.21 Y103.633 E15.5433
G1 F466 X106.697 Y103.144 E15.56694
G1 F488.8 X107.054 Y102.985 E15.57971
G1 X106.642 Y103.01 E15.59319
G1 F466 X106.21 Y103.01 E15.60799
G1 F487.8 X106.096 Y102.987 E15.61179
G1 F549.2 X105.789 Y102.956 E15.62076
G1 F643.4 X105.482 Y102.924 E15.62842
G1 F699.7 X104.296 Y102.925 E15.65548
G1 F693.6 X103.11 Y102.926 E15.68278
G1 F641.7 X102.625 Y102.953 E15.69486
G1 F600 X100.77 Y102.953 E15.74422
G1 X100.77 Y104.807 E15.79355
G1 F623.4 X100.755 Y105.115 E15.80145
G1 F672.3 X100.74 Y105.423 E15.80877
G1 F697.7 X100.741 Y106.608 E15.83589
G1 F691.6 X100.742 Y107.794 E15.86326
G1 F586.8 X100.804 Y108.279 E15.87657
G1 F486.8 X100.827 Y108.392 E15.88035
G1 F464.2 X100.827 Y108.823 E15.89517
G1 F477.1 X100.813 Y109.084 E15.90392
G1 F505.3 X100.798 Y109.345 E15.91218
G1 F1500 E12.41218
G0 F6000 X106.474 Y116.247
G1 F1500 E15.91218
G1 F600 X106.172 Y116.071 E15.92148
G1 X101.569 Y111.466 E16.09473
G1 X101.569 Y116.246 E16.22191
G1 X106.474 Y116.247 E16.35242
G0 F6000 X107.849 Y116.248
G1 F600 X114.066 Y116.247 E16.51785
G1 X114.066 Y110.033 E16.68319
G1 X113.889 Y110.336 E16.69253
G1 X111.292 Y112.931 E16.79021
G1 X110.928 Y113.11 E16.80101
G1 X110.747 Y113.477 E16.81189
