;FLAVOR:Marlin
;TIME:1558
;Filament used: 0.418067m
;Layer height: 0.16
;MINX:54.51
;MINY:28.188
;MINZ:0.16
;MAXX:108.621
;MAXY:65.482
;MAXZ:10.4
;Generated with Cura_SteamEngine main
M82 ;absolute extrusion mode
; Ender 3 Custom Start G-code
G92 E0 ; Reset Extruder
G28 ; Home all axes
M104 S120 ; Start heating up the nozzle most of the way
M190 S68.0 ; Start heating the bed, wait until target temperature reached
M109 S252.0 ; Finish heating the nozzle
G1 Z2.0 F3000 ; Move Z Axis up little to prevent scratching of Heat Bed
G1 X0.1 Y20 Z0.3 F5000.0 ; Move to start position
G1 X0.1 Y200.0 Z0.3 F1500.0 E15 ; Draw the first line
G1 X0.4 Y200.0 Z0.3 F5000.0 ; Move to side a little
G1 X0.4 Y20 Z0.3 F1500.0 E30 ; Draw the second line
G92 E0 ; Reset Extruder
G1 Z2.0 F3000 ; Move Z Axis up little to prevent scratching of Heat Bed
G1 X5 Y20 Z0.3 F5000.0 ; Move over to prevent blob squish
G92 E0
G92 E0
G1 F1500 E-6.5
;LAYER_COUNT:65
;LAYER:0
M107
G0 F6000 X56.798 Y34.79 Z0.16
G0 X55.293 Y39.37
;TYPE:SKIRT
G1 F1500 E0
G1 F900 X55.496 Y38.29 E0.02924
G1 X55.708 Y37.377 E0.05418
G1 X55.997 Y36.484 E0.07915
G1 X56.361 Y35.62 E0.1041
G1 X56.798 Y34.79 E0.12906
G1 X57.303 Y34 E0.15401
G1 X57.874 Y33.256 E0.17896
G1 X58.506 Y32.563 E0.20392
G1 X59.195 Y31.927 E0.22887
G1 X59.936 Y31.352 E0.25382
G1 X60.723 Y30.842 E0.27878
G1 X61.551 Y30.4 E0.30375
G1 X62.413 Y30.031 E0.3287
G1 X63.303 Y29.737 E0.35364
G1 X64.424 Y29.481 E0.38424
G1 X65.042 Y29.374 E0.40092
G1 X67.554 Y28.905 E0.46892
G1 X69.733 Y28.441 E0.5282
G1 X70.658 Y28.285 E0.55316
G1 X71.846 Y28.201 E0.58485
G1 X72.655 Y28.188 E0.60638
G1 X85.92 Y28.19 E0.95933
G1 X86.62 Y28.201 E0.97796
G1 X87.556 Y28.256 E1.00291
G1 X88.484 Y28.39 E1.02786
G1 X89.398 Y28.603 E1.05283
G1 X90 Y28.789 E1.06959
G1 X92.139 Y29.519 E1.12973
G1 X94.534 Y30.276 E1.19657
G1 X96.983 Y30.975 E1.26433
G1 X99.054 Y31.508 E1.32123
G1 X100.133 Y31.773 E1.3508
G1 X101.033 Y32.035 E1.37574
G1 X101.908 Y32.373 E1.4007
G1 X102.751 Y32.784 E1.42565
G1 X103.556 Y33.265 E1.4506
G1 X104.317 Y33.813 E1.47555
G1 X105.028 Y34.425 E1.50052
G1 X105.685 Y35.094 E1.52547
G1 X106.283 Y35.817 E1.55043
G1 X106.675 Y36.368 E1.56842
G1 X107.175 Y37.162 E1.59339
G1 X107.604 Y37.995 E1.61832
G1 X107.961 Y38.862 E1.64327
G1 X108.243 Y39.757 E1.66824
G1 X108.448 Y40.672 E1.69319
G1 X108.574 Y41.601 E1.71813
G1 X108.621 Y42.674 E1.74671
G1 X108.619 Y43.038 E1.7564
G1 X108.523 Y44.432 E1.79358
G1 X108.421 Y45.197 E1.81411
G1 X108.239 Y46.427 E1.8472
G1 X107.941 Y48.929 E1.91424
G1 X107.67 Y52.02 E1.9968
G1 X107.596 Y53.07 E2.02481
G1 X107.49 Y54.002 E2.04977
G1 X107.305 Y54.921 E2.07471
G1 X107.043 Y55.822 E2.09968
G1 X106.705 Y56.696 E2.12461
G1 X106.294 Y57.539 E2.14957
G1 X105.812 Y58.344 E2.17453
G1 X105.263 Y59.105 E2.1995
G1 X104.652 Y59.816 E2.22444
G1 X103.982 Y60.473 E2.24941
G1 X103.259 Y61.07 E2.27436
G1 X102.488 Y61.603 E2.2993
G1 X101.674 Y62.069 E2.32426
G1 X100.823 Y62.464 E2.34922
G1 X99.942 Y62.784 E2.37416
G1 X99.036 Y63.029 E2.39913
G1 X98.491 Y63.137 E2.41392
G1 X97.275 Y63.347 E2.44675
G1 X94.78 Y63.813 E2.51429
G1 X92.293 Y64.352 E2.582
G1 X89.096 Y65.146 E2.66965
G1 X88.177 Y65.333 E2.6946
G1 X87.246 Y65.441 E2.71954
G1 X86.621 Y65.469 E2.73619
G1 X85.81 Y65.482 E2.75777
G1 X72.546 Y65.48 E3.1107
G1 X71.845 Y65.469 E3.12935
G1 X70.795 Y65.402 E3.15735
G1 X68.261 Y65.119 E3.22519
G1 X65.657 Y64.898 E3.29473
G1 X64.747 Y64.834 E3.319
G1 X63.815 Y64.728 E3.34396
G1 X62.896 Y64.544 E3.3689
G1 X61.995 Y64.281 E3.39387
G1 X61.12 Y63.943 E3.41883
G1 X60.277 Y63.532 E3.44379
G1 X59.473 Y63.05 E3.46873
G1 X58.712 Y62.502 E3.49368
G1 X58.001 Y61.891 E3.51863
G1 X57.344 Y61.221 E3.5436
G1 X56.747 Y60.498 E3.56854
G1 X56.213 Y59.726 E3.59352
G1 X55.747 Y58.912 E3.61848
G1 X55.353 Y58.062 E3.64341
G1 X55.032 Y57.18 E3.66838
G1 X54.787 Y56.275 E3.69333
G1 X54.621 Y55.352 E3.71828
G1 X54.524 Y54.199 E3.74907
G1 X54.51 Y53.569 E3.76584
G1 X54.51 Y44.845 E3.99797
G1 X54.521 Y44.139 E4.01675
G1 X54.576 Y43.202 E4.04173
G1 X54.736 Y42.143 E4.07023
G1 X55.293 Y39.37 E4.14548
G1 F1500 E-2.35452
G0 F6000 X55.31 Y44.857
G1 F1500 E4.14548
G1 F900 X55.321 Y44.151 E4.16427
G1 X55.375 Y43.25 E4.18829
G1 X55.52 Y42.3 E4.21386
G1 X56.082 Y39.503 E4.28977
G1 X56.282 Y38.438 E4.3186
G1 X56.488 Y37.558 E4.34265
G1 X56.77 Y36.701 E4.36666
G1 X57.128 Y35.871 E4.39071
G1 X57.557 Y35.077 E4.41472
G1 X58.055 Y34.323 E4.43876
G1 X58.618 Y33.617 E4.46279
G1 X59.241 Y32.963 E4.48682
G1 X59.919 Y32.367 E4.51084
G1 X60.648 Y31.833 E4.53489
G1 X61.42 Y31.366 E4.5589
G1 X62.232 Y30.969 E4.58295
G1 X63.075 Y30.645 E4.60698
G1 X63.943 Y30.397 E4.631
G1 X64.561 Y30.27 E4.64778
G1 X65.091 Y30.178 E4.6621
G1 X67.741 Y29.683 E4.73383
G1 X69.899 Y29.224 E4.79253
G1 X70.79 Y29.075 E4.81657
G1 X71.859 Y29.001 E4.84508
G1 X72.834 Y28.987 E4.87103
G1 X85.907 Y28.99 E5.21888
G1 X86.607 Y29.001 E5.2375
G1 X87.509 Y29.055 E5.26155
G1 X88.402 Y29.189 E5.28557
G1 X89.28 Y29.401 E5.30961
G1 X89.741 Y29.547 E5.32247
G1 X91.852 Y30.267 E5.38182
G1 X94.325 Y31.05 E5.45084
G1 X96.757 Y31.744 E5.51814
G1 X98.836 Y32.279 E5.57526
G1 X99.942 Y32.55 E5.60556
G1 X100.809 Y32.804 E5.6296
G1 X101.65 Y33.133 E5.65362
G1 X102.458 Y33.535 E5.67764
G1 X103.228 Y34.008 E5.70168
G1 X103.953 Y34.547 E5.72572
G1 X104.627 Y35.147 E5.74973
G1 X105.246 Y35.805 E5.77377
G1 X105.962 Y36.734 E5.80498
G1 X106.496 Y37.587 E5.83175
G1 X106.906 Y38.392 E5.85579
G1 X107.243 Y39.23 E5.87983
G1 X107.505 Y40.094 E5.90385
G1 X107.689 Y40.978 E5.92787
G1 X107.794 Y41.875 E5.9519
G1 X107.821 Y42.67 E5.97307
G1 X107.819 Y43.034 E5.98276
G1 X107.73 Y44.326 E6.01721
G1 X107.628 Y45.091 E6.03775
G1 X107.446 Y46.318 E6.07076
G1 X107.147 Y48.828 E6.13801
G1 X106.873 Y51.951 E6.22143
G1 X106.798 Y53.014 E6.24979
G1 X106.695 Y53.911 E6.27381
G1 X106.512 Y54.795 E6.29783
G1 X106.253 Y55.66 E6.32186
G1 X105.917 Y56.499 E6.3459
G1 X105.509 Y57.304 E6.36992
G1 X105.032 Y58.071 E6.39395
G1 X104.488 Y58.792 E6.41798
G1 X103.883 Y59.462 E6.442
G1 X103.22 Y60.076 E6.46605
G1 X102.506 Y60.629 E6.49008
G1 X101.746 Y61.117 E6.51411
G1 X100.946 Y61.536 E6.53814
G1 X100.112 Y61.882 E6.56216
G1 X99.25 Y62.153 E6.58621
G1 X98.355 Y62.349 E6.61058
G1 X97.135 Y62.559 E6.64352
G1 X94.607 Y63.032 E6.71196
G1 X92.101 Y63.575 E6.78018
G1 X88.904 Y64.369 E6.86783
G1 X88.018 Y64.548 E6.89189
G1 X87.121 Y64.648 E6.9159
G1 X86.608 Y64.669 E6.92956
G1 X85.632 Y64.683 E6.95553
G1 X72.559 Y64.68 E7.30338
G1 X71.858 Y64.669 E7.32204
G1 X70.884 Y64.607 E7.34801
G1 X68.345 Y64.323 E7.41598
G1 X65.709 Y64.1 E7.48637
G1 X64.803 Y64.036 E7.51054
G1 X63.906 Y63.933 E7.53457
G1 X63.021 Y63.751 E7.55861
G1 X62.156 Y63.491 E7.58264
G1 X61.318 Y63.156 E7.60665
G1 X60.512 Y62.748 E7.63069
G1 X59.746 Y62.27 E7.65471
G1 X59.025 Y61.726 E7.67875
G1 X58.354 Y61.121 E7.70279
G1 X57.74 Y60.459 E7.72681
G1 X57.187 Y59.745 E7.75084
G1 X56.699 Y58.985 E7.77487
G1 X56.281 Y58.185 E7.79889
G1 X55.934 Y57.351 E7.82293
G1 X55.663 Y56.489 E7.84697
G1 X55.47 Y55.607 E7.87099
G1 X55.355 Y54.711 E7.89503
G1 X55.324 Y54.174 E7.90934
G1 X55.31 Y53.569 E7.92544
G1 X55.31 Y44.857 E8.15725
G0 F6000 X54.91 Y44.851
G1 F900 X54.921 Y44.145 E8.17604
G1 X54.976 Y43.226 E8.20054
G1 X55.128 Y42.221 E8.22758
G1 X55.689 Y39.429 E8.30336
G1 X55.889 Y38.364 E8.33219
G1 X56.098 Y37.467 E8.3567
G1 X56.384 Y36.592 E8.38119
G1 X56.745 Y35.745 E8.40569
G1 X57.178 Y34.933 E8.43018
G1 X57.679 Y34.161 E8.45466
G1 X58.246 Y33.435 E8.47917
G1 X58.874 Y32.762 E8.50367
G1 X59.558 Y32.145 E8.52818
G1 X60.292 Y31.591 E8.55265
G1 X61.073 Y31.102 E8.57717
G1 X61.892 Y30.682 E8.60166
G1 X62.745 Y30.335 E8.62616
G1 X63.625 Y30.064 E8.65066
G1 X64.492 Y29.876 E8.67426
G1 X65.027 Y29.783 E8.68871
G1 X67.632 Y29.297 E8.75922
G1 X69.816 Y28.832 E8.81864
G1 X70.724 Y28.68 E8.84313
G1 X71.853 Y28.601 E8.87325
G1 X72.662 Y28.588 E8.89478
G1 X85.914 Y28.59 E9.24739
G1 X86.614 Y28.601 E9.26602
G1 X87.533 Y28.656 E9.29051
G1 X88.443 Y28.79 E9.31499
G1 X89.339 Y29.002 E9.33949
G1 X89.87 Y29.168 E9.35429
G1 X91.975 Y29.886 E9.41347
G1 X94.441 Y30.666 E9.48229
G1 X96.888 Y31.365 E9.55
G1 X98.863 Y31.873 E9.60426
G1 X100.037 Y32.161 E9.63643
G1 X100.921 Y32.419 E9.66093
G1 X101.779 Y32.753 E9.68543
G1 X102.605 Y33.16 E9.70993
G1 X103.393 Y33.637 E9.73444
G1 X104.136 Y34.18 E9.75893
G1 X104.829 Y34.786 E9.78342
G1 X105.467 Y35.45 E9.80792
G1 X106.287 Y36.501 E9.84339
G1 X106.836 Y37.375 E9.87086
G1 X107.255 Y38.194 E9.89533
G1 X107.603 Y39.047 E9.91985
G1 X107.875 Y39.926 E9.94433
G1 X108.069 Y40.826 E9.96883
G1 X108.185 Y41.739 E9.99332
G1 X108.221 Y42.672 E10.01816
G1 X108.219 Y43.036 E10.02784
G1 X108.126 Y44.379 E10.06367
G1 X108.024 Y45.144 E10.0842
G1 X107.84 Y46.391 E10.11774
G1 X107.543 Y48.877 E10.18436
G1 X107.273 Y51.956 E10.2666
G1 X107.197 Y53.042 E10.29557
G1 X107.092 Y53.956 E10.32005
G1 X106.909 Y54.859 E10.34456
G1 X106.648 Y55.741 E10.36904
G1 X106.311 Y56.598 E10.39354
G1 X105.901 Y57.423 E10.41805
G1 X105.422 Y58.208 E10.44252
G1 X104.875 Y58.95 E10.46705
G1 X104.267 Y59.641 E10.49154
G1 X103.601 Y60.276 E10.51602
G1 X102.882 Y60.852 E10.54054
G1 X102.116 Y61.362 E10.56502
G1 X101.309 Y61.805 E10.58952
G1 X100.466 Y62.176 E10.61403
G1 X99.595 Y62.472 E10.6385
G1 X98.423 Y62.743 E10.67051
G1 X97.211 Y62.952 E10.70323
G1 X94.687 Y63.424 E10.77156
G1 X92.185 Y63.966 E10.83968
G1 X89 Y64.757 E10.927
G1 X88.098 Y64.94 E10.95149
G1 X87.183 Y65.044 E10.97599
G1 X86.615 Y65.069 E10.99112
G1 X85.804 Y65.082 E11.0127
G1 X72.553 Y65.08 E11.36528
G1 X71.852 Y65.069 E11.38394
G1 X70.84 Y65.004 E11.41092
G1 X68.306 Y64.721 E11.47877
G1 X65.715 Y64.501 E11.54795
G1 X64.775 Y64.435 E11.57303
G1 X63.86 Y64.33 E11.59753
G1 X62.958 Y64.147 E11.62202
G1 X62.075 Y63.886 E11.64652
G1 X61.218 Y63.549 E11.67103
G1 X60.394 Y63.14 E11.6955
G1 X59.608 Y62.66 E11.72001
G1 X58.867 Y62.114 E11.7445
G1 X58.176 Y61.506 E11.76899
G1 X57.54 Y60.84 E11.79349
G1 X56.965 Y60.121 E11.81799
G1 X56.454 Y59.355 E11.84249
G1 X56.011 Y58.548 E11.86699
G1 X55.641 Y57.705 E11.89148
G1 X55.344 Y56.833 E11.91599
G1 X55.125 Y55.939 E11.94048
G1 X54.984 Y55.029 E11.96499
G1 X54.924 Y54.186 E11.98747
G1 X54.91 Y53.569 E12.0039
G1 X54.91 Y44.851 E12.23587
G1 F1500 E5.73587
;MESH:void_switch-v26.stl
G0 F6000 X68.836 Y46.059
;TYPE:WALL-INNER
G1 F1500 E12.23587
G1 F900 X68.836 Y45.059 E12.26247
G1 X68.326 Y45.209 E12.27662
G1 X67.347 Y45.209 E12.30267
G1 X66.909 Y45.108 E12.31463
G1 X66.909 Y46.059 E12.33993
G1 X68.836 Y46.059 E12.39121
G0 F6000 X69.236 Y46.584
G1 F900 X69.236 Y44.76 E12.43974
G1 X69.006 Y44.707 E12.44602
G1 X68.825 Y44.578 E12.45193
G1 X68.643 Y44.707 E12.45787
G1 X68.291 Y44.809 E12.46762
G1 X67.359 Y44.809 E12.49242
G1 X66.981 Y44.722 E12.50274
G1 X66.844 Y44.633 E12.50709
G1 X66.707 Y44.722 E12.51143
G1 X66.509 Y44.764 E12.51682
G1 X66.507 Y46.587 E12.56533
G1 X66.89 Y46.459 E12.57607
G1 X68.855 Y46.459 E12.62836
G1 X69.236 Y46.584 E12.63903
G0 F6000 X69.545 Y47.459
G1 F671.6 X69.59 Y47.114 E12.65143
G1 F809 X69.636 Y46.769 E12.66173
G1 F900 X69.636 Y44.473 E12.72283
G1 X69.599 Y44.409 E12.72479
G1 X69.449 Y44.409 E12.72878
G1 X69.183 Y44.348 E12.73605
G1 X69.027 Y44.237 E12.74114
G1 F843.1 X68.824 Y43.863 E12.75323
G1 X68.623 Y44.237 E12.76529
G1 F900 X68.466 Y44.348 E12.7704
G1 X68.268 Y44.406 E12.77589
G1 X67.372 Y44.409 E12.79973
G1 X67.145 Y44.357 E12.80593
G1 X66.989 Y44.256 E12.81088
G1 X66.844 Y43.963 E12.81957
G1 X66.699 Y44.256 E12.82827
G1 X66.543 Y44.357 E12.83322
G1 X66.297 Y44.409 E12.83991
G1 X66.146 Y44.409 E12.84393
G1 X66.109 Y44.473 E12.84589
G1 X66.107 Y46.769 E12.90699
G1 F809 X66.153 Y47.114 E12.91729
G1 F672.9 X66.2 Y47.459 E12.92968
G1 X66.364 Y47.219 E12.94002
G1 F809 X66.528 Y46.979 E12.94863
G1 F900 X66.89 Y46.859 E12.95878
G1 X68.855 Y46.859 E13.01106
G1 X69.218 Y46.978 E13.02123
G1 F809 X69.381 Y47.218 E13.02981
G1 F671.6 X69.545 Y47.459 E13.04021
G1 F1500 E6.54021
G0 F6000 X70.036 Y53.669
;TYPE:WALL-OUTER
G1 F1500 E13.04021
G1 F900 X70.036 Y44.365 E13.28777
G1 X69.829 Y44.009 E13.29873
G1 X69.449 Y44.009 E13.30884
G1 X69.308 Y43.952 E13.31288
G1 X69.249 Y43.827 E13.31656
G1 X69.248 Y40.509 E13.40485
G1 X68.4 Y40.509 E13.42741
G1 X68.4 Y43.827 E13.5157
G1 X68.341 Y43.952 E13.51938
G1 X68.223 Y44.008 E13.52285
G1 X67.33 Y44.009 E13.54661
G1 F759.5 X67.117 Y43.833 E13.55532
G1 F656.9 X67.117 Y40.582 E13.67383
G1 F658.1 X66.571 Y40.582 E13.6937
G1 F656.9 X66.571 Y43.833 E13.81221
G1 F759.5 X66.358 Y44.009 E13.82092
G1 F900 X65.916 Y44.009 E13.83268
G1 X65.709 Y44.365 E13.84364
G1 X65.71 Y53.669 E14.0912
G1 X66.69 Y53.669 E14.11728
G1 X66.69 Y47.459 E14.28251
G1 X66.769 Y47.299 E14.28726
G1 X66.89 Y47.259 E14.29065
G1 X68.855 Y47.259 E14.34294
G1 X68.976 Y47.298 E14.34632
G1 X69.055 Y47.459 E14.35109
G1 X69.056 Y53.669 E14.51633
G1 X70.036 Y53.669 E14.5424
G0 F6000 X69.546 Y53.179
;TYPE:WALL-INNER
G1 F620.7 X69.546 Y50.319 E14.65275
G1 F619.6 X69.545 Y47.459 E14.76328
G1 F1500 E8.26328
G0 F6000 X66.2 Y47.459
G1 F1500 E14.76328
G1 F620.7 X66.2 Y53.179 E14.98397
G1 F1500 E8.48397
G0 F6000 X68.824 Y43.863
G1 F1500 E14.98397
G1 F794.7 X68.824 Y42.398 E15.02812
G1 F798.2 X68.824 Y40.933 E15.07207
G1 F1500 E8.57207
G0 F6000 X68.407 Y45.63
;TYPE:SKIN
G1 F1500 E15.07207
G1 F671.6 X67.87 Y45.632 E15.09121
G1 F676.7 X67.333 Y45.634 E15.11022
G1 F1500 E8.61022
G0 F6000 X72.585 Y41.451
;TYPE:WALL-INNER
G1 F1500 E15.11022
G1 F900 X73.849 Y40.188 E15.15776
G1 X72.586 Y40.188 E15.19137
G1 X72.585 Y41.451 E15.22497
G0 F6000 X72.997 Y40.558
G1 F1058.8 X72.934 Y40.594 E15.22662
G1 X72.913 Y40.558 E15.22756
G1 X72.975 Y40.522 E15.22918
G1 F1500 E8.72918
G0 F6000 X72.262 Y46.247
G1 F1500 E15.22918
G1 F649.8 X72.459 Y45.768 E15.24827
G1 X72.931 Y45.295 E15.27289
G1 F664.2 X72.691 Y45.056 E15.2851
G1 F789.5 X72.554 Y44.645 E15.29824
G1 F947.4 X72.552 Y43.479 E15.32772
G1 F954.9 X72.549 Y42.313 E15.35696
G1 F927.8 X72.712 Y41.889 E15.36868
G1 F900 X74.287 Y40.314 E15.42795
G1 F920.7 X74.609 Y40.156 E15.43728
G1 F947.4 X75.774 Y40.154 E15.46673
G1 F954.9 X76.939 Y40.151 E15.49594
G1 F869.6 X77.193 Y40.219 E15.50319
G1 F731.7 X77.447 Y40.287 E15.51179
G1 F664.2 X77.693 Y40.534 E15.52436
G1 F649.8 X78.166 Y40.061 E15.54901
G1 F644 X78.528 Y39.869 E15.56425
G1 F641.7 X78.11 Y39.868 E15.57985
G1 F647.5 X77.692 Y39.866 E15.59531
G1 F678 X77.581 Y39.842 E15.59932
G1 F757.9 X77.26 Y39.809 E15.60951
G1 F880.2 X76.939 Y39.776 E15.61829
G1 F957.4 X74.712 Y39.776 E15.67399
G1 F942.4 X74.39 Y39.782 E15.68218
G1 F913.7 X74.068 Y39.788 E15.69062
G1 F900 X72.186 Y39.788 E15.7407
G1 X72.185 Y41.671 E15.7908
G1 F913.7 X72.179 Y41.993 E15.79924
G1 F942.4 X72.173 Y42.315 E15.80742
G1 F954.9 X72.174 Y43.496 E15.83704
G1 F947.4 X72.176 Y44.678 E15.86692
G1 F871.7 X72.207 Y44.931 E15.87392
G1 F754.7 X72.239 Y45.185 E15.88204
G1 F678 X72.263 Y45.295 E15.88602
G1 F649.8 X72.262 Y46.247 E15.9211
G1 F1500 E9.4211
G0 F6000 X77.888 Y53.081
G1 F1500 E15.9211
G1 F900 X77.654 Y52.945 E15.92831
G1 X72.986 Y48.275 E16.104
G1 X72.986 Y53.08 E16.23185
G1 X77.888 Y53.081 E16.36228
G1 F1500 E9.86228
G0 F6000 X85.482 Y53.082
G1 F1500 E16.36228
G1 F900 X85.482 Y46.999 E16.52414
G1 X85.342 Y47.238 E16.53151
G1 X82.905 Y49.673 E16.62318
G1 X82.705 Y49.84 E16.63011
G1 X82.391 Y49.992 E16.63939
G1 X82.239 Y50.307 E16.6487
G1 X82.072 Y50.509 E16.65567
G1 X79.636 Y52.945 E16.74734
G1 X79.402 Y53.081 E16.75454
G1 X85.482 Y53.082 E16.91632
G1 F1500 E10.41632
G0 F6000 X85.482 Y45.494
G1 F1500 E16.91632
G1 F900 X85.482 Y40.59 E17.0468
G1 X80.676 Y40.59 E17.17468
G1 X85.342 Y45.256 E17.35026
G1 X85.482 Y45.494 E17.35761
G1 F1500 E10.85761
G0 F6000 X85.882 Y53.482
G1 F1500 E17.35761
G1 F900 X85.882 Y47.296 E17.5222
G1 F873.8 X85.87 Y46.946 E17.5318
G1 F823.8 X85.857 Y46.596 E17.54198
G1 F779.2 X85.845 Y46.467 E17.54597
G1 F759.5 X85.845 Y46.027 E17.55984
G1 F780.9 X85.858 Y45.897 E17.56385
G1 F825.7 X85.87 Y45.547 E17.574
G1 F873.8 X85.882 Y45.197 E17.5836
G1 F900 X85.882 Y40.19 E17.71683
G1 X79.71 Y40.19 E17.88105
G1 X85.059 Y45.539 E18.08233
G1 F880.2 X85.217 Y45.782 E18.09022
G1 F843.1 X85.375 Y46.025 E18.09845
G1 F823.8 X85.375 Y46.47 E18.11139
