;FLAVOR:Marlin
;TIME:810
;Filament used: 0.20511m
;Layer height: 0.16
;MINX:92.5
;MINY:92.5
;MINZ:0.16
;MAXX:127.5
;MAXY:127.5
;MAXZ:8.8
;Generated with Cura_SteamEngine main
M82 ;absolute extrusion mode
; Ender 3 Custom Start G-code
G92 E0 ; Reset Extruder
G28 ; Home all axes
M104 S120 ; Start heating up the nozzle most of the way
M190 S64.0 ; Start heating the bed, wait until target temperature reached
M109 S250.0 ; Finish heating the nozzle
G1 Z2.0 F3000 ; Move Z Axis up little to prevent scratching of Heat Bed
G1 X0.1 Y20 Z0.3 F5000.0 ; Move to start position
G1 X0.1 Y200.0 Z0.3 F1500.0 E15 ; Draw the first line
G1 X0.4 Y200.0 Z0.3 F5000.0 ; Move to side a little
G1 X0.4 Y20 Z0.3 F1500.0 E30 ; Draw the second line
G92 E0 ; Reset Extruder
G1 Z2.0 F3000 ; Move Z Axis up little to prevent scratching of Heat Bed
G1 X5 Y20 Z0.3 F5000.0 ; Move over to prevent blob squish
G92 E0
G92 E0
G1 F2100 E-4
;LAYER_COUNT:55
;LAYER:0
M107
G0 F6000 X95.698 Y95.764 Z0.16
G0 X92.501 Y104.025
;TYPE:SKIRT
G1 F2100 E0
G1 F600 X92.51 Y103.36 E0.01734
G1 X92.563 Y102.424 E0.04179
G1 X92.695 Y101.495 E0.06626
G1 X92.906 Y100.581 E0.09072
G1 X93.194 Y99.689 E0.11516
G1 X93.557 Y98.824 E0.13962
G1 X93.992 Y97.993 E0.16408
G1 X94.496 Y97.203 E0.18851
G1 X95.066 Y96.458 E0.21297
G1 X95.698 Y95.764 E0.23745
G1 X96.386 Y95.127 E0.2619
G1 X97.126 Y94.551 E0.28635
G1 X97.912 Y94.039 E0.31081
G1 X98.739 Y93.597 E0.33526
G1 X99.601 Y93.227 E0.35972
G1 X100.491 Y92.931 E0.38418
G1 X101.403 Y92.713 E0.40863
G1 X102.33 Y92.572 E0.43308
G1 X103.201 Y92.513 E0.45585
G1 X103.83 Y92.5 E0.47225
G1 X115.951 Y92.501 E0.78832
G1 X116.649 Y92.511 E0.80652
G1 X117.585 Y92.565 E0.83097
G1 X118.513 Y92.697 E0.85541
G1 X119.427 Y92.909 E0.87988
G1 X120.319 Y93.198 E0.90433
G1 X121.184 Y93.561 E0.92879
G1 X122.014 Y93.997 E0.95324
G1 X122.805 Y94.502 E0.97771
G1 X123.549 Y95.073 E1.00216
G1 X124.242 Y95.705 E1.02662
G1 X124.879 Y96.393 E1.05107
G1 X125.454 Y97.134 E1.07553
G1 X125.965 Y97.92 E1.09997
G1 X126.407 Y98.748 E1.12445
G1 X126.776 Y99.61 E1.1489
G1 X127.071 Y100.5 E1.17335
G1 X127.289 Y101.412 E1.1978
G1 X127.429 Y102.34 E1.22227
G1 X127.487 Y103.201 E1.24477
G1 X127.5 Y103.83 E1.26118
G1 X127.499 Y115.9 E1.57592
G1 X127.49 Y116.627 E1.59487
G1 X127.439 Y117.564 E1.61934
G1 X127.307 Y118.492 E1.64379
G1 X127.098 Y119.406 E1.66823
G1 X126.811 Y120.299 E1.69269
G1 X126.449 Y121.165 E1.71717
G1 X126.015 Y121.996 E1.74161
G1 X125.511 Y122.787 E1.76607
G1 X124.942 Y123.532 E1.79052
G1 X124.311 Y124.227 E1.81499
G1 X123.624 Y124.865 E1.83944
G1 X122.885 Y125.442 E1.86389
G1 X122.099 Y125.954 E1.88835
G1 X121.273 Y126.397 E1.91279
G1 X120.411 Y126.769 E1.93727
G1 X119.522 Y127.065 E1.96171
G1 X118.61 Y127.285 E1.98617
G1 X117.683 Y127.426 E2.01062
G1 X116.799 Y127.487 E2.03373
G1 X116.17 Y127.5 E2.05013
G1 X104.065 Y127.499 E2.36578
G1 X103.367 Y127.49 E2.38398
G1 X102.431 Y127.438 E2.40843
G1 X101.502 Y127.306 E2.43289
G1 X100.588 Y127.096 E2.45735
G1 X99.695 Y126.809 E2.48181
G1 X98.83 Y126.446 E2.50627
G1 X97.999 Y126.012 E2.53072
G1 X97.208 Y125.508 E2.55517
G1 X96.463 Y124.938 E2.57963
G1 X95.769 Y124.307 E2.60409
G1 X95.132 Y123.62 E2.62852
G1 X94.555 Y122.88 E2.65299
G1 X94.043 Y122.094 E2.67745
G1 X93.6 Y121.267 E2.70192
G1 X93.229 Y120.406 E2.72636
G1 X92.933 Y119.516 E2.75082
G1 X92.714 Y118.604 E2.77528
G1 X92.573 Y117.677 E2.79973
G1 X92.513 Y116.788 E2.82296
G1 X92.5 Y116.158 E2.83939
G1 X92.501 Y104.025 E3.15577
G0 F6000 X92.901 Y104.031
G1 F600 X92.91 Y103.366 E3.17311
G1 X92.962 Y102.446 E3.19714
G1 X93.094 Y101.535 E3.22115
G1 X93.305 Y100.639 E3.24515
G1 X93.592 Y99.764 E3.26916
G1 X93.955 Y98.918 E3.29317
G1 X94.389 Y98.106 E3.31718
G1 X94.892 Y97.335 E3.34118
G1 X95.461 Y96.611 E3.36519
G1 X96.089 Y95.939 E3.38918
G1 X96.774 Y95.323 E3.4132
G1 X97.51 Y94.77 E3.4372
G1 X98.291 Y94.282 E3.46122
G1 X99.111 Y93.864 E3.48522
G1 X99.965 Y93.519 E3.50923
G1 X100.845 Y93.249 E3.53324
G1 X101.745 Y93.057 E3.55723
G1 X102.659 Y92.943 E3.58125
G1 X103.212 Y92.913 E3.59569
G1 X103.83 Y92.9 E3.61181
G1 X115.793 Y92.9 E3.92376
G1 X116.643 Y92.911 E3.94592
G1 X117.562 Y92.964 E3.96993
G1 X118.473 Y93.097 E3.99393
G1 X119.369 Y93.308 E4.01794
G1 X120.243 Y93.596 E4.04193
G1 X121.09 Y93.959 E4.06596
G1 X121.901 Y94.394 E4.08996
G1 X122.671 Y94.898 E4.11396
G1 X123.395 Y95.467 E4.13797
G1 X124.067 Y96.097 E4.16199
G1 X124.682 Y96.782 E4.18599
G1 X125.235 Y97.518 E4.21
G1 X125.722 Y98.299 E4.234
G1 X126.139 Y99.12 E4.25801
G1 X126.484 Y99.974 E4.28203
G1 X126.753 Y100.854 E4.30602
G1 X126.945 Y101.755 E4.33005
G1 X127.058 Y102.668 E4.35403
G1 X127.087 Y103.212 E4.36824
G1 X127.1 Y103.83 E4.38436
G1 X127.099 Y115.895 E4.69896
G1 X127.09 Y116.622 E4.71792
G1 X127.039 Y117.541 E4.74192
G1 X126.908 Y118.453 E4.76595
G1 X126.698 Y119.349 E4.78995
G1 X126.412 Y120.224 E4.81395
G1 X126.051 Y121.071 E4.83796
G1 X125.617 Y121.883 E4.86197
G1 X125.115 Y122.655 E4.88598
G1 X124.547 Y123.38 E4.91
G1 X123.919 Y124.053 E4.934
G1 X123.235 Y124.669 E4.958
G1 X122.5 Y125.223 E4.982
G1 X121.72 Y125.712 E5.00601
G1 X120.9 Y126.131 E5.03002
G1 X120.047 Y126.477 E5.05402
G1 X119.167 Y126.748 E5.07803
G1 X118.267 Y126.941 E5.10203
G1 X117.353 Y127.056 E5.12606
G1 X116.788 Y127.087 E5.14081
G1 X116.17 Y127.1 E5.15693
G1 X104.07 Y127.099 E5.47245
G1 X103.372 Y127.09 E5.49065
G1 X102.453 Y127.038 E5.51465
G1 X101.542 Y126.907 E5.53865
G1 X100.646 Y126.697 E5.56265
G1 X99.771 Y126.41 E5.58666
G1 X98.924 Y126.048 E5.61068
G1 X98.112 Y125.614 E5.63469
G1 X97.341 Y125.112 E5.65868
G1 X96.616 Y124.544 E5.6827
G1 X95.943 Y123.915 E5.70672
G1 X95.328 Y123.231 E5.7307
G1 X94.774 Y122.496 E5.7547
G1 X94.286 Y121.715 E5.77872
G1 X93.867 Y120.895 E5.80273
G1 X93.521 Y120.042 E5.82673
G1 X93.251 Y119.162 E5.85073
G1 X93.058 Y118.261 E5.87476
G1 X92.944 Y117.348 E5.89875
G1 X92.913 Y116.777 E5.91367
G1 X92.9 Y116.158 E5.92981
G1 X92.901 Y104.031 E6.24603
G0 F6000 X93.301 Y104.036
G1 F600 X93.31 Y103.371 E6.26337
G1 X93.362 Y102.469 E6.28693
G1 X93.494 Y101.576 E6.31047
G1 X93.704 Y100.698 E6.33401
G1 X93.991 Y99.841 E6.35758
G1 X94.353 Y99.014 E6.38112
G1 X94.786 Y98.222 E6.40466
G1 X95.288 Y97.471 E6.42821
G1 X95.855 Y96.767 E6.45178
G1 X96.481 Y96.117 E6.47532
G1 X97.162 Y95.524 E6.49886
G1 X97.894 Y94.994 E6.52243
G1 X98.669 Y94.531 E6.54597
G1 X99.482 Y94.138 E6.56952
G1 X100.327 Y93.818 E6.59308
G1 X101.196 Y93.575 E6.61661
G1 X102.084 Y93.409 E6.64016
G1 X103.223 Y93.313 E6.66997
G1 X103.83 Y93.3 E6.6858
G1 X115.793 Y93.3 E6.99775
G1 X116.637 Y93.311 E7.01976
G1 X117.539 Y93.364 E7.04332
G1 X118.432 Y93.496 E7.06686
G1 X119.31 Y93.707 E7.0904
G1 X120.166 Y93.995 E7.11395
G1 X120.993 Y94.357 E7.13749
G1 X121.785 Y94.792 E7.16106
G1 X122.536 Y95.294 E7.18461
G1 X123.239 Y95.861 E7.20816
G1 X123.889 Y96.488 E7.23171
G1 X124.481 Y97.17 E7.25526
G1 X125.011 Y97.901 E7.27881
G1 X125.473 Y98.677 E7.30235
G1 X125.866 Y99.49 E7.3259
G1 X126.184 Y100.335 E7.34944
G1 X126.427 Y101.205 E7.373
G1 X126.592 Y102.093 E7.39655
G1 X126.687 Y103.223 E7.42612
G1 X126.7 Y103.83 E7.44195
G1 X126.699 Y115.89 E7.75643
G1 X126.69 Y116.617 E7.77539
G1 X126.639 Y117.519 E7.79894
G1 X126.508 Y118.413 E7.82251
G1 X126.299 Y119.291 E7.84604
G1 X126.013 Y120.148 E7.8696
G1 X125.652 Y120.976 E7.89315
G1 X125.22 Y121.768 E7.91668
G1 X124.719 Y122.52 E7.94024
G1 X124.153 Y123.224 E7.96379
G1 X123.528 Y123.875 E7.98733
G1 X122.847 Y124.469 E8.01089
G1 X122.116 Y125 E8.03445
G1 X121.342 Y125.464 E8.05798
G1 X120.529 Y125.858 E8.08154
G1 X119.685 Y126.178 E8.10508
G1 X118.815 Y126.423 E8.12864
G1 X117.928 Y126.589 E8.15218
G1 X116.777 Y126.687 E8.1823
G1 X116.17 Y126.7 E8.19813
G1 X104.075 Y126.699 E8.51352
G1 X103.377 Y126.69 E8.53172
G1 X102.476 Y126.639 E8.55525
G1 X101.582 Y126.507 E8.57882
G1 X100.704 Y126.298 E8.60235
G1 X99.847 Y126.011 E8.62592
G1 X99.02 Y125.65 E8.64945
G1 X98.227 Y125.217 E8.67301
G1 X97.476 Y124.716 E8.69655
G1 X96.772 Y124.15 E8.7201
G1 X96.121 Y123.524 E8.74365
G1 X95.528 Y122.843 E8.7672
G1 X94.998 Y122.112 E8.79075
G1 X94.534 Y121.337 E8.8143
G1 X94.14 Y120.524 E8.83786
G1 X93.82 Y119.68 E8.86139
G1 X93.576 Y118.81 E8.88496
G1 X93.41 Y117.922 E8.90851
G1 X93.313 Y116.767 E8.93874
G1 X93.3 Y116.158 E8.95462
G1 X93.301 Y104.036 E9.27071
G1 F2100 E5.27071
;MESH:Void Switch Electronics Board.stl
G0 F6000 X104.143 Y115.857
;TYPE:WALL-INNER
G1 F2100 E9.27071
G1 F493.8 X105.06 Y115.856 E9.29976
G1 X104.557 Y115.443 E9.32038
G1 X104.253 Y115.073 E9.33556
G1 X104.144 Y114.895 E9.34217
G1 X104.143 Y115.857 E9.37265
G1 F2100 E5.37265
G0 F6000 X109.622 Y115.099
G1 F2100 E9.37265
G1 F600 X115.1 Y115.1 E9.51549
G1 X115.1 Y107.314 E9.71852
G1 X114.506 Y107.322 E9.73401
G1 X114.074 Y107.243 E9.74546
G1 X113.775 Y107.088 E9.75424
G1 X113.347 Y106.797 E9.76774
G1 X112.94 Y106.229 E9.78596
G1 X112.775 Y105.685 E9.80078
G1 X112.787 Y105.046 E9.81745
G1 X112.819 Y104.9 E9.82135
G1 X104.901 Y104.901 E10.02782
G1 X104.901 Y106.172 E10.06096
G1 X105.335 Y106.035 E10.07283
G1 X105.723 Y105.992 E10.083
G1 X106.157 Y106.054 E10.09444
G1 X106.419 Y106.131 E10.10156
G1 X106.898 Y106.38 E10.11563
G1 X107.114 Y106.553 E10.12285
G1 X107.471 Y106.976 E10.13728
G1 X107.602 Y107.217 E10.14444
G1 X107.743 Y107.599 E10.15505
G1 X107.81 Y108.127 E10.16893
G1 X107.774 Y108.464 E10.17777
G1 X107.616 Y108.994 E10.19219
G1 X107.421 Y109.298 E10.20161
G1 X107.183 Y109.591 E10.21145
G1 X106.935 Y109.811 E10.2201
G1 X106.586 Y109.999 E10.23043
G1 X107.051 Y110.044 E10.24262
G1 X107.321 Y110.098 E10.2498
G1 X107.817 Y110.249 E10.26332
G1 X108.449 Y110.58 E10.28192
G1 X109.004 Y111.043 E10.30077
G1 F604.5 X109.446 Y111.589 E10.31895
G1 F613.8 X109.765 Y112.245 E10.33754
G1 X109.937 Y112.789 E10.35208
G1 F604.5 X110.01 Y113.499 E10.37056
G1 F600 X109.956 Y114.05 E10.38499
G1 X109.902 Y114.322 E10.39222
G1 X109.78 Y114.717 E10.403
G1 X109.622 Y115.099 E10.41378
G0 F6000 X108.862 Y115.498
G1 F600 X115.5 Y115.5 E10.58687
G1 X115.5 Y106.745 E10.81517
G1 X115.198 Y106.873 E10.82372
G1 X114.961 Y106.923 E10.83004
G1 X114.577 Y106.928 E10.84005
G1 X114.123 Y106.841 E10.85211
G1 X113.624 Y106.503 E10.86782
G1 X113.294 Y106.037 E10.88271
G1 X113.171 Y105.528 E10.89637
G1 X113.178 Y105.132 E10.90669
G1 X113.229 Y104.894 E10.91304
G1 X113.396 Y104.501 E10.92418
G1 X104.501 Y104.501 E11.15612
G1 X104.501 Y106.906 E11.21883
G1 X104.768 Y106.68 E11.22796
G1 X105.008 Y106.55 E11.23507
G1 X105.379 Y106.433 E11.24522
G1 X105.734 Y106.394 E11.25453
G1 X106.045 Y106.438 E11.26272
G1 X106.307 Y106.515 E11.26984
G1 X106.648 Y106.692 E11.27986
G1 X106.865 Y106.865 E11.2871
G1 X107.12 Y107.168 E11.29742
G1 X107.25 Y107.408 E11.30454
G1 X107.351 Y107.682 E11.31215
G1 X107.407 Y108.138 E11.32413
G1 X107.386 Y108.343 E11.32951
G1 X107.249 Y108.828 E11.34265
G1 X107.108 Y109.048 E11.34946
G1 X106.815 Y109.409 E11.36159
G1 X106.442 Y109.623 E11.3728
G1 F503.1 X106.274 Y109.788 E11.38012
G1 F441.2 X106.028 Y109.833 E11.38899
G1 F477.1 X105.712 Y109.872 E11.39943
G1 F529.8 X105.403 Y109.779 E11.40896
G1 F575.5 X105.093 Y109.685 E11.41777
G1 F600 X104.752 Y109.508 E11.42779
G1 X104.502 Y109.309 E11.43612
G1 X104.502 Y111.138 E11.48381
G1 X104.775 Y110.914 E11.49302
G1 X105.247 Y110.663 E11.50696
G1 X105.4 Y110.602 E11.51125
G1 F509.6 X105.817 Y110.401 E11.52547
G1 F438 X106.393 Y110.324 E11.54623
G1 F503.1 X106.6 Y110.401 E11.5531
G1 F600 X107.113 Y110.452 E11.56654
G1 X107.699 Y110.638 E11.58257
G1 X108.243 Y110.93 E11.59867
G1 X108.691 Y111.302 E11.61385
G1 X109.082 Y111.77 E11.62976
G1 X109.373 Y112.311 E11.64577
G1 X109.546 Y112.883 E11.66136
G1 X109.603 Y113.504 E11.67762
G1 X109.55 Y114.105 E11.69335
G1 X109.37 Y114.691 E11.70934
G1 X109.086 Y115.225 E11.72511
G1 X108.862 Y115.498 E11.73432
G0 F6000 X107.724 Y115.899
G1 F600 X115.9 Y115.9 E11.94751
G1 X115.9 Y105.715 E12.2131
G1 X115.688 Y106.097 E12.22449
G1 X115.327 Y106.392 E12.23665
G1 X114.878 Y106.532 E12.24891
G1 X114.647 Y106.535 E12.25493
G1 X114.282 Y106.466 E12.26462
G1 X113.888 Y106.201 E12.277
G1 X113.668 Y105.866 E12.28745
G1 X113.564 Y105.456 E12.29848
G1 X113.568 Y105.217 E12.30471
G1 X113.708 Y104.772 E12.31688
G1 X114.005 Y104.411 E12.32907
G1 F589.7 X114.412 Y104.18 E12.34149
G1 F564.7 X114.648 Y104.118 E12.34825
G1 F574.2 X114.151 Y104.101 E12.3618
G1 F600 X104.101 Y104.101 E12.62386
G1 X104.101 Y107.225 E12.70532
G1 F613.8 X104.092 Y107.496 E12.71223
G1 F641.7 X104.083 Y107.767 E12.71884
G1 F672.3 X104.074 Y108.038 E12.72515
G1 X104.083 Y108.35 E12.73242
G1 F641.7 X104.092 Y108.662 E12.74003
G1 F613.8 X104.101 Y108.974 E12.74798
G1 F600 X104.101 Y112.276 E12.83409
G1 X104.246 Y112.003 E12.84215
G1 X104.589 Y111.583 E12.85629
G1 X104.999 Y111.248 E12.87009
G1 X105.465 Y111 E12.88386
G1 X105.952 Y110.853 E12.89712
G1 F601.5 X106.495 Y110.793 E12.91133
G1 X107.033 Y110.846 E12.9254
G1 X107.542 Y111.006 E12.93927
G1 F600 X107.998 Y111.246 E12.95271
G1 X108.41 Y111.586 E12.96664
G1 F601.5 X108.741 Y111.989 E12.9802
G1 X109 Y112.463 E12.99425
G1 X109.155 Y112.991 E13.00857
G1 F600 X109.207 Y113.503 E13.02199
G1 X109.154 Y114.027 E13.03572
G1 X108.997 Y114.54 E13.04971
G1 X108.75 Y115.003 E13.06339
G1 X108.417 Y115.411 E13.07713
G1 X107.997 Y115.754 E13.09127
G1 X107.724 Y115.899 E13.09933
G1 F2100 E9.09933
G0 F6000 X106.065 Y115.796
;TYPE:WALL-OUTER
G1 F2100 E13.09933
G1 F551.7 X105.598 Y115.618 E13.1135
G1 F600 X105.239 Y115.426 E13.12411
G1 X104.871 Y115.129 E13.13645
G1 X104.574 Y114.761 E13.14878
G1 X104.382 Y114.401 E13.15942
G1 F550.5 X104.205 Y113.952 E13.17313
G1 F520.6 X104.173 Y113.525 E13.186
G1 F525.2 X104.191 Y113.272 E13.19356
G1 F509.6 X104.209 Y113.018 E13.20138
G1 F546.7 X104.382 Y112.598 E13.21438
G1 F600 X104.574 Y112.239 E13.22499
G1 X104.886 Y111.857 E13.23785
G1 X105.207 Y111.595 E13.24866
G1 X105.603 Y111.379 E13.26042
G1 X106.043 Y111.243 E13.27243
G1 X106.48 Y111.197 E13.28389
G1 X106.931 Y111.238 E13.2957
G1 X107.386 Y111.374 E13.30808
G1 X107.776 Y111.583 E13.31962
G1 X108.128 Y111.87 E13.33146
G1 X108.405 Y112.207 E13.34284
G1 X108.631 Y112.628 E13.3553
G1 X108.76 Y113.055 E13.36693
G1 X108.803 Y113.518 E13.37905
G1 X108.762 Y113.931 E13.38987
G1 X108.633 Y114.365 E13.40168
G1 X108.405 Y114.793 E13.41433
G1 X108.143 Y115.114 E13.42513
G1 X107.761 Y115.426 E13.43799
G1 X107.402 Y115.618 E13.44861
G1 F550.5 X106.952 Y115.795 E13.46235
G1 F521.7 X106.477 Y115.827 E13.47663
G1 F522.9 X106.065 Y115.796 E13.48899
G1 F2100 E9.48899
G0 F6000 X105.096 Y110.201
;TYPE:WALL-INNER
G1 F2100 E13.48899
G1 F379.7 X105.056 Y110.269 E13.49224
G1 X104.978 Y110.269 E13.49545
G1 X104.938 Y110.201 E13.49871
G1 X104.978 Y110.133 E13.50196
G1 X105.056 Y110.133 E13.50517
G0 F6000 X106.099 Y109.356
G1 F600 X105.58 Y109.411 E13.51878
G1 X105.092 Y109.267 E13.53205
G1 X104.784 Y109.022 E13.54231
G1 X104.631 Y108.84 E13.54851
G1 F612.2 X104.458 Y108.504 E13.55817
G1 F652.2 X104.426 Y108.101 E13.56786
G1 F672.3 X104.439 Y107.873 E13.57318
G1 F638.3 X104.504 Y107.608 E13.57987
G1 F609.1 X104.605 Y107.401 E13.58578
G1 F600 X104.778 Y107.184 E13.59302
G1 X104.96 Y107.032 E13.5992
G1 X105.308 Y106.842 E13.60954
G1 X105.828 Y106.792 E13.62316
G1 X106.308 Y106.932 E13.6362
G1 X106.616 Y107.178 E13.64648
G1 X106.768 Y107.36 E13.65266
G1 X106.952 Y107.697 E13.66268
G1 X107.012 Y108.205 E13.67601
G1 X106.868 Y108.709 E13.68968
G1 X106.55 Y109.102 E13.70287
G1 X106.099 Y109.356 E13.71636
G0 F6000 X106.287 Y108.794
;TYPE:WALL-OUTER
G1 F600 X105.98 Y108.961 E13.72548
G1 X105.619 Y109.005 E13.73496
G1 X105.281 Y108.906 E13.74414
G1 X105.003 Y108.684 E13.75342
G1 X104.833 Y108.373 E13.76266
G1 X104.799 Y108.06 E13.77087
G1 X104.806 Y107.981 E13.77294
G1 X104.892 Y107.683 E13.78103
G1 X105.116 Y107.403 E13.79038
G1 X105.427 Y107.233 E13.79962
G1 X105.784 Y107.196 E13.80898
G1 X106.119 Y107.294 E13.81808
G1 X106.397 Y107.516 E13.82736
G1 X106.566 Y107.824 E13.83652
G1 X106.604 Y108.184 E13.84596
G1 X106.504 Y108.516 E13.855
G1 X106.287 Y108.794 E13.86419
G1 F2100 E9.86419
G0 F6000 X111.443 Y113.046
;TYPE:WALL-INNER
G1 F2100 E13.86419
G1 F600 X111.099 Y112.942 E13.87357
