;FLAVOR:Marlin
;TIME:1542
;Filament used: 0.4203m
;Layer height: 0.16
;MINX:146.479
;MINY:135.844
;MINZ:0.16
;MAXX:200.588
;MAXY:173.143
;MAXZ:10.56
;Generated with Cura_SteamEngine main
M82 ;absolute extrusion mode
; Ender 3 Custom Start G-code
G92 E0 ; Reset Extruder
G28 ; Home all axes
M104 S120 ; Start heating up the nozzle most of the way
M190 S68.0 ; Start heating the bed, wait until target temperature reached
M109 S250.0 ; Finish heating the nozzle
G1 Z2.0 F3000 ; Move Z Axis up little to prevent scratching of Heat Bed
G1 X0.1 Y20 Z0.3 F5000.0 ; Move to start position
G1 X0.1 Y200.0 Z0.3 F1500.0 E15 ; Draw the first line
G1 X0.4 Y200.0 Z0.3 F5000.0 ; Move to side a little
G1 X0.4 Y20 Z0.3 F1500.0 E30 ; Draw the second line
G92 E0 ; Reset Extruder
G1 Z2.0 F3000 ; Move Z Axis up little to prevent scratching of Heat Bed
G1 X5 Y20 Z0.3 F5000.0 ; Move over to prevent blob squish
G92 E0
G92 E0
G1 F1500 E-6.5
;LAYER_COUNT:66
;LAYER:0
M107
G0 F6000 X150.474 Y140.222 Z0.16
G0 X147.256 Y147.059
;TYPE:SKIRT
G1 F1500 E0
G1 F900 X147.464 Y145.949 E0.03005
G1 X147.676 Y145.035 E0.05501
G1 X147.965 Y144.143 E0.07996
G1 X148.329 Y143.279 E0.10491
G1 X148.766 Y142.448 E0.12989
G1 X149.271 Y141.658 E0.15484
G1 X149.842 Y140.914 E0.1798
G1 X150.474 Y140.222 E0.20473
G1 X151.163 Y139.585 E0.2297
G1 X151.904 Y139.01 E0.25466
G1 X152.691 Y138.5 E0.27961
G1 X153.518 Y138.058 E0.30456
G1 X154.38 Y137.689 E0.32951
G1 X155.271 Y137.394 E0.35448
G1 X156.401 Y137.137 E0.38532
G1 X156.929 Y137.046 E0.39957
G1 X159.44 Y136.577 E0.46754
G1 X160.38 Y136.373 E0.49314
G1 X161.799 Y136.081 E0.53168
G1 X162.725 Y135.931 E0.55664
G1 X163.832 Y135.857 E0.58616
G1 X164.552 Y135.846 E0.60532
G1 X177.706 Y135.844 E0.95533
G1 X178.569 Y135.855 E0.97829
G1 X179.505 Y135.908 E1.00324
G1 X180.434 Y136.041 E1.02821
G1 X181.348 Y136.253 E1.05317
G1 X181.904 Y136.423 E1.06864
G1 X182.895 Y136.755 E1.09645
G1 X185.335 Y137.544 E1.16469
G1 X187.776 Y138.258 E1.23236
G1 X190.215 Y138.897 E1.29945
G1 X191.98 Y139.323 E1.34776
G1 X192.881 Y139.585 E1.37272
G1 X193.756 Y139.923 E1.39768
G1 X194.599 Y140.334 E1.42264
G1 X195.187 Y140.677 E1.44075
G1 X195.408 Y140.815 E1.44768
G1 X196.182 Y141.345 E1.47264
G1 X196.907 Y141.939 E1.49758
G1 X197.58 Y142.593 E1.52255
G1 X198.194 Y143.302 E1.54751
G1 X198.746 Y144.06 E1.57246
G1 X199.231 Y144.863 E1.59742
G1 X199.646 Y145.704 E1.62237
G1 X199.987 Y146.577 E1.64731
G1 X200.253 Y147.477 E1.67228
G1 X200.442 Y148.395 E1.69722
G1 X200.552 Y149.327 E1.72219
G1 X200.581 Y149.964 E1.73916
G1 X200.588 Y150.389 E1.75047
G1 X200.563 Y151.326 E1.77541
G1 X200.503 Y151.942 E1.79188
G1 X200.433 Y152.489 E1.80655
G1 X200.156 Y154.428 E1.85867
G1 X199.873 Y156.922 E1.92545
G1 X199.65 Y159.553 E1.99571
G1 X199.564 Y160.767 E2.02809
G1 X199.458 Y161.699 E2.05305
G1 X199.272 Y162.618 E2.078
G1 X199.009 Y163.518 E2.10295
G1 X198.671 Y164.393 E2.12791
G1 X198.259 Y165.235 E2.15285
G1 X197.776 Y166.04 E2.17783
G1 X197.227 Y166.8 E2.20278
G1 X196.615 Y167.511 E2.22774
G1 X195.945 Y168.167 E2.25269
G1 X195.222 Y168.764 E2.27764
G1 X194.45 Y169.296 E2.30258
G1 X193.636 Y169.762 E2.32754
G1 X192.784 Y170.156 E2.35252
G1 X191.903 Y170.476 E2.37746
G1 X190.997 Y170.72 E2.40242
G1 X190.427 Y170.832 E2.41788
G1 X188.836 Y171.101 E2.46082
G1 X186.339 Y171.571 E2.52842
G1 X183.891 Y172.103 E2.59508
G1 X181.032 Y172.811 E2.67345
G1 X180.112 Y172.997 E2.69842
G1 X179.181 Y173.104 E2.72336
G1 X178.562 Y173.132 E2.73985
G1 X177.866 Y173.143 E2.75837
G1 X164.517 Y173.142 E3.11356
G1 X163.807 Y173.131 E3.13245
G1 X162.896 Y173.079 E3.15673
G1 X161.924 Y172.983 E3.18272
G1 X161.06 Y172.885 E3.20586
G1 X158.591 Y172.675 E3.27179
G1 X157.895 Y172.635 E3.29034
G1 X156.716 Y172.552 E3.32179
G1 X155.784 Y172.446 E3.34675
G1 X154.864 Y172.261 E3.37172
G1 X153.964 Y171.999 E3.39666
G1 X153.089 Y171.661 E3.42162
G1 X152.246 Y171.25 E3.44657
G1 X151.441 Y170.768 E3.47154
G1 X150.681 Y170.22 E3.49647
G1 X149.969 Y169.608 E3.52145
G1 X149.313 Y168.939 E3.54638
G1 X148.715 Y168.215 E3.57137
G1 X148.182 Y167.444 E3.59631
G1 X147.716 Y166.63 E3.62126
G1 X147.321 Y165.779 E3.64623
G1 X147.001 Y164.898 E3.67117
G1 X146.756 Y163.993 E3.69612
G1 X146.589 Y163.07 E3.72107
G1 X146.493 Y161.897 E3.75239
G1 X146.479 Y161.269 E3.7691
G1 X146.479 Y152.503 E4.00235
G1 X146.49 Y151.796 E4.02116
G1 X146.545 Y150.86 E4.04611
G1 X146.705 Y149.799 E4.07466
G1 X147.256 Y147.059 E4.14903
G1 F1500 E-2.35097
G0 F6000 X147.279 Y152.515
G1 F1500 E4.14903
G1 F900 X147.29 Y151.808 E4.16784
G1 X147.344 Y150.907 E4.19186
G1 X147.489 Y149.957 E4.21743
G1 X148.054 Y147.148 E4.29367
G1 X148.251 Y146.096 E4.32215
G1 X148.456 Y145.217 E4.34616
G1 X148.739 Y144.359 E4.3702
G1 X149.096 Y143.53 E4.39422
G1 X149.525 Y142.735 E4.41826
G1 X150.023 Y141.982 E4.44228
G1 X150.586 Y141.275 E4.46633
G1 X151.209 Y140.621 E4.49036
G1 X151.887 Y140.025 E4.51438
G1 X152.615 Y139.491 E4.5384
G1 X153.388 Y139.023 E4.56245
G1 X154.199 Y138.626 E4.58647
G1 X155.042 Y138.302 E4.6105
G1 X155.91 Y138.054 E4.63452
G1 X156.537 Y137.925 E4.65156
G1 X157.068 Y137.833 E4.66589
G1 X159.626 Y137.356 E4.73513
G1 X160.541 Y137.156 E4.76005
G1 X161.96 Y136.864 E4.7986
G1 X162.852 Y136.722 E4.82263
G1 X163.845 Y136.656 E4.84911
G1 X164.383 Y136.647 E4.86343
G1 X177.706 Y136.644 E5.21793
G1 X178.558 Y136.655 E5.2406
G1 X179.459 Y136.708 E5.26462
G1 X180.353 Y136.84 E5.28866
G1 X181.65 Y137.181 E5.32435
G1 X182.672 Y137.523 E5.35302
G1 X185.116 Y138.314 E5.42137
G1 X187.559 Y139.029 E5.48911
G1 X190.034 Y139.677 E5.55718
G1 X191.79 Y140.1 E5.60524
G1 X192.657 Y140.354 E5.62928
G1 X193.497 Y140.683 E5.65328
G1 X194.306 Y141.086 E5.67733
G1 X194.984 Y141.493 E5.69837
G1 X195.729 Y142.005 E5.72243
G1 X196.424 Y142.581 E5.74644
G1 X197.067 Y143.215 E5.77047
G1 X197.65 Y143.905 E5.79451
G1 X198.171 Y144.643 E5.81854
G1 X198.624 Y145.424 E5.84257
G1 X199.006 Y146.242 E5.86659
G1 X199.314 Y147.091 E5.89062
G1 X199.546 Y147.964 E5.91466
G1 X199.7 Y148.854 E5.93869
G1 X199.781 Y149.977 E5.96865
G1 X199.788 Y150.402 E5.97996
G1 X199.762 Y151.305 E6.00399
G1 X199.709 Y151.842 E6.01835
G1 X199.641 Y152.376 E6.03268
G1 X199.363 Y154.328 E6.08514
G1 X199.074 Y156.872 E6.15327
G1 X198.859 Y159.399 E6.22075
G1 X198.766 Y160.71 E6.25572
G1 X198.662 Y161.607 E6.27975
G1 X198.479 Y162.492 E6.30379
G1 X198.219 Y163.356 E6.3278
G1 X197.883 Y164.195 E6.35185
G1 X197.475 Y165 E6.37586
G1 X196.996 Y165.766 E6.3999
G1 X196.452 Y166.487 E6.42393
G1 X195.846 Y167.157 E6.44797
G1 X195.184 Y167.77 E6.47198
G1 X194.469 Y168.323 E6.49603
G1 X193.709 Y168.81 E6.52005
G1 X192.908 Y169.228 E6.54409
G1 X192.074 Y169.573 E6.5681
G1 X191.212 Y169.844 E6.59214
G1 X190.293 Y170.043 E6.61716
G1 X188.721 Y170.309 E6.65959
G1 X186.164 Y170.79 E6.72882
G1 X183.698 Y171.326 E6.79596
G1 X180.839 Y172.034 E6.87433
G1 X179.954 Y172.212 E6.89835
G1 X179.056 Y172.311 E6.92239
G1 X178.549 Y172.332 E6.93589
G1 X177.853 Y172.343 E6.95442
G1 X164.529 Y172.342 E7.30894
G1 X163.819 Y172.331 E7.32784
G1 X162.974 Y172.283 E7.35036
G1 X162.002 Y172.187 E7.37635
G1 X161.152 Y172.091 E7.39911
G1 X158.632 Y171.876 E7.4664
G1 X157.951 Y171.837 E7.48455
G1 X156.772 Y171.754 E7.516
G1 X155.875 Y171.651 E7.54003
G1 X154.99 Y171.468 E7.56407
G1 X154.125 Y171.209 E7.5881
G1 X153.286 Y170.873 E7.61214
G1 X152.481 Y170.465 E7.63616
G1 X151.714 Y169.988 E7.66019
G1 X150.993 Y169.444 E7.68422
G1 X150.323 Y168.839 E7.70824
G1 X149.709 Y168.176 E7.73229
G1 X149.156 Y167.463 E7.7563
G1 X148.668 Y166.702 E7.78035
G1 X148.25 Y165.902 E7.80437
G1 X147.903 Y165.068 E7.8284
G1 X147.632 Y164.207 E7.85242
G1 X147.438 Y163.325 E7.87645
G1 X147.323 Y162.429 E7.90049
G1 X147.292 Y161.874 E7.91528
G1 X147.279 Y161.269 E7.93138
G1 X147.279 Y152.515 E8.16431
G0 F6000 X146.879 Y152.509
G1 F900 X146.89 Y151.802 E8.18312
G1 X146.945 Y150.883 E8.20762
G1 X147.097 Y149.878 E8.23466
G1 X147.671 Y147.023 E8.31215
G1 X147.858 Y146.023 E8.33922
G1 X148.066 Y145.126 E8.36372
G1 X148.352 Y144.251 E8.38821
G1 X148.713 Y143.404 E8.41271
G1 X149.146 Y142.591 E8.43722
G1 X149.647 Y141.819 E8.46171
G1 X150.214 Y141.094 E8.4862
G1 X150.842 Y140.42 E8.51071
G1 X151.525 Y139.803 E8.5352
G1 X152.26 Y139.249 E8.55969
G1 X153.04 Y138.759 E8.5842
G1 X153.86 Y138.34 E8.6087
G1 X154.712 Y137.993 E8.63318
G1 X155.592 Y137.721 E8.65769
G1 X156.469 Y137.531 E8.68157
G1 X156.992 Y137.441 E8.69569
G1 X159.533 Y136.966 E8.76447
G1 X160.336 Y136.791 E8.78634
G1 X161.88 Y136.473 E8.82828
G1 X162.788 Y136.326 E8.85276
G1 X163.839 Y136.256 E8.88078
G1 X164.377 Y136.247 E8.8951
G1 X177.706 Y136.244 E9.24976
G1 X178.563 Y136.255 E9.27257
G1 X179.482 Y136.308 E9.29706
G1 X180.394 Y136.441 E9.32158
G1 X181.29 Y136.652 E9.34608
G1 X181.777 Y136.802 E9.35964
G1 X182.741 Y137.125 E9.38669
G1 X185.246 Y137.936 E9.45675
G1 X187.667 Y138.643 E9.52386
G1 X190.12 Y139.286 E9.59133
G1 X191.885 Y139.712 E9.63964
G1 X192.769 Y139.97 E9.66414
G1 X193.627 Y140.303 E9.68863
G1 X194.453 Y140.71 E9.71314
G1 X194.975 Y141.016 E9.72924
G1 X195.196 Y141.154 E9.73617
G1 X195.955 Y141.675 E9.76066
G1 X196.666 Y142.26 E9.78516
G1 X197.324 Y142.904 E9.80966
G1 X197.923 Y143.604 E9.83417
G1 X198.459 Y144.352 E9.85866
G1 X198.928 Y145.144 E9.88315
G1 X199.327 Y145.974 E9.90766
G1 X199.652 Y146.835 E9.93214
G1 X199.901 Y147.721 E9.95663
G1 X200.073 Y148.626 E9.98114
G1 X200.181 Y149.97 E10.01702
G1 X200.188 Y150.395 E10.02833
G1 X200.163 Y151.316 E10.05284
G1 X200.106 Y151.892 E10.06825
G1 X200.037 Y152.433 E10.08276
G1 X199.757 Y154.398 E10.13557
G1 X199.475 Y156.88 E10.20204
G1 X199.256 Y159.464 E10.27104
G1 X199.165 Y160.738 E10.30502
G1 X199.06 Y161.653 E10.32953
G1 X198.876 Y162.555 E10.35402
G1 X198.614 Y163.438 E10.37853
G1 X198.277 Y164.294 E10.40301
G1 X197.867 Y165.119 E10.42752
G1 X197.386 Y165.904 E10.45202
G1 X196.839 Y166.645 E10.47653
G1 X196.231 Y167.335 E10.501
G1 X195.564 Y167.97 E10.5255
G1 X194.845 Y168.545 E10.55
G1 X194.079 Y169.056 E10.5745
G1 X193.271 Y169.497 E10.59899
G1 X192.428 Y169.868 E10.6235
G1 X191.556 Y170.163 E10.64799
G1 X190.36 Y170.438 E10.68065
G1 X188.753 Y170.71 E10.72401
G1 X186.252 Y171.181 E10.79173
G1 X183.774 Y171.719 E10.8592
G1 X180.935 Y172.422 E10.93702
G1 X180.033 Y172.605 E10.96151
G1 X179.118 Y172.708 E10.98601
G1 X178.556 Y172.732 E11.00098
G1 X177.86 Y172.743 E11.0195
G1 X164.523 Y172.742 E11.37437
G1 X163.813 Y172.731 E11.39327
G1 X162.935 Y172.681 E11.41667
G1 X161.803 Y172.568 E11.44694
G1 X161.11 Y172.489 E11.4655
G1 X158.575 Y172.273 E11.53319
G1 X157.923 Y172.236 E11.55057
G1 X156.744 Y172.153 E11.58202
G1 X155.829 Y172.048 E11.60652
G1 X154.927 Y171.865 E11.63101
G1 X154.044 Y171.604 E11.65551
G1 X153.187 Y171.267 E11.68002
G1 X152.363 Y170.857 E11.7045
G1 X151.577 Y170.378 E11.729
G1 X150.836 Y169.832 E11.75349
G1 X150.145 Y169.223 E11.77799
G1 X149.509 Y168.557 E11.8025
G1 X148.934 Y167.838 E11.82699
G1 X148.423 Y167.073 E11.85147
G1 X147.98 Y166.265 E11.87599
G1 X147.609 Y165.423 E11.90047
G1 X147.313 Y164.551 E11.92498
G1 X147.094 Y163.657 E11.94947
G1 X146.953 Y162.747 E11.97397
G1 X146.892 Y161.886 E11.99694
G1 X146.879 Y161.269 E12.01336
G1 X146.879 Y152.509 E12.24645
G1 F1500 E5.74645
;MESH:void_switch-v24.stl
G0 F6000 X158.878 Y153.747
;TYPE:WALL-INNER
G1 F1500 E12.24645
G1 F900 X160.805 Y153.747 E12.29772
G1 X160.805 Y152.717 E12.32513
G1 X160.29 Y152.867 E12.3394
G1 X159.328 Y152.867 E12.365
G1 X158.879 Y152.766 E12.37724
G1 X158.878 Y153.747 E12.40334
G0 F6000 X158.476 Y154.275
G1 F900 X158.859 Y154.147 E12.41409
G1 X160.826 Y154.147 E12.46643
G1 X161.205 Y154.272 E12.47705
G1 X161.205 Y152.418 E12.52638
G1 X160.975 Y152.365 E12.53266
G1 X160.794 Y152.236 E12.53857
G1 X160.612 Y152.365 E12.54451
G1 X160.273 Y152.462 E12.55389
G1 X159.337 Y152.467 E12.57879
G1 X158.951 Y152.38 E12.58932
G1 X158.814 Y152.291 E12.59367
G1 X158.677 Y152.38 E12.59802
G1 X158.479 Y152.422 E12.6034
G1 X158.476 Y154.275 E12.65271
G0 F6000 X158.169 Y155.147
G1 F672.9 X158.333 Y154.907 E12.66305
G1 F809 X158.497 Y154.667 E12.67166
G1 F900 X158.859 Y154.547 E12.6818
G1 X160.826 Y154.547 E12.73414
G1 X161.187 Y154.666 E12.74426
G1 F810.8 X161.351 Y154.906 E12.75284
G1 F675.4 X161.516 Y155.147 E12.7632
G1 X161.56 Y154.802 E12.77553
G1 F810.8 X161.605 Y154.457 E12.7858
G1 F900 X161.605 Y152.131 E12.84769
G1 X161.568 Y152.067 E12.84966
G1 X161.418 Y152.067 E12.85365
G1 X161.152 Y152.006 E12.86091
G1 X160.996 Y151.895 E12.86601
G1 F843.1 X160.793 Y151.521 E12.8781
G1 X160.592 Y151.895 E12.89016
G1 F900 X160.435 Y152.006 E12.89527
G1 X160.232 Y152.064 E12.90089
G1 X159.346 Y152.067 E12.92446
G1 X159.115 Y152.015 E12.93076
G1 X158.959 Y151.914 E12.93571
G1 X158.814 Y151.619 E12.94446
G1 X158.668 Y151.914 E12.95321
G1 X158.513 Y152.015 E12.95814
G1 X158.266 Y152.067 E12.96485
G1 X158.115 Y152.067 E12.96887
G1 X158.078 Y152.131 E12.97084
G1 X158.076 Y154.457 E13.03273
G1 F809 X158.122 Y154.802 E13.04303
G1 F672.9 X158.169 Y155.147 E13.05542
G1 F1500 E6.55542
G0 F6000 X157.679 Y161.388
;TYPE:WALL-OUTER
G1 F1500 E13.05542
G1 F900 X158.659 Y161.388 E13.0815
G1 X158.659 Y155.147 E13.24756
G1 X158.738 Y154.987 E13.25231
G1 X158.859 Y154.947 E13.2557
G1 X160.826 Y154.947 E13.30804
G1 X160.947 Y154.986 E13.31142
G1 X161.027 Y155.147 E13.3162
G1 X161.027 Y161.388 E13.48226
G1 X162.005 Y161.388 E13.50829
G1 X162.005 Y152.023 E13.75747
G1 X161.798 Y151.667 E13.76843
G1 X161.418 Y151.667 E13.77854
G1 X161.277 Y151.61 E13.78259
G1 X161.218 Y151.485 E13.78627
G1 X161.217 Y148.167 E13.87455
G1 X160.369 Y148.167 E13.89711
G1 X160.369 Y151.485 E13.9854
G1 X160.31 Y151.61 E13.98908
G1 X160.19 Y151.666 E13.9926
G1 X159.3 Y151.667 E14.01628
G1 F757.9 X159.087 Y151.491 E14.02501
G1 F655.7 X159.087 Y149.865 E14.08439
G1 F658.1 X159.087 Y148.239 E14.14356
G1 X158.54 Y148.24 E14.16346
G1 X158.54 Y149.866 E14.22263
G1 F655.7 X158.54 Y151.492 E14.28201
G1 F757.9 X158.329 Y151.667 E14.29067
G1 F900 X157.885 Y151.667 E14.30248
G1 X157.678 Y152.023 E14.31344
G1 X157.679 Y161.388 E14.56263
G0 F6000 X158.169 Y160.898
;TYPE:WALL-INNER
G1 F620.7 X158.169 Y155.147 E14.78451
G1 F1500 E8.28451
G0 F6000 X161.516 Y155.147
G1 F1500 E14.78451
G1 F622.8 X161.516 Y160.899 E15.00567
G1 F1500 E8.50567
G0 F6000 X160.793 Y151.521
G1 F1500 E15.00567
G1 F794.7 X160.793 Y150.056 E15.04981
G1 F798.2 X160.793 Y148.591 E15.09376
G1 F1500 E8.59376
G0 F6000 X160.362 Y153.304
;TYPE:SKIN
G1 F1500 E15.09376
G1 F639.4 X159.319 Y153.307 E15.13282
G1 F1500 E8.63282
G0 F6000 X164.631 Y148.869
;TYPE:WALL-INNER
G1 F1500 E15.13282
G1 F649.8 X165.578 Y147.924 E15.18213
G1 X164.631 Y147.924 E15.21703
G1 X164.631 Y148.869 E15.25185
G1 F1500 E8.75185
G0 F6000 X164.23 Y153.906
G1 F1500 E15.25185
G1 F651 X164.43 Y153.429 E15.27088
G1 F654.5 X164.891 Y152.967 E15.29476
G1 F672.9 X164.638 Y152.714 E15.30749
G1 F812.6 X164.499 Y152.295 E15.3205
G1 F986.3 X164.497 Y151.123 E15.34896
G1 F994.5 X164.494 Y149.951 E15.37718
G1 F947.4 X164.649 Y149.526 E15.38861
G1 F900 X166.235 Y147.941 E15.44827
G1 F939.9 X166.559 Y147.791 E15.45737
G1 F989 X167.731 Y147.789 E15.48575
G1 F997.2 X168.903 Y147.786 E15.51389
G1 F902.3 X169.16 Y147.855 E15.52096
G1 F751.6 X169.417 Y147.924 E15.52943
G1 F674.2 X169.675 Y148.184 E15.54245
G1 F655.7 X170.138 Y147.721 E15.56636
G1 F647.5 X170.498 Y147.527 E15.58148
G1 F642.9 X170.086 Y147.524 E15.59683
G1 F652.2 X169.674 Y147.52 E15.61196
G1 F693.6 X169.533 Y147.491 E15.61693
G1 F787.7 X169.218 Y147.459 E15.62656
G1 F918.4 X168.903 Y147.426 E15.63481
G1 F997.2 X167.715 Y147.427 E15.66334
G1 F989 X166.527 Y147.428 E15.69211
G1 F939.9 X166.031 Y147.446 E15.70475
G1 F900 X164.153 Y147.446 E15.75472
G1 X164.154 Y149.321 E15.80461
G1 F923.1 X164.144 Y149.636 E15.81279
G1 F973 X164.133 Y149.951 E15.82055
G1 F994.5 X164.134 Y151.139 E15.84915
G1 F986.3 X164.135 Y152.327 E15.878
G1 F906.8 X164.167 Y152.575 E15.8846
G1 F784.3 X164.199 Y152.824 E15.89227
G1 F692.3 X164.228 Y152.967 E15.89731
G1 F651 X164.23 Y153.906 E15.93186
G1 F1500 E9.43186
G0 F6000 X164.952 Y160.743
G1 F1500 E15.93186
G1 F900 X169.865 Y160.743 E16.06258
G1 X169.624 Y160.603 E16.07
