;FLAVOR:Marlin
;TIME:2035
;Filament used: 0.437904m
;Layer height: 0.16
;MINX:20.733
;MINY:91.204
;MINZ:0.16
;MAXX:74.843
;MAXY:128.504
;MAXZ:10.4
;Generated with Cura_SteamEngine main
M82 ;absolute extrusion mode
; Ender 3 Custom Start G-code
G92 E0 ; Reset Extruder
G28 ; Home all axes
M104 S120 ; Start heating up the nozzle most of the way
M190 S68.0 ; Start heating the bed, wait until target temperature reached
M109 S248.0 ; Finish heating the nozzle
G1 Z2.0 F3000 ; Move Z Axis up little to prevent scratching of Heat Bed
G1 X0.1 Y20 Z0.3 F5000.0 ; Move to start position
G1 X0.1 Y200.0 Z0.3 F1500.0 E15 ; Draw the first line
G1 X0.4 Y200.0 Z0.3 F5000.0 ; Move to side a little
G1 X0.4 Y20 Z0.3 F1500.0 E30 ; Draw the second line
G92 E0 ; Reset Extruder
G1 Z2.0 F3000 ; Move Z Axis up little to prevent scratching of Heat Bed
G1 X5 Y20 Z0.3 F5000.0 ; Move over to prevent blob squish
G92 E0
G92 E0
G1 F1500 E-3.5
;LAYER_COUNT:65
;LAYER:0
M107
G0 F6000 X29.515 Y92.306 Z0.16
G0 X21.516 Y101.937
;TYPE:SKIRT
G1 F1500 E0
G1 F600 X21.716 Y100.867 E0.02896
G1 X21.927 Y99.953 E0.05392
G1 X22.215 Y99.061 E0.07886
G1 X22.578 Y98.196 E0.10382
G1 X23.014 Y97.366 E0.12877
G1 X23.519 Y96.575 E0.15374
G1 X24.089 Y95.83 E0.1787
G1 X24.721 Y95.137 E0.20366
G1 X25.409 Y94.5 E0.22861
G1 X26.149 Y93.924 E0.25356
G1 X26.936 Y93.413 E0.27852
G1 X27.763 Y92.971 E0.30348
G1 X28.625 Y92.601 E0.32843
G1 X29.515 Y92.306 E0.35338
G1 X30.427 Y92.088 E0.37833
G1 X31.432 Y91.94 E0.40536
G1 X33.906 Y91.692 E0.47152
G1 X36.205 Y91.401 E0.53318
G1 X36.723 Y91.329 E0.5471
G1 X38.012 Y91.227 E0.5815
G1 X39.288 Y91.204 E0.61546
G1 X52.145 Y91.206 E0.95756
G1 X52.846 Y91.217 E0.97621
G1 X53.782 Y91.272 E1.00116
G1 X54.71 Y91.406 E1.02611
G1 X55.573 Y91.605 E1.04968
G1 X56.523 Y91.866 E1.07589
G1 X57.477 Y92.144 E1.10233
G1 X59.91 Y92.78 E1.16924
G1 X62.343 Y93.341 E1.23568
G1 X65.015 Y93.878 E1.3082
G1 X65.765 Y94.018 E1.3285
G1 X66.678 Y94.23 E1.35344
G1 X67.571 Y94.519 E1.37841
G1 X68.435 Y94.882 E1.40335
G1 X69.265 Y95.318 E1.4283
G1 X70.056 Y95.824 E1.45328
G1 X70.8 Y96.394 E1.47822
G1 X71.493 Y97.026 E1.50317
G1 X72.129 Y97.715 E1.52812
G1 X72.705 Y98.456 E1.5531
G1 X73.215 Y99.243 E1.57805
G1 X73.691 Y100.129 E1.60481
G1 X74.111 Y101.095 E1.63284
G1 X74.409 Y101.984 E1.65779
G1 X74.632 Y102.895 E1.68274
G1 X74.775 Y103.822 E1.7077
G1 X74.843 Y105.042 E1.74021
G1 X74.843 Y105.433 E1.75062
G1 X74.755 Y106.823 E1.78768
G1 X74.648 Y107.655 E1.81
G1 X74.463 Y108.956 E1.84496
G1 X74.18 Y111.451 E1.91177
G1 X73.965 Y113.992 E1.97963
G1 X73.826 Y116.357 E2.04266
G1 X73.731 Y117.29 E2.06762
G1 X73.558 Y118.212 E2.09258
G1 X73.306 Y119.115 E2.11752
G1 X72.978 Y119.994 E2.14249
G1 X72.577 Y120.842 E2.16745
G1 X72.105 Y121.652 E2.19239
G1 X71.565 Y122.419 E2.21735
G1 X70.962 Y123.138 E2.24232
G1 X70.3 Y123.802 E2.26727
G1 X69.584 Y124.408 E2.29223
G1 X68.819 Y124.95 E2.31717
G1 X68.011 Y125.426 E2.34213
G1 X67.165 Y125.83 E2.36707
G1 X66.287 Y126.162 E2.39205
G1 X65.385 Y126.417 E2.41699
G1 X64.424 Y126.6 E2.44302
G1 X63.776 Y126.694 E2.46044
G1 X62.288 Y126.887 E2.50037
G1 X59.797 Y127.28 E2.56747
G1 X57.345 Y127.739 E2.63384
G1 X56.064 Y128.019 E2.66873
G1 X54.86 Y128.267 E2.70144
G1 X53.934 Y128.417 E2.7264
G1 X52.825 Y128.491 E2.75598
G1 X52.106 Y128.502 E2.77511
G1 X38.953 Y128.504 E3.12509
G1 X38.073 Y128.493 E3.1485
G1 X37.155 Y128.458 E3.17295
G1 X34.503 Y128.384 E3.24354
G1 X31.675 Y128.367 E3.31879
G1 X30.738 Y128.321 E3.34375
G1 X29.809 Y128.196 E3.36869
G1 X28.893 Y127.992 E3.39366
G1 X27.999 Y127.71 E3.4186
G1 X27.131 Y127.354 E3.44357
G1 X26.297 Y126.925 E3.46852
G1 X25.503 Y126.426 E3.49347
G1 X24.754 Y125.862 E3.51842
G1 X24.056 Y125.236 E3.54337
G1 X23.413 Y124.552 E3.56835
G1 X22.831 Y123.817 E3.59329
G1 X22.314 Y123.034 E3.61826
G1 X21.866 Y122.211 E3.64319
G1 X21.489 Y121.352 E3.66815
G1 X21.187 Y120.464 E3.69311
G1 X20.962 Y119.554 E3.71805
G1 X20.814 Y118.627 E3.74303
G1 X20.747 Y117.684 E3.76819
G1 X20.733 Y117.056 E3.7849
G1 X20.733 Y107.38 E4.04236
G1 X20.744 Y106.699 E4.06048
G1 X20.8 Y105.763 E4.08543
G1 X20.959 Y104.71 E4.11377
G1 X21.516 Y101.937 E4.18903
G1 F1500 E0.68903
G0 F6000 X21.533 Y107.393
G1 F1500 E4.18903
G1 F600 X21.544 Y106.712 E4.20715
G1 X21.599 Y105.811 E4.23117
G1 X21.743 Y104.867 E4.25658
G1 X22.302 Y102.085 E4.33208
G1 X22.502 Y101.014 E4.36107
G1 X22.707 Y100.134 E4.38511
G1 X22.989 Y99.276 E4.40914
G1 X23.345 Y98.446 E4.43317
G1 X23.774 Y97.652 E4.45719
G1 X24.271 Y96.898 E4.48122
G1 X24.833 Y96.191 E4.50525
G1 X25.455 Y95.536 E4.52928
G1 X26.133 Y94.939 E4.55332
G1 X26.861 Y94.405 E4.57734
G1 X27.633 Y93.937 E4.60136
G1 X28.444 Y93.539 E4.6254
G1 X29.287 Y93.214 E4.64944
G1 X30.155 Y92.965 E4.67347
G1 X31.042 Y92.794 E4.6975
G1 X31.512 Y92.736 E4.7101
G1 X34.006 Y92.486 E4.7768
G1 X36.24 Y92.203 E4.83672
G1 X36.832 Y92.121 E4.85262
G1 X38.027 Y92.027 E4.88451
G1 X39.288 Y92.004 E4.91807
G1 X52.132 Y92.006 E5.25983
G1 X52.833 Y92.017 E5.27848
G1 X53.735 Y92.071 E5.30252
G1 X54.628 Y92.205 E5.32655
G1 X55.362 Y92.377 E5.34661
G1 X56.299 Y92.634 E5.37246
G1 X57.261 Y92.914 E5.39912
G1 X59.705 Y93.553 E5.46634
G1 X62.176 Y94.123 E5.53381
G1 X64.867 Y94.663 E5.60684
G1 X65.618 Y94.804 E5.62718
G1 X66.497 Y95.01 E5.6512
G1 X67.355 Y95.292 E5.67523
G1 X68.184 Y95.649 E5.69925
G1 X68.979 Y96.078 E5.72328
G1 X69.733 Y96.576 E5.74733
G1 X70.439 Y97.138 E5.77134
G1 X71.093 Y97.761 E5.79537
G1 X71.69 Y98.439 E5.81941
G1 X72.224 Y99.167 E5.84343
G1 X72.691 Y99.94 E5.86746
G1 X73.017 Y100.585 E5.88669
G1 X73.376 Y101.414 E5.91073
G1 X73.659 Y102.271 E5.93474
G1 X73.866 Y103.15 E5.95877
G1 X73.994 Y104.044 E5.9828
G1 X74.043 Y105.042 E6.00939
G1 X74.043 Y105.433 E6.01979
G1 X73.961 Y106.722 E6.05416
G1 X73.856 Y107.543 E6.07618
G1 X73.669 Y108.861 E6.1116
G1 X73.385 Y111.362 E6.17858
G1 X73.168 Y113.918 E6.24683
G1 X73.028 Y116.31 E6.31059
G1 X72.935 Y117.209 E6.33464
G1 X72.763 Y118.095 E6.35865
G1 X72.514 Y118.963 E6.38268
G1 X72.188 Y119.806 E6.40673
G1 X71.79 Y120.616 E6.43074
G1 X71.321 Y121.388 E6.45478
G1 X70.786 Y122.116 E6.47881
G1 X70.189 Y122.793 E6.50283
G1 X69.534 Y123.415 E6.52687
G1 X68.826 Y123.976 E6.5509
G1 X68.072 Y124.473 E6.57493
G1 X67.277 Y124.901 E6.59896
G1 X66.447 Y125.257 E6.62299
G1 X65.589 Y125.538 E6.64701
G1 X64.309 Y125.808 E6.68182
G1 X63.503 Y125.924 E6.70348
G1 X62.164 Y126.097 E6.73941
G1 X59.669 Y126.491 E6.80662
G1 X57.19 Y126.954 E6.87372
G1 X56.027 Y127.209 E6.9054
G1 X54.699 Y127.483 E6.94148
G1 X53.807 Y127.626 E6.96552
G1 X52.812 Y127.692 E6.99205
G1 X52.275 Y127.701 E7.00634
G1 X38.953 Y127.704 E7.36081
G1 X37.791 Y127.685 E7.39174
G1 X37.144 Y127.657 E7.40897
G1 X34.53 Y127.584 E7.47855
G1 X31.68 Y127.567 E7.55438
G1 X30.778 Y127.521 E7.57842
G1 X29.883 Y127.396 E7.60246
G1 X29.004 Y127.193 E7.62647
G1 X28.145 Y126.912 E7.65051
G1 X27.315 Y126.556 E7.67454
G1 X26.52 Y126.129 E7.69856
G1 X25.765 Y125.632 E7.72261
G1 X25.057 Y125.071 E7.74664
G1 X24.402 Y124.45 E7.77066
G1 X23.804 Y123.773 E7.79469
G1 X23.269 Y123.046 E7.81871
G1 X22.8 Y122.274 E7.84275
G1 X22.401 Y121.464 E7.86677
G1 X22.075 Y120.621 E7.89082
G1 X21.825 Y119.754 E7.91483
G1 X21.653 Y118.867 E7.93887
G1 X21.546 Y117.661 E7.97109
G1 X21.533 Y117.056 E7.98719
G1 X21.533 Y107.393 E8.2443
G0 F6000 X21.133 Y107.387
G1 F600 X21.144 Y106.706 E8.26242
G1 X21.199 Y105.787 E8.28692
G1 X21.351 Y104.788 E8.31381
G1 X21.909 Y102.01 E8.3892
G1 X22.109 Y100.94 E8.41817
G1 X22.317 Y100.044 E8.44264
G1 X22.602 Y99.168 E8.46715
G1 X22.962 Y98.321 E8.49164
G1 X23.394 Y97.508 E8.51614
G1 X23.895 Y96.735 E8.54065
G1 X24.461 Y96.01 E8.56512
G1 X25.088 Y95.335 E8.58963
G1 X25.772 Y94.718 E8.61414
G1 X26.506 Y94.163 E8.63863
G1 X27.285 Y93.673 E8.66312
G1 X28.104 Y93.253 E8.68761
G1 X28.957 Y92.905 E8.71212
G1 X29.836 Y92.633 E8.7366
G1 X30.736 Y92.438 E8.76111
G1 X31.472 Y92.338 E8.78087
G1 X33.956 Y92.089 E8.8473
G1 X36.228 Y91.801 E8.90823
G1 X36.778 Y91.725 E8.92301
G1 X38.019 Y91.627 E8.95613
G1 X39.288 Y91.604 E8.9899
G1 X52.138 Y91.606 E9.33182
G1 X52.839 Y91.617 E9.35047
G1 X53.758 Y91.672 E9.37497
G1 X54.669 Y91.806 E9.39947
G1 X55.468 Y91.991 E9.42129
G1 X56.411 Y92.25 E9.44731
G1 X57.369 Y92.529 E9.47386
G1 X59.824 Y93.17 E9.54137
G1 X62.24 Y93.728 E9.60735
G1 X64.955 Y94.273 E9.68103
G1 X65.691 Y94.411 E9.70096
G1 X66.588 Y94.62 E9.72546
G1 X67.463 Y94.905 E9.74995
G1 X68.31 Y95.266 E9.77445
G1 X69.123 Y95.698 E9.79895
G1 X69.895 Y96.2 E9.82345
G1 X70.621 Y96.767 E9.84796
G1 X71.294 Y97.394 E9.87243
G1 X71.911 Y98.078 E9.89694
G1 X72.466 Y98.812 E9.92143
G1 X72.955 Y99.592 E9.94592
G1 X73.337 Y100.318 E9.96775
G1 X73.743 Y101.255 E9.99492
G1 X74.035 Y102.128 E10.01942
G1 X74.249 Y103.023 E10.0439
G1 X74.385 Y103.934 E10.06841
G1 X74.443 Y105.042 E10.09793
G1 X74.443 Y105.433 E10.10834
G1 X74.358 Y106.773 E10.14406
G1 X74.252 Y107.599 E10.16622
G1 X74.063 Y108.926 E10.20189
G1 X73.782 Y111.408 E10.26835
G1 X73.568 Y113.933 E10.33578
G1 X73.427 Y116.334 E10.39977
G1 X73.333 Y117.25 E10.42427
G1 X73.16 Y118.154 E10.44877
G1 X72.91 Y119.04 E10.47326
G1 X72.583 Y119.901 E10.49777
G1 X72.183 Y120.73 E10.52226
G1 X71.713 Y121.521 E10.54674
G1 X71.175 Y122.269 E10.57126
G1 X70.575 Y122.967 E10.59575
G1 X69.917 Y123.61 E10.62023
G1 X69.205 Y124.194 E10.64473
G1 X68.445 Y124.714 E10.66923
G1 X67.643 Y125.166 E10.69373
G1 X66.805 Y125.547 E10.71822
G1 X65.937 Y125.853 E10.74271
G1 X65.045 Y126.083 E10.76722
G1 X64.367 Y126.204 E10.78555
G1 X63.554 Y126.321 E10.8074
G1 X62.211 Y126.494 E10.84343
G1 X59.733 Y126.885 E10.91018
G1 X57.283 Y127.344 E10.97651
G1 X56.113 Y127.6 E11.00837
G1 X54.779 Y127.875 E11.04462
G1 X53.871 Y128.021 E11.06909
G1 X52.819 Y128.092 E11.09714
G1 X52.282 Y128.101 E11.11143
G1 X38.953 Y128.104 E11.46609
G1 X38.079 Y128.093 E11.48935
G1 X37.184 Y128.059 E11.51318
G1 X34.517 Y127.984 E11.58417
G1 X31.677 Y127.967 E11.65974
G1 X30.758 Y127.921 E11.68422
G1 X29.846 Y127.796 E11.70872
G1 X28.948 Y127.592 E11.73322
G1 X28.071 Y127.311 E11.75773
G1 X27.222 Y126.955 E11.78222
G1 X26.407 Y126.527 E11.80672
G1 X25.633 Y126.029 E11.8312
G1 X24.904 Y125.466 E11.85571
G1 X24.227 Y124.843 E11.88019
G1 X23.607 Y124.162 E11.9047
G1 X23.048 Y123.431 E11.92918
G1 X22.554 Y122.653 E11.95371
G1 X22.13 Y121.836 E11.9782
G1 X21.779 Y120.985 E12.00269
G1 X21.502 Y120.107 E12.02719
G1 X21.303 Y119.208 E12.05169
G1 X21.183 Y118.296 E12.07616
G1 X21.146 Y117.673 E12.09277
G1 X21.133 Y117.056 E12.10919
G1 X21.133 Y107.387 E12.36646
G1 F1500 E8.86646
;MESH:void_switch-v43.stl
G0 F6000 X35.059 Y108.916
;TYPE:WALL-INNER
G1 F1500 E12.36646
G1 F600 X35.059 Y107.626 E12.40079
G1 X34.47 Y107.775 E12.41695
G1 X33.615 Y107.776 E12.4397
G1 X33.133 Y107.673 E12.45282
G1 X33.132 Y108.916 E12.48589
G1 X35.059 Y108.916 E12.53717
G0 F6000 X35.459 Y109.441
G1 F600 X35.459 Y107.327 E12.59342
G1 X35.229 Y107.274 E12.5997
G1 X35.048 Y107.145 E12.60561
G1 X34.866 Y107.274 E12.61155
G1 X34.456 Y107.375 E12.62278
G1 X33.615 Y107.376 E12.64516
G1 X33.205 Y107.289 E12.65631
G1 X33.068 Y107.2 E12.66066
G1 X32.931 Y107.289 E12.66501
G1 X32.733 Y107.331 E12.67039
G1 X32.73 Y109.444 E12.72661
G1 X33.113 Y109.316 E12.73736
G1 X35.078 Y109.316 E12.78964
G1 X35.459 Y109.441 E12.80031
G0 F6000 X35.768 Y110.316
G1 F447.8 X35.813 Y109.971 E12.81272
G1 F539.3 X35.859 Y109.626 E12.82302
G1 F600 X35.859 Y107.037 E12.89191
G1 X35.823 Y106.976 E12.89379
G1 X35.672 Y106.976 E12.89781
G1 X35.406 Y106.915 E12.90507
G1 X35.25 Y106.804 E12.91017
G1 F562.1 X35.047 Y106.43 E12.92226
G1 X34.846 Y106.804 E12.93432
G1 F600 X34.689 Y106.915 E12.93943
G1 X34.443 Y106.976 E12.94618
G1 X33.615 Y106.976 E12.96821
G1 X33.369 Y106.924 E12.9749
G1 X33.213 Y106.823 E12.97984
G1 X33.068 Y106.528 E12.98859
G1 X32.922 Y106.823 E12.99735
G1 X32.767 Y106.924 E13.00227
G1 X32.52 Y106.976 E13.00899
G1 X32.368 Y106.976 E13.01303
G1 X32.332 Y107.037 E13.01491
G1 X32.33 Y109.626 E13.0838
G1 F539.3 X32.376 Y109.971 E13.09411
G1 F448.6 X32.423 Y110.316 E13.1065
G1 X32.587 Y110.076 E13.11684
G1 F539.3 X32.751 Y109.836 E13.12545
G1 F600 X33.113 Y109.716 E13.13559
G1 X35.078 Y109.716 E13.18788
G1 X35.441 Y109.835 E13.19804
G1 F539.3 X35.604 Y110.075 E13.20663
G1 F447.8 X35.768 Y110.316 E13.21703
G1 F1500 E9.71703
G0 F6000 X36.259 Y117.176
;TYPE:WALL-OUTER
G1 F1500 E13.21703
G1 F600 X36.259 Y106.93 E13.48965
G1 X36.054 Y106.576 E13.50054
G1 X35.672 Y106.576 E13.5107
G1 X35.531 Y106.519 E13.51475
G1 X35.472 Y106.394 E13.51843
G1 X35.471 Y103.076 E13.60671
G1 X34.623 Y103.076 E13.62928
G1 X34.623 Y106.394 E13.71756
G1 X34.564 Y106.519 E13.72124
G1 X34.43 Y106.576 E13.72511
G1 X33.554 Y106.576 E13.74842
G1 F505.3 X33.341 Y106.4 E13.75715
G1 F437.2 X33.341 Y104.774 E13.81653
G1 F438.8 X33.341 Y103.148 E13.8757
G1 X32.794 Y103.149 E13.8956
G1 X32.794 Y104.775 E13.95477
G1 F437.2 X32.794 Y106.401 E14.01415
G1 F505.3 X32.583 Y106.576 E14.02281
G1 F600 X32.137 Y106.576 E14.03468
G1 X31.932 Y106.93 E14.04556
G1 X31.933 Y117.176 E14.31819
G1 X32.913 Y117.176 E14.34426
G1 X32.913 Y110.316 E14.5268
G1 X32.992 Y110.156 E14.53154
G1 X33.113 Y110.116 E14.53493
G1 X35.078 Y110.116 E14.58722
G1 X35.199 Y110.155 E14.5906
G1 X35.278 Y110.316 E14.59537
G1 X35.279 Y117.176 E14.77791
G1 X36.259 Y117.176 E14.80398
G0 F6000 X35.769 Y116.686
;TYPE:WALL-INNER
G1 F413.8 X35.769 Y113.501 E14.92686
G1 F413.1 X35.768 Y110.316 E15.04996
G1 F1500 E11.54996
G0 F6000 X32.423 Y110.316
G1 F1500 E15.04996
G1 F413.8 X32.423 Y116.686 E15.29572
G1 F1500 E11.79572
G0 F6000 X35.047 Y106.43
G1 F1500 E15.29572
G1 F529.8 X35.047 Y104.965 E15.33987
G1 F532.2 X35.047 Y103.5 E15.38382
G1 F1500 E11.88382
G0 F6000 X34.694 Y108.551
;TYPE:SKIN
G1 F1500 E15.38382
G1 F583.9 X34.694 Y108.092 E15.39637
G1 X34.48 Y108.14 E15.40237
G1 X33.499 Y108.138 E15.42919
G1 X33.497 Y108.551 E15.44048
G1 X34.694 Y108.551 E15.4732
G1 F1500 E11.9732
G0 F6000 X38.891 Y104.252
;TYPE:WALL-INNER
G1 F1500 E15.4732
G1 F424 X39.855 Y103.287 E15.52456
G1 X38.891 Y103.288 E15.56085
G1 X38.891 Y104.252 E15.59715
G1 F1500 E12.09715
G0 F6000 X38.457 Y109.256
G1 F1500 E15.59715
G1 F469.7 X38.546 Y109.02 E15.60572
G1 F456.3 X38.636 Y108.784 E15.61456
G1 F449.4 X39.118 Y108.302 E15.63877
G1 F457.1 X38.894 Y108.078 E15.64984
G1 F538.1 X38.764 Y107.683 E15.66217
G1 F643.4 X38.763 Y106.899 E15.68163
G1 F646.9 X38.761 Y106.115 E15.70098
G1 F650.4 X38.759 Y105.331 E15.72022
G1 F625 X38.918 Y104.907 E15.73179
G1 F600 X40.509 Y103.316 E15.79166
G1 F620.2 X40.833 Y103.162 E15.80089
G1 F643.4 X41.617 Y103.161 E15.82034
G1 F646.9 X42.401 Y103.159 E15.83969
G1 F650.4 X43.185 Y103.157 E15.85894
G1 F592.6 X43.431 Y103.223 E15.8658
G1 F501 X43.678 Y103.289 E15.87394
G1 F457.1 X43.904 Y103.516 E15.88513
G1 F449.4 X44.386 Y103.034 E15.90934
G1 F458 X44.745 Y102.859 E15.92327
G1 X44.319 Y102.872 E15.93812
G1 F449.4 X43.904 Y102.872 E15.95286
G1 F464.2 X43.82 Y102.855 E15.95581
G1 F513.9 X43.502 Y102.822 E15.96574
G1 F598.5 X43.184 Y102.789 E15.97427
G1 F650.4 X42.39 Y102.789 E15.99376
G1 F646.9 X41.596 Y102.789 E16.01335
G1 F643.4 X40.802 Y102.789 E16.03306
G1 F629.9 X40.549 Y102.797 E16.03947
G1 F610.7 X40.297 Y102.805 E16.04606
G1 F600 X38.408 Y102.805 E16.09632
G1 X38.408 Y104.696 E16.14664
G1 F612.2 X38.4 Y105.014 E16.15494
G1 F638.3 X38.391 Y105.332 E16.16289
G1 F650.4 X38.391 Y106.126 E16.18238
G1 F646.9 X38.391 Y106.92 E16.20198
G1 F643.4 X38.391 Y107.714 E16.22168
G1 F591.1 X38.424 Y107.966 E16.22854
G1 F512.8 X38.457 Y108.218 E16.23645
G1 F464.2 X38.474 Y108.302 E16.2394
G1 F449.4 X38.474 Y108.717 E16.25414
G1 F456.3 X38.466 Y108.987 E16.26359
G1 F469.7 X38.457 Y109.257 E16.27278
G1 F1500 E12.77278
G0 F6000 X44.053 Y116.104
G1 F1500 E16.27278
G1 F600 X43.867 Y115.996 E16.2785
G1 X39.206 Y111.334 E16.45391
G1 X39.206 Y116.103 E16.5808
G1 X44.053 Y116.104 E16.70977
G1 F1500 E13.20977
G0 F6000 X51.704 Y116.102
G1 F1500 E16.70977
G1 F600 X51.704 Y110.065 E16.87041
G1 X51.597 Y110.247 E16.87602
G1 X48.991 Y112.852 E16.97407
G1 X48.633 Y113.031 E16.98472
G1 X48.453 Y113.39 E16.9954
G1 X45.849 Y115.996 E17.09343
G1 X45.665 Y116.103 E17.09909
G1 X51.704 Y116.102 E17.25978
G1 F1500 E13.75978
