;FLAVOR:Marlin
;TIME:2276
;Filament used: 0.488134m
;Layer height: 0.16
;MINX:70.24
;MINY:91.502
;MINZ:0.16
;MAXX:131.293
;MAXY:128.498
;MAXZ:10.56
;Generated with Cura_SteamEngine main
M82 ;absolute extrusion mode
; Ender 3 Custom Start G-code
G92 E0 ; Reset Extruder
G28 ; Home all axes
M104 S120 ; Start heating up the nozzle most of the way
M190 S68.0 ; Start heating the bed, wait until target temperature reached
M109 S248.0 ; Finish heating the nozzle
G1 Z2.0 F3000 ; Move Z Axis up little to prevent scratching of Heat Bed
G1 X0.1 Y20 Z0.3 F5000.0 ; Move to start position
G1 X0.1 Y200.0 Z0.3 F1500.0 E15 ; Draw the first line
G1 X0.4 Y200.0 Z0.3 F5000.0 ; Move to side a little
G1 X0.4 Y20 Z0.3 F1500.0 E30 ; Draw the second line
G92 E0 ; Reset Extruder
G1 Z2.0 F3000 ; Move Z Axis up little to prevent scratching of Heat Bed
G1 X5 Y20 Z0.3 F5000.0 ; Move over to prevent blob squish
G92 E0
G92 E0
G1 F1500 E-3.5
;LAYER_COUNT:66
;LAYER:0
M107
G0 F6000 X74.893 Y94.632 Z0.16
G0 X71.024 Y102.046
;TYPE:SKIRT
G1 F1500 E0
G1 F600 X71.215 Y101.008 E0.02808
G1 X71.424 Y100.094 E0.05303
G1 X71.71 Y99.201 E0.07798
G1 X72.071 Y98.335 E0.10294
G1 X72.505 Y97.503 E0.12791
G1 X73.008 Y96.712 E0.15286
G1 X73.576 Y95.966 E0.1778
G1 X74.206 Y95.271 E0.20276
G1 X74.893 Y94.632 E0.22773
G1 X75.632 Y94.054 E0.25269
G1 X76.417 Y93.542 E0.27763
G1 X77.243 Y93.098 E0.30258
G1 X78.104 Y92.726 E0.32754
G1 X78.993 Y92.428 E0.35249
G1 X79.905 Y92.208 E0.37745
G1 X80.832 Y92.066 E0.4024
G1 X81.709 Y92.005 E0.42579
G1 X82.372 Y91.99 E0.44344
G1 X85.035 Y91.99 E0.5143
G1 X85.148 Y91.983 E0.51731
G1 X86.817 Y91.978 E0.56172
G1 X89.33 Y91.902 E0.62862
G1 X91.862 Y91.752 E0.69611
G1 X94.2 Y91.552 E0.75854
G1 X94.954 Y91.514 E0.77863
G1 X95.739 Y91.502 E0.79952
G1 X108.559 Y91.504 E1.14064
G1 X109.472 Y91.519 E1.16493
G1 X110.408 Y91.576 E1.18988
G1 X111.336 Y91.712 E1.21484
G1 X112.396 Y91.97 E1.24387
G1 X113.329 Y92.246 E1.26976
G1 X115.869 Y92.961 E1.33997
G1 X118.309 Y93.574 E1.40691
G1 X120.788 Y94.122 E1.47446
G1 X121.881 Y94.336 E1.5041
G1 X122.541 Y94.48 E1.52207
G1 X123.447 Y94.723 E1.54703
G1 X124.329 Y95.043 E1.572
G1 X125.18 Y95.436 E1.59694
G1 X125.995 Y95.901 E1.62191
G1 X126.767 Y96.433 E1.64685
G1 X127.861 Y97.368 E1.68514
G1 X128.593 Y98.141 E1.71347
G1 X129.178 Y98.874 E1.73842
G1 X129.699 Y99.654 E1.76338
G1 X130.151 Y100.475 E1.78832
G1 X130.532 Y101.332 E1.81328
G1 X130.838 Y102.219 E1.83824
G1 X131.068 Y103.128 E1.86319
G1 X131.22 Y104.054 E1.88816
G1 X131.292 Y104.989 E1.91311
G1 X131.293 Y105.885 E1.93695
G1 X131.244 Y106.822 E1.96192
G1 X131.189 Y107.293 E1.97454
G1 X130.972 Y108.852 E2.01642
G1 X130.664 Y111.417 E2.08516
G1 X130.436 Y113.898 E2.15145
G1 X130.377 Y114.877 E2.17755
G1 X130.269 Y116.4 E2.21817
G1 X130.163 Y117.332 E2.24313
G1 X129.978 Y118.251 E2.26808
G1 X129.715 Y119.151 E2.29302
G1 X129.377 Y120.026 E2.31798
G1 X128.965 Y120.868 E2.34293
G1 X128.483 Y121.673 E2.36789
G1 X127.934 Y122.433 E2.39284
G1 X127.322 Y123.144 E2.4178
G1 X126.652 Y123.801 E2.44277
G1 X125.928 Y124.397 E2.46772
G1 X125.157 Y124.93 E2.49266
G1 X124.342 Y125.396 E2.51764
G1 X123.491 Y125.79 E2.54259
G1 X122.61 Y126.11 E2.56753
G1 X121.704 Y126.354 E2.5925
G1 X120.85 Y126.511 E2.6156
G1 X119.899 Y126.647 E2.64116
G1 X117.358 Y127.047 E2.70961
G1 X114.897 Y127.506 E2.77622
G1 X111.586 Y128.233 E2.86642
G1 X110.663 Y128.395 E2.89135
G1 X109.415 Y128.487 E2.92465
G1 X108.696 Y128.498 E2.94378
G1 X95.658 Y128.495 E3.2907
G1 X94.95 Y128.484 E3.30954
G1 X93.725 Y128.396 E3.34222
G1 X93.142 Y128.321 E3.35786
G1 X90.548 Y128.027 E3.42732
G1 X88.011 Y127.812 E3.49507
G1 X85.586 Y127.674 E3.5597
G1 X82.421 Y127.607 E3.64393
G1 X82.24 Y127.595 E3.64876
G1 X81.1 Y127.58 E3.67909
G1 X80.164 Y127.527 E3.70404
G1 X79.235 Y127.395 E3.72901
G1 X78.322 Y127.184 E3.75394
G1 X77.429 Y126.896 E3.77891
G1 X76.564 Y126.534 E3.80386
G1 X75.733 Y126.098 E3.82883
G1 X74.943 Y125.594 E3.85376
G1 X74.198 Y125.024 E3.87872
G1 X73.504 Y124.393 E3.90368
G1 X72.867 Y123.704 E3.92865
G1 X72.291 Y122.965 E3.95358
G1 X71.78 Y122.178 E3.97854
G1 X71.337 Y121.351 E4.00351
G1 X70.967 Y120.49 E4.02844
G1 X70.671 Y119.6 E4.0534
G1 X70.453 Y118.688 E4.07835
G1 X70.312 Y117.76 E4.10332
G1 X70.254 Y116.905 E4.12613
G1 X70.24 Y116.277 E4.14284
G1 X70.24 Y107.526 E4.37569
G1 X70.251 Y106.82 E4.39448
G1 X70.306 Y105.883 E4.41945
G1 X70.466 Y104.824 E4.44795
G1 X71.024 Y102.046 E4.52334
G1 F1500 E1.02334
G0 F6000 X71.04 Y107.538
G1 F1500 E4.52334
G1 F600 X71.051 Y106.832 E4.54213
G1 X71.105 Y105.931 E4.56615
G1 X71.25 Y104.981 E4.59172
G1 X71.812 Y102.183 E4.66765
G1 X72.002 Y101.153 E4.69552
G1 X72.204 Y100.273 E4.71955
G1 X72.484 Y99.414 E4.74359
G1 X72.839 Y98.584 E4.76761
G1 X73.265 Y97.788 E4.79163
G1 X73.761 Y97.032 E4.81569
G1 X74.321 Y96.324 E4.83971
G1 X74.942 Y95.668 E4.86374
G1 X75.618 Y95.07 E4.88776
G1 X76.345 Y94.533 E4.91181
G1 X77.116 Y94.063 E4.93583
G1 X77.926 Y93.664 E4.95986
G1 X78.768 Y93.337 E4.98389
G1 X79.635 Y93.086 E5.00791
G1 X80.522 Y92.913 E5.03195
G1 X81.732 Y92.804 E5.06428
G1 X82.372 Y92.79 E5.08131
G1 X84.948 Y92.79 E5.14986
G1 X85.15 Y92.783 E5.15523
G1 X86.843 Y92.778 E5.20028
G1 X89.368 Y92.702 E5.2675
G1 X91.899 Y92.552 E5.33496
G1 X94.268 Y92.349 E5.39823
G1 X94.968 Y92.313 E5.41688
G1 X95.567 Y92.303 E5.43282
G1 X108.559 Y92.304 E5.77851
G1 X109.457 Y92.319 E5.80241
G1 X110.359 Y92.375 E5.82645
G1 X111.252 Y92.511 E5.85049
G1 X112.169 Y92.737 E5.87562
G1 X113.115 Y93.017 E5.90187
G1 X115.668 Y93.736 E5.97244
G1 X118.119 Y94.351 E6.03968
G1 X120.618 Y94.904 E6.10778
G1 X121.728 Y95.121 E6.13788
G1 X122.367 Y95.26 E6.15528
G1 X123.239 Y95.496 E6.17931
G1 X124.086 Y95.808 E6.20333
G1 X124.903 Y96.194 E6.22738
G1 X125.682 Y96.65 E6.25139
G1 X126.418 Y97.174 E6.27543
G1 X127.309 Y97.949 E6.30685
G1 X128.012 Y98.691 E6.33405
G1 X128.572 Y99.4 E6.35809
G1 X129.067 Y100.155 E6.38211
G1 X129.494 Y100.951 E6.40615
G1 X129.848 Y101.782 E6.43018
G1 X130.127 Y102.641 E6.45421
G1 X130.33 Y103.521 E6.47824
G1 X130.454 Y104.415 E6.50226
G1 X130.498 Y105.464 E6.5302
G1 X130.494 Y105.878 E6.54121
G1 X130.397 Y107.183 E6.57603
G1 X130.178 Y108.759 E6.61837
G1 X129.866 Y111.352 E6.68786
G1 X129.638 Y113.841 E6.75437
G1 X129.571 Y114.934 E6.7835
G1 X129.471 Y116.343 E6.82109
G1 X129.368 Y117.24 E6.84511
G1 X129.185 Y118.125 E6.86916
G1 X128.925 Y118.989 E6.89317
G1 X128.589 Y119.828 E6.91721
G1 X128.181 Y120.633 E6.94123
G1 X127.702 Y121.399 E6.96527
G1 X127.158 Y122.12 E6.9893
G1 X126.553 Y122.79 E7.01332
G1 X125.89 Y123.404 E7.03736
G1 X125.176 Y123.956 E7.06138
G1 X124.415 Y124.444 E7.08543
G1 X123.615 Y124.862 E7.10945
G1 X122.781 Y125.208 E7.13347
G1 X121.919 Y125.478 E7.15751
G1 X120.737 Y125.719 E7.18961
G1 X119.804 Y125.852 E7.21468
G1 X117.224 Y126.258 E7.28418
G1 X114.742 Y126.722 E7.35136
G1 X111.415 Y127.452 E7.44199
G1 X110.525 Y127.606 E7.46603
G1 X109.401 Y127.688 E7.49601
G1 X108.871 Y127.697 E7.51012
G1 X95.671 Y127.695 E7.86135
G1 X94.963 Y127.684 E7.88019
G1 X93.827 Y127.603 E7.91049
G1 X93.2 Y127.523 E7.92731
G1 X90.637 Y127.232 E7.99594
G1 X88.087 Y127.016 E8.06404
G1 X85.591 Y126.874 E8.13056
G1 X82.438 Y126.807 E8.21447
G1 X82.264 Y126.796 E8.21911
G1 X81.111 Y126.78 E8.24979
G1 X80.21 Y126.728 E8.27381
G1 X79.316 Y126.596 E8.29785
G1 X78.438 Y126.386 E8.32187
G1 X77.582 Y126.099 E8.3459
G1 X76.754 Y125.737 E8.36994
G1 X75.962 Y125.304 E8.39396
G1 X75.211 Y124.802 E8.41799
G1 X74.507 Y124.236 E8.44203
G1 X73.857 Y123.609 E8.46606
G1 X73.264 Y122.928 E8.49009
G1 X72.734 Y122.197 E8.51411
G1 X72.271 Y121.421 E8.53816
G1 X71.878 Y120.608 E8.56218
G1 X71.558 Y119.764 E8.5862
G1 X71.315 Y118.894 E8.61024
G1 X71.149 Y118.006 E8.63427
G1 X71.053 Y116.882 E8.66429
G1 X71.04 Y116.277 E8.68039
G1 X71.04 Y107.538 E8.91292
G0 F6000 X70.64 Y107.532
G1 F600 X70.651 Y106.826 E8.93171
G1 X70.706 Y105.907 E8.9562
G1 X70.858 Y104.902 E8.98325
G1 X71.41 Y102.158 E9.05772
G1 X71.608 Y101.08 E9.08689
G1 X71.814 Y100.183 E9.11138
G1 X72.097 Y99.307 E9.13587
G1 X72.455 Y98.459 E9.16036
G1 X72.885 Y97.645 E9.18486
G1 X73.384 Y96.871 E9.20936
G1 X73.949 Y96.144 E9.23386
G1 X74.574 Y95.468 E9.25836
G1 X75.256 Y94.849 E9.28286
G1 X75.989 Y94.292 E9.30736
G1 X76.767 Y93.8 E9.33185
G1 X77.585 Y93.378 E9.35634
G1 X78.437 Y93.029 E9.38084
G1 X79.316 Y92.754 E9.40535
G1 X80.215 Y92.557 E9.42984
G1 X81.128 Y92.439 E9.45433
G1 X81.72 Y92.405 E9.47011
G1 X82.372 Y92.39 E9.48746
G1 X85.005 Y92.39 E9.55752
G1 X85.149 Y92.383 E9.56136
G1 X86.83 Y92.378 E9.60609
G1 X89.332 Y92.302 E9.67269
G1 X91.918 Y92.149 E9.74162
G1 X94.234 Y91.951 E9.80347
G1 X94.961 Y91.913 E9.82284
G1 X95.56 Y91.903 E9.83878
G1 X108.559 Y91.904 E10.18466
G1 X109.465 Y91.919 E10.20877
G1 X110.384 Y91.975 E10.23327
G1 X111.294 Y92.112 E10.25775
G1 X112.283 Y92.354 E10.28485
G1 X113.208 Y92.628 E10.31052
G1 X115.76 Y93.346 E10.38106
G1 X118.205 Y93.96 E10.44813
G1 X120.742 Y94.521 E10.51727
G1 X121.804 Y94.729 E10.54606
G1 X122.454 Y94.87 E10.56376
G1 X123.343 Y95.11 E10.58826
G1 X124.208 Y95.425 E10.61276
G1 X125.042 Y95.815 E10.63725
G1 X125.839 Y96.276 E10.66175
G1 X126.593 Y96.804 E10.68625
G1 X127.584 Y97.658 E10.72105
G1 X128.303 Y98.416 E10.74885
G1 X128.875 Y99.137 E10.77334
G1 X129.383 Y99.905 E10.79784
G1 X129.823 Y100.714 E10.82235
G1 X130.191 Y101.558 E10.84685
G1 X130.484 Y102.431 E10.87135
G1 X130.7 Y103.325 E10.89582
G1 X130.838 Y104.236 E10.92034
G1 X130.898 Y105.467 E10.95313
G1 X130.894 Y105.881 E10.96415
G1 X130.793 Y107.238 E11.00035
G1 X130.575 Y108.806 E11.04248
G1 X130.267 Y111.366 E11.11108
G1 X130.038 Y113.871 E11.17802
G1 X129.978 Y114.853 E11.20419
G1 X129.87 Y116.371 E11.24469
G1 X129.765 Y117.286 E11.26919
G1 X129.581 Y118.188 E11.29369
G1 X129.32 Y119.071 E11.31819
G1 X128.983 Y119.928 E11.34269
G1 X128.573 Y120.752 E11.36718
G1 X128.092 Y121.537 E11.39168
G1 X127.546 Y122.278 E11.41617
G1 X126.937 Y122.969 E11.44067
G1 X126.271 Y123.604 E11.46516
G1 X125.552 Y124.179 E11.48966
G1 X124.785 Y124.689 E11.51416
G1 X123.978 Y125.132 E11.53866
G1 X123.135 Y125.502 E11.56316
G1 X122.263 Y125.798 E11.58766
G1 X121.369 Y126.017 E11.61215
G1 X120.793 Y126.115 E11.6277
G1 X119.856 Y126.249 E11.65288
G1 X117.288 Y126.653 E11.72205
G1 X114.81 Y127.116 E11.78913
G1 X111.501 Y127.842 E11.87927
G1 X110.594 Y128.001 E11.90377
G1 X109.408 Y128.087 E11.93541
G1 X108.696 Y128.098 E11.95436
G1 X95.664 Y128.095 E12.30111
G1 X94.956 Y128.084 E12.31995
G1 X93.776 Y127.999 E12.35143
G1 X93.171 Y127.922 E12.36766
G1 X90.591 Y127.629 E12.43675
G1 X88.069 Y127.415 E12.5041
G1 X85.588 Y127.274 E12.57022
G1 X82.429 Y127.207 E12.65429
G1 X82.253 Y127.196 E12.65899
G1 X81.106 Y127.18 E12.68951
G1 X80.187 Y127.128 E12.714
G1 X79.275 Y126.996 E12.73852
G1 X78.379 Y126.785 E12.76301
G1 X77.505 Y126.498 E12.78749
G1 X76.658 Y126.135 E12.81201
G1 X75.847 Y125.701 E12.83648
G1 X75.076 Y125.198 E12.86098
G1 X74.351 Y124.63 E12.88548
G1 X73.679 Y124.001 E12.90998
G1 X73.063 Y123.316 E12.93449
G1 X72.51 Y122.58 E12.95898
G1 X72.022 Y121.799 E12.98349
G1 X71.604 Y120.979 E13.00798
G1 X71.259 Y120.125 E13.03249
G1 X70.989 Y119.245 E13.05698
G1 X70.797 Y118.345 E13.08146
G1 X70.683 Y117.431 E13.10597
G1 X70.654 Y116.894 E13.12028
G1 X70.64 Y116.277 E13.1367
G1 X70.64 Y107.532 E13.36939
G1 F1500 E9.86939
;MESH:void_switch-v53-stem.stl(1)
G0 F6000 X84.49 Y108.494
;TYPE:WALL-INNER
G1 F1500 E13.36939
G1 F434.8 X84.49 Y107.844 E13.39326
G1 F437.2 X84.124 Y107.961 E13.40729
G1 F441.2 X83.003 Y107.957 E13.44786
G1 F442.8 X82.711 Y107.882 E13.45873
G1 X82.711 Y108.498 E13.48094
G1 F442 X83.304 Y108.497 E13.50236
G1 F438.8 X83.897 Y108.496 E13.52393
G1 F436.4 X84.49 Y108.494 E13.54563
G0 F6000 X84.966 Y109.095
G1 F600 X84.966 Y107.441 E13.58964
G1 X84.736 Y107.388 E13.59592
G1 X84.554 Y107.259 E13.60185
G1 X84.372 Y107.388 E13.60779
G1 X84.051 Y107.49 E13.61675
G1 X83.041 Y107.488 E13.64363
G1 X82.711 Y107.403 E13.65269
G1 X82.574 Y107.314 E13.65704
G1 X82.437 Y107.403 E13.66139
G1 X82.239 Y107.445 E13.66677
G1 X82.237 Y109.098 E13.71076
G1 X82.62 Y108.97 E13.7215
G1 X84.585 Y108.97 E13.77379
G1 X84.966 Y109.095 E13.78446
G0 F6000 X85.275 Y109.97
G1 F447.8 X85.32 Y109.625 E13.79686
G1 F539.3 X85.366 Y109.28 E13.80716
G1 F600 X85.366 Y107.151 E13.86381
G1 X85.33 Y107.09 E13.8657
G1 X85.178 Y107.09 E13.86974
G1 X84.912 Y107.029 E13.877
G1 X84.756 Y106.918 E13.8821
G1 F563.4 X84.554 Y106.544 E13.89414
G1 X84.352 Y106.918 E13.90619
G1 F600 X84.196 Y107.029 E13.91128
G1 X84.002 Y107.09 E13.91669
G1 X83.073 Y107.089 E13.94141
G1 X82.875 Y107.038 E13.94685
G1 X82.719 Y106.937 E13.9518
G1 X82.574 Y106.644 E13.9605
G1 X82.429 Y106.937 E13.96919
G1 X82.273 Y107.038 E13.97414
G1 X82.027 Y107.09 E13.98083
G1 X81.875 Y107.09 E13.98487
G1 X81.839 Y107.278 E13.98997
G1 X81.837 Y109.28 E14.04324
G1 F539.3 X81.883 Y109.625 E14.05354
G1 F448.6 X81.93 Y109.97 E14.06593
G1 X82.094 Y109.73 E14.07628
G1 F539.3 X82.258 Y109.49 E14.08488
G1 F600 X82.62 Y109.37 E14.09503
G1 X84.585 Y109.37 E14.14731
G1 X84.948 Y109.489 E14.15748
G1 F539.3 X85.111 Y109.729 E14.16607
G1 F447.8 X85.275 Y109.97 E14.17646
G1 F1500 E10.67646
G0 F6000 X85.766 Y116.39
;TYPE:WALL-OUTER
G1 F1500 E14.17646
G1 F600 X85.766 Y107.044 E14.42514
G1 X85.561 Y106.69 E14.43602
G1 X85.178 Y106.69 E14.44621
G1 X85.037 Y106.633 E14.45026
G1 X84.978 Y106.508 E14.45394
G1 X84.978 Y103.19 E14.54222
G1 X84.13 Y103.19 E14.56479
G1 X84.13 Y106.508 E14.65307
G1 X84.071 Y106.633 E14.65675
G1 X83.963 Y106.688 E14.65998
G1 X83.06 Y106.69 E14.684
G1 F506.3 X82.847 Y106.514 E14.69272
G1 F438 X82.847 Y103.263 E14.81123
G1 F438.8 X82.301 Y103.263 E14.83109
G1 F438 X82.301 Y106.514 E14.9496
G1 F506.3 X82.088 Y106.69 E14.95831
G1 F600 X81.644 Y106.69 E14.97013
G1 X81.439 Y107.044 E14.98101
G1 X81.439 Y107.278 E14.98724
G1 X81.44 Y116.39 E15.22969
G1 X82.42 Y116.39 E15.25577
G1 X82.42 Y109.97 E15.42659
G1 X82.499 Y109.81 E15.43134
G1 X82.62 Y109.77 E15.43473
G1 X84.585 Y109.77 E15.48702
G1 X84.706 Y109.809 E15.4904
G1 X84.785 Y109.97 E15.49517
G1 X84.786 Y116.39 E15.66599
G1 X85.766 Y116.39 E15.69207
G0 F6000 X85.276 Y115.9
;TYPE:WALL-INNER
G1 F413.8 X85.276 Y112.935 E15.80646
G1 F413.1 X85.275 Y109.97 E15.92106
G1 F1500 E12.42106
G0 F6000 X81.93 Y109.97
G1 F1500 E15.92106
G1 F413.8 X81.93 Y115.9 E16.14985
G1 F1500 E12.64985
G0 F6000 X84.554 Y106.544
G1 F1500 E16.14985
G1 F532.2 X84.554 Y105.079 E16.1938
G1 F534.5 X84.554 Y103.614 E16.23755
G1 F1500 E12.73755
;MESH:void_switch-v53-stem.stl
G0 F6000 X91.39 Y108.494
;TYPE:WALL-INNER
G1 F1500 E16.23755
G1 F434.8 X91.39 Y107.844 E16.26142
G1 F437.2 X91.024 Y107.961 E16.27545
G1 F441.2 X89.903 Y107.957 E16.31602
G1 F442.8 X89.611 Y107.882 E16.32689
G1 X89.611 Y108.498 E16.3491
G1 F442 X90.204 Y108.497 E16.37052
G1 F438.8 X90.797 Y108.496 E16.3921
G1 F436.4 X91.39 Y108.494 E16.41379
G0 F6000 X91.866 Y109.095
G1 F600 X91.866 Y107.441 E16.4578
G1 X91.636 Y107.388 E16.46408
G1 X91.454 Y107.259 E16.47002
G1 X91.272 Y107.388 E16.47595
G1 X90.951 Y107.49 E16.48491
G1 X89.941 Y107.488 E16.51179
G1 X89.611 Y107.403 E16.52086
G1 X89.474 Y107.314 E16.5252
G1 X89.337 Y107.403 E16.52955
G1 X89.139 Y107.445 E16.53494
G1 X89.137 Y109.098 E16.57892
G1 X89.52 Y108.97 E16.58966
G1 X91.485 Y108.97 E16.64195
G1 X91.866 Y109.095 E16.65262
G0 F6000 X92.175 Y109.97
G1 F447.8 X92.22 Y109.625 E16.66502
G1 F539.3 X92.266 Y109.28 E16.67533
G1 F600 X92.266 Y107.151 E16.73197
G1 X92.23 Y107.09 E16.73386
G1 X92.078 Y107.09 E16.7379
G1 X91.812 Y107.029 E16.74517
G1 X91.656 Y106.918 E16.75026
G1 F563.4 X91.454 Y106.544 E16.76231
G1 X91.252 Y106.918 E16.77435
G1 F600 X91.096 Y107.029 E16.77944
G1 X90.902 Y107.09 E16.78486
G1 X89.973 Y107.089 E16.80957
G1 X89.775 Y107.038 E16.81502
G1 X89.619 Y106.937 E16.81996
G1 X89.474 Y106.644 E16.82866
G1 X89.329 Y106.937 E16.83736
G1 X89.173 Y107.038 E16.8423
G1 X88.927 Y107.09 E16.84899
G1 X88.775 Y107.09 E16.85304
G1 X88.739 Y107.173 E16.85544
G1 X88.737 Y109.28 E16.91151
G1 F539.3 X88.783 Y109.625 E16.92181
G1 F448.6 X88.83 Y109.97 E16.9342
G1 X88.994 Y109.73 E16.94455
G1 F539.3 X89.158 Y109.49 E16.95315
G1 F600 X89.52 Y109.37 E16.9633
