;FLAVOR:Marlin
;TIME:2057
;Filament used: 0.415565m
;Layer height: 0.16
;MINX:9.844
;MINY:130.298
;MINZ:0.16
;MAXX:63.955
;MAXY:167.598
;MAXZ:10.88
;Generated with Cura_SteamEngine main
M82 ;absolute extrusion mode
; Ender 3 Custom Start G-code
G92 E0 ; Reset Extruder
G28 ; Home all axes
M104 S120 ; Start heating up the nozzle most of the way
M190 S68.0 ; Start heating the bed, wait until target temperature reached
M109 S248.0 ; Finish heating the nozzle
G1 Z2.0 F3000 ; Move Z Axis up little to prevent scratching of Heat Bed
G1 X0.1 Y20 Z0.3 F5000.0 ; Move to start position
G1 X0.1 Y200.0 Z0.3 F1500.0 E15 ; Draw the first line
G1 X0.4 Y200.0 Z0.3 F5000.0 ; Move to side a little
G1 X0.4 Y20 Z0.3 F1500.0 E30 ; Draw the second line
G92 E0 ; Reset Extruder
G1 Z2.0 F3000 ; Move Z Axis up little to prevent scratching of Heat Bed
G1 X5 Y20 Z0.3 F5000.0 ; Move over to prevent blob squish
G92 E0
G92 E0
G1 F1500 E-6.5
;LAYER_COUNT:68
;LAYER:0
M107
G0 F6000 X19.548 Y131.18 Z0.16
G0 X10.618 Y141.078
;TYPE:SKIRT
G1 F1500 E0
G1 F600 X10.829 Y139.952 E0.03048
G1 X11.041 Y139.038 E0.05545
G1 X11.33 Y138.146 E0.0804
G1 X11.694 Y137.282 E0.10534
G1 X12.131 Y136.451 E0.13033
G1 X12.636 Y135.661 E0.15527
G1 X13.207 Y134.917 E0.18023
G1 X13.839 Y134.225 E0.20516
G1 X14.528 Y133.588 E0.23013
G1 X15.269 Y133.013 E0.25509
G1 X16.056 Y132.503 E0.28004
G1 X16.883 Y132.061 E0.30499
G1 X17.745 Y131.692 E0.32994
G1 X18.636 Y131.397 E0.35491
G1 X19.548 Y131.18 E0.37986
G1 X20.525 Y131.036 E0.40614
G1 X22.736 Y130.81 E0.46527
G1 X25.01 Y130.522 E0.52626
G1 X25.724 Y130.423 E0.54544
G1 X27.016 Y130.321 E0.57993
G1 X28.296 Y130.298 E0.61399
G1 X41.122 Y130.299 E0.95527
G1 X42.013 Y130.313 E0.97898
G1 X42.949 Y130.369 E1.00393
G1 X43.877 Y130.504 E1.02888
G1 X45.04 Y130.791 E1.06075
G1 X46.622 Y131.281 E1.10482
G1 X49.001 Y131.975 E1.17076
G1 X51.459 Y132.617 E1.23836
G1 X54.072 Y133.219 E1.3097
G1 X55.063 Y133.433 E1.33668
G1 X55.971 Y133.67 E1.36165
G1 X56.855 Y133.983 E1.3866
G1 X57.709 Y134.371 E1.41156
G1 X58.527 Y134.83 E1.43652
G1 X59.303 Y135.356 E1.46146
G1 X60.232 Y136.13 E1.49364
G1 X60.446 Y136.329 E1.50141
G1 X61.105 Y136.996 E1.52636
G1 X61.704 Y137.717 E1.5513
G1 X62.241 Y138.487 E1.57628
G1 X62.709 Y139.299 E1.60122
G1 X63.107 Y140.148 E1.62617
G1 X63.431 Y141.029 E1.65115
G1 X63.678 Y141.933 E1.67608
G1 X63.848 Y142.855 E1.70103
G1 X63.939 Y143.789 E1.726
G1 X63.955 Y144.41 E1.74253
G1 X63.954 Y144.828 E1.75365
G1 X63.865 Y146.198 E1.79018
G1 X63.785 Y146.816 E1.80676
G1 X63.544 Y148.503 E1.8521
G1 X63.258 Y151.025 E1.91964
G1 X63.046 Y153.513 E1.98608
G1 X63.008 Y154.173 E2.00367
G1 X62.927 Y155.305 E2.03387
G1 X62.82 Y156.237 E2.05883
G1 X62.634 Y157.156 E2.08378
G1 X62.371 Y158.056 E2.10873
G1 X62.032 Y158.931 E2.1337
G1 X61.62 Y159.773 E2.15864
G1 X61.137 Y160.577 E2.18359
G1 X60.588 Y161.337 E2.20854
G1 X59.976 Y162.048 E2.2335
G1 X59.305 Y162.704 E2.25847
G1 X58.581 Y163.3 E2.28342
G1 X57.809 Y163.833 E2.30838
G1 X56.995 Y164.298 E2.33333
G1 X56.144 Y164.691 E2.35827
G1 X55.262 Y165.011 E2.38323
G1 X54.356 Y165.255 E2.4082
G1 X53.816 Y165.361 E2.42284
G1 X53.133 Y165.478 E2.44128
G1 X51.633 Y165.715 E2.48169
G1 X49.171 Y166.173 E2.54832
G1 X46.703 Y166.705 E2.6155
G1 X44.457 Y167.252 E2.67701
G1 X43.538 Y167.441 E2.70197
G1 X42.607 Y167.552 E2.72692
G1 X41.953 Y167.582 E2.74434
G1 X41.136 Y167.595 E2.76608
G1 X28.027 Y167.598 E3.11489
G1 X27.158 Y167.587 E3.13801
G1 X26.221 Y167.534 E3.16298
G1 X25.293 Y167.401 E3.18793
G1 X24.236 Y167.149 E3.21684
G1 X21.447 Y166.337 E3.29413
G1 X18.905 Y165.677 E3.36401
G1 X18.229 Y165.511 E3.38253
G1 X17.328 Y165.249 E3.4075
G1 X16.453 Y164.911 E3.43246
G1 X15.611 Y164.499 E3.4574
G1 X14.806 Y164.018 E3.48235
G1 X14.045 Y163.469 E3.50732
G1 X13.334 Y162.858 E3.53227
G1 X12.677 Y162.188 E3.55723
G1 X12.08 Y161.465 E3.58218
G1 X11.547 Y160.693 E3.60714
G1 X11.081 Y159.879 E3.6321
G1 X10.686 Y159.029 E3.65704
G1 X10.365 Y158.147 E3.68202
G1 X10.121 Y157.242 E3.70696
G1 X9.954 Y156.319 E3.73191
G1 X9.858 Y155.171 E3.76257
G1 X9.844 Y154.541 E3.77933
G1 X9.844 Y146.506 E3.99313
G1 X9.855 Y145.8 E4.01192
G1 X9.91 Y144.863 E4.03689
G1 X10.07 Y143.804 E4.06539
G1 X10.618 Y141.078 E4.13937
G1 F1500 E-2.36063
G0 F6000 X10.644 Y146.518
G1 F1500 E4.13937
G1 F600 X10.655 Y145.812 E4.15816
G1 X10.709 Y144.911 E4.18218
G1 X10.854 Y143.961 E4.20775
G1 X11.419 Y141.151 E4.28401
G1 X11.616 Y140.099 E4.31249
G1 X11.821 Y139.22 E4.33651
G1 X12.104 Y138.362 E4.36055
G1 X12.461 Y137.533 E4.38457
G1 X12.89 Y136.738 E4.4086
G1 X13.388 Y135.985 E4.43262
G1 X13.951 Y135.278 E4.45667
G1 X14.574 Y134.624 E4.4807
G1 X15.252 Y134.028 E4.50472
G1 X15.98 Y133.494 E4.52875
G1 X16.753 Y133.026 E4.55279
G1 X17.564 Y132.629 E4.57682
G1 X18.407 Y132.305 E4.60085
G1 X19.275 Y132.057 E4.62487
G1 X20.606 Y131.832 E4.66079
G1 X22.834 Y131.605 E4.72038
G1 X25.143 Y131.312 E4.78231
G1 X25.834 Y131.216 E4.80087
G1 X27.032 Y131.121 E4.83285
G1 X28.296 Y131.098 E4.86648
G1 X41.295 Y131.1 E5.21236
G1 X42 Y131.112 E5.23112
G1 X42.901 Y131.168 E5.25514
G1 X43.794 Y131.303 E5.27918
G1 X44.806 Y131.556 E5.30693
G1 X46.362 Y132.039 E5.35028
G1 X48.785 Y132.745 E5.41743
G1 X51.254 Y133.39 E5.48534
G1 X53.935 Y134.008 E5.55854
G1 X54.894 Y134.215 E5.58465
G1 X55.768 Y134.444 E5.60869
G1 X56.618 Y134.75 E5.63273
G1 X57.437 Y135.13 E5.65675
G1 X58.219 Y135.581 E5.68077
G1 X58.959 Y136.099 E5.7048
G1 X59.687 Y136.715 E5.73018
G1 X59.901 Y136.914 E5.73795
G1 X60.534 Y137.558 E5.76198
G1 X61.108 Y138.255 E5.78601
G1 X61.619 Y139.001 E5.81007
G1 X62.061 Y139.788 E5.83408
G1 X62.432 Y140.611 E5.8581
G1 X62.728 Y141.464 E5.88213
G1 X62.948 Y142.34 E5.90616
G1 X63.09 Y143.232 E5.93019
G1 X63.155 Y144.408 E5.96153
G1 X63.154 Y144.826 E5.97266
G1 X63.071 Y146.097 E6.00655
G1 X62.993 Y146.703 E6.0228
G1 X62.751 Y148.403 E6.06849
G1 X62.463 Y150.939 E6.13641
G1 X62.25 Y153.434 E6.20303
G1 X62.22 Y153.967 E6.21724
G1 X62.129 Y155.248 E6.25141
G1 X62.025 Y156.145 E6.27544
G1 X61.842 Y157.029 E6.29946
G1 X61.581 Y157.894 E6.3235
G1 X61.245 Y158.732 E6.34752
G1 X60.836 Y159.537 E6.37155
G1 X60.357 Y160.303 E6.39559
G1 X59.813 Y161.024 E6.41962
G1 X59.206 Y161.693 E6.44365
G1 X58.544 Y162.307 E6.46768
G1 X57.829 Y162.859 E6.49171
G1 X57.068 Y163.346 E6.51575
G1 X56.268 Y163.763 E6.53976
G1 X55.433 Y164.109 E6.56381
G1 X54.571 Y164.379 E6.58784
G1 X53.681 Y164.573 E6.61208
G1 X53.145 Y164.665 E6.62655
G1 X51.546 Y164.918 E6.66963
G1 X49 Y165.392 E6.73854
G1 X46.522 Y165.926 E6.80598
G1 X44.262 Y166.476 E6.86787
G1 X43.377 Y166.657 E6.89191
G1 X42.48 Y166.759 E6.91593
G1 X41.94 Y166.782 E6.93031
G1 X41.123 Y166.795 E6.95205
G1 X28.027 Y166.798 E7.30051
G1 X27.169 Y166.787 E7.32334
G1 X26.267 Y166.734 E7.34739
G1 X25.374 Y166.602 E7.37141
G1 X24.46 Y166.381 E7.39643
G1 X21.67 Y165.569 E7.47374
G1 X19.084 Y164.897 E7.54484
G1 X18.419 Y164.734 E7.56305
G1 X17.553 Y164.48 E7.58707
G1 X16.712 Y164.151 E7.6111
G1 X15.904 Y163.748 E7.63512
G1 X15.134 Y163.275 E7.65917
G1 X14.41 Y162.736 E7.68318
G1 X13.735 Y162.135 E7.70723
G1 X13.117 Y161.477 E7.73125
G1 X12.559 Y160.767 E7.75528
G1 X12.067 Y160.01 E7.7793
G1 X11.643 Y159.212 E7.80335
G1 X11.291 Y158.38 E7.82738
G1 X11.015 Y157.521 E7.85139
G1 X10.815 Y156.64 E7.87543
G1 X10.694 Y155.745 E7.89946
G1 X10.658 Y155.146 E7.91543
G1 X10.644 Y154.541 E7.93153
G1 X10.644 Y146.518 E8.14501
G0 F6000 X10.244 Y146.512
G1 F600 X10.255 Y145.806 E8.16379
G1 X10.31 Y144.887 E8.18829
G1 X10.462 Y143.882 E8.21534
G1 X11.036 Y141.026 E8.29285
G1 X11.223 Y140.026 E8.31992
G1 X11.431 Y139.129 E8.34442
G1 X11.717 Y138.254 E8.36891
G1 X12.078 Y137.407 E8.39341
G1 X12.511 Y136.594 E8.41792
G1 X13.012 Y135.822 E8.44241
G1 X13.579 Y135.097 E8.4669
G1 X14.207 Y134.423 E8.49141
G1 X14.89 Y133.806 E8.5159
G1 X15.625 Y133.252 E8.54039
G1 X16.405 Y132.762 E8.5649
G1 X17.225 Y132.343 E8.5894
G1 X18.077 Y131.996 E8.61388
G1 X18.957 Y131.724 E8.63839
G1 X19.857 Y131.53 E8.66289
G1 X20.565 Y131.434 E8.6819
G1 X22.787 Y131.207 E8.74133
G1 X25.033 Y130.922 E8.80157
G1 X25.779 Y130.819 E8.82161
G1 X27.024 Y130.721 E8.85484
G1 X28.296 Y130.698 E8.88869
G1 X41.122 Y130.699 E9.22996
G1 X42.006 Y130.713 E9.25349
G1 X42.925 Y130.768 E9.27798
G1 X43.836 Y130.903 E9.30249
G1 X44.923 Y131.173 E9.33229
G1 X46.492 Y131.66 E9.376
G1 X48.893 Y132.36 E9.44255
G1 X51.34 Y133 E9.50985
G1 X54.031 Y133.619 E9.58332
G1 X54.979 Y133.824 E9.60913
G1 X55.869 Y134.057 E9.63361
G1 X56.736 Y134.367 E9.65811
G1 X57.573 Y134.751 E9.68261
G1 X58.374 Y135.205 E9.70711
G1 X59.132 Y135.728 E9.73161
G1 X59.959 Y136.423 E9.76036
G1 X60.173 Y136.622 E9.76813
G1 X60.82 Y137.277 E9.79263
G1 X61.407 Y137.986 E9.81712
G1 X61.93 Y138.744 E9.84163
G1 X62.385 Y139.544 E9.86612
G1 X62.77 Y140.381 E9.89063
G1 X63.08 Y141.247 E9.9151
G1 X63.314 Y142.138 E9.93962
G1 X63.47 Y143.045 E9.9641
G1 X63.555 Y144.409 E10.00047
G1 X63.554 Y144.827 E10.01159
G1 X63.468 Y146.148 E10.04681
G1 X63.389 Y146.76 E10.06323
G1 X63.145 Y148.472 E10.10925
G1 X62.864 Y150.947 E10.17552
G1 X62.647 Y153.492 E10.24349
G1 X62.609 Y154.145 E10.26089
G1 X62.528 Y155.277 E10.29109
G1 X62.422 Y156.191 E10.31557
G1 X62.238 Y157.093 E10.34007
G1 X61.976 Y157.976 E10.36457
G1 X61.638 Y158.832 E10.38906
G1 X61.228 Y159.656 E10.41355
G1 X60.747 Y160.441 E10.43805
G1 X60.2 Y161.182 E10.46255
G1 X59.591 Y161.872 E10.48704
G1 X58.924 Y162.507 E10.51155
G1 X58.205 Y163.082 E10.53604
G1 X57.438 Y163.592 E10.56055
G1 X56.63 Y164.033 E10.58504
G1 X55.787 Y164.403 E10.60954
G1 X54.915 Y164.698 E10.63403
G1 X53.748 Y164.967 E10.6659
G1 X53.07 Y165.083 E10.6842
G1 X51.575 Y165.319 E10.72447
G1 X49.085 Y165.783 E10.79187
G1 X46.612 Y166.316 E10.85918
G1 X44.359 Y166.864 E10.92088
G1 X43.457 Y167.049 E10.94538
G1 X42.543 Y167.155 E10.96986
G1 X41.947 Y167.182 E10.98574
G1 X41.13 Y167.195 E11.00748
G1 X28.027 Y167.198 E11.35612
G1 X27.163 Y167.187 E11.37911
G1 X26.244 Y167.134 E11.40361
G1 X25.333 Y167.002 E11.4281
G1 X24.348 Y166.765 E11.45506
G1 X21.555 Y165.951 E11.53247
G1 X19.04 Y165.299 E11.6016
G1 X18.324 Y165.123 E11.62122
G1 X17.44 Y164.865 E11.64572
G1 X16.582 Y164.531 E11.67022
G1 X15.757 Y164.123 E11.69471
G1 X14.969 Y163.646 E11.71922
G1 X14.226 Y163.102 E11.74372
G1 X13.534 Y162.496 E11.76819
G1 X12.896 Y161.832 E11.7927
G1 X12.318 Y161.115 E11.8172
G1 X11.805 Y160.351 E11.84169
G1 X11.36 Y159.545 E11.86619
G1 X10.986 Y158.703 E11.8907
G1 X10.687 Y157.833 E11.91518
G1 X10.465 Y156.939 E11.93969
G1 X10.321 Y156.03 E11.96418
G1 X10.258 Y155.159 E11.98741
G1 X10.244 Y154.541 E12.00386
G1 X10.244 Y146.512 E12.2175
G1 F1500 E5.7175
;MESH:void_switch-v11.stl
G0 F6000 X20.178 Y146.512
G0 X21.263 Y146.512
G0 X24.57 Y147.35
G1 F1500 E12.2175
G0 F6000 X24.57 Y147.376
;TYPE:WALL-INNER
G1 F600 X24.57 Y146.421 E12.24291
G1 X24.34 Y146.368 E12.24919
G1 X24.159 Y146.239 E12.2551
G1 X23.977 Y146.368 E12.26104
G1 X23.664 Y146.47 E12.2698
G1 X22.725 Y146.47 E12.29478
G1 X22.406 Y146.419 E12.30338
G1 X22.178 Y146.294 E12.3103
G1 X22.041 Y146.383 E12.31464
G1 X21.843 Y146.425 E12.32003
G1 X21.841 Y147.378 E12.34539
G1 X22.224 Y147.25 E12.35613
G1 X24.19 Y147.25 E12.40844
G1 X24.57 Y147.376 E12.4191
G0 F6000 X24.119 Y146.799
G1 F538.1 X23.708 Y146.86 E12.43142
G1 F620.2 X23.216 Y146.86 E12.44409
G1 F628.3 X22.724 Y146.86 E12.45659
G1 F575.5 X22.27 Y146.823 E12.46923
G0 F6000 X24.618 Y147.822
G0 X24.88 Y148.25
G1 F448.6 X24.925 Y147.905 E12.48161
G1 F539.3 X24.97 Y147.56 E12.49191
G1 F600 X24.97 Y146.131 E12.52993
G1 X24.934 Y146.07 E12.53181
G1 X24.783 Y146.07 E12.53583
G1 X24.517 Y146.009 E12.54309
G1 X24.361 Y145.898 E12.54819
G1 F562.1 X24.158 Y145.524 E12.56028
G1 X23.957 Y145.898 E12.57234
G1 F600 X23.8 Y146.009 E12.57745
G1 X23.614 Y146.07 E12.58266
G1 X22.725 Y146.07 E12.60631
G1 X22.533 Y146.039 E12.61149
G1 X22.323 Y145.917 E12.61795
G1 X22.178 Y145.624 E12.62665
G1 X22.033 Y145.917 E12.63535
G1 X21.877 Y146.018 E12.64029
G1 X21.631 Y146.07 E12.64698
G1 X21.479 Y146.07 E12.65103
G1 X21.443 Y146.131 E12.65291
G1 X21.441 Y147.56 E12.69094
G1 F539.3 X21.487 Y147.905 E12.70124
G1 F448.6 X21.534 Y148.25 E12.71363
G1 X21.698 Y148.01 E12.72398
G1 F539.3 X21.862 Y147.77 E12.73258
G1 F600 X22.224 Y147.65 E12.74273
G1 X24.19 Y147.65 E12.79504
G1 X24.551 Y147.769 E12.80515
G1 F539.3 X24.715 Y148.009 E12.81376
G1 F448.6 X24.88 Y148.25 E12.82415
G1 F1500 E6.32415
G0 F6000 X25.1 Y154.366
G1 F1500 E12.82415
G0 F6000 X25.37 Y154.636
;TYPE:WALL-OUTER
G1 F600 X25.37 Y146.024 E13.0533
G1 X25.165 Y145.67 E13.06419
G1 X24.783 Y145.67 E13.07435
G1 X24.642 Y145.613 E13.0784
G1 X24.583 Y145.488 E13.08207
G1 X24.582 Y142.17 E13.17036
G1 X23.734 Y142.17 E13.19292
G1 X23.734 Y145.488 E13.28121
G1 X23.675 Y145.613 E13.28489
G1 X23.569 Y145.668 E13.28807
G1 X22.678 Y145.67 E13.31177
G1 F506.3 X22.451 Y145.494 E13.32083
G1 F438 X22.451 Y142.243 E13.43934
G1 F438.8 X21.905 Y142.243 E13.45921
G1 F438 X21.905 Y145.494 E13.57772
G1 F506.3 X21.692 Y145.67 E13.58643
G1 F600 X21.248 Y145.67 E13.59824
G1 X21.043 Y146.024 E13.60913
G1 X21.044 Y154.636 E13.83827
G1 X22.024 Y154.636 E13.86435
G1 X22.024 Y148.25 E14.03427
G1 X22.103 Y148.09 E14.03902
G1 X22.224 Y148.05 E14.04241
G1 X24.19 Y148.05 E14.09472
G1 X24.311 Y148.089 E14.0981
G1 X24.39 Y148.25 E14.10288
G1 X24.39 Y154.636 E14.27279
G1 X25.37 Y154.636 E14.29887
G0 F6000 X24.88 Y154.146
;TYPE:WALL-INNER
G1 F413.8 X24.88 Y148.25 E14.52635
G0 F6000 X24.158 Y146.37
G0 X24.158 Y145.524
G1 F529.8 X24.158 Y144.059 E14.57049
G1 F532.2 X24.158 Y142.594 E14.61445
G0 F6000 X23.962 Y145.898
G0 X23.202 Y145.901
G0 X21.534 Y148.25
G1 F413.8 X21.534 Y154.146 E14.84192
G1 F1500 E8.34192
G0 F6000 X21.796 Y147.822
G0 X24.618 Y147.822
G0 X25.156 Y154.422
G0 X27.339 Y154.422
G0 X28.492 Y155.025
G0 X33.128 Y155.196
G1 F1500 E14.84192
G1 F600 X32.992 Y155.118 E14.8461
G1 X28.32 Y150.444 E15.02194
G1 X28.32 Y155.197 E15.14841
G1 X33.128 Y155.196 E15.27634
G0 F6000 X33.82 Y155.277
G0 X40.815 Y155.196
G1 F600 X40.815 Y149.222 E15.43529
G1 X40.737 Y149.355 E15.4394
G1 X38.115 Y151.975 E15.53802
G1 X37.769 Y152.151 E15.54835
G1 X37.591 Y152.501 E15.5588
G1 X34.974 Y155.118 E15.65728
G1 X34.839 Y155.196 E15.66143
G1 X40.815 Y155.196 E15.82044
G0 F6000 X40.917 Y148.364
G0 X40.815 Y147.506
G1 F600 X40.815 Y142.699 E15.94834
G1 X36.062 Y142.699 E16.07481
G1 X40.737 Y147.373 E16.25071
G1 X40.815 Y147.506 E16.25481
G0 F6000 X40.871 Y147.991
G0 X41.215 Y155.596
G1 F600 X41.215 Y149.387 E16.42002
G1 F589.7 X41.208 Y149.117 E16.42733
G1 F570.1 X41.201 Y148.847 E16.4349
G1 F551.7 X41.194 Y148.577 E16.44271
G1 F541.8 X41.194 Y148.15 E16.4553
G1 F551.7 X41.201 Y147.88 E16.46311
G1 F570.1 X41.208 Y147.61 E16.47068
G1 F589.7 X41.215 Y147.34 E16.47799
G1 F600 X41.215 Y142.299 E16.61212
G1 X35.096 Y142.299 E16.77493
G1 X40.454 Y147.656 E16.97654
G1 F592.6 X40.604 Y147.896 E16.98416
G1 F578.3 X40.754 Y148.136 E16.99197
G1 F570.1 X40.754 Y148.592 E17.00474
G1 F578.3 X40.604 Y148.832 E17.01256
G1 F592.6 X40.454 Y149.072 E17.02018
G1 F600 X37.876 Y151.648 E17.11715
G1 X37.694 Y151.756 E17.12278
G1 X37.449 Y151.831 E17.1296
G1 X37.374 Y152.076 E17.13642
G1 X37.183 Y152.343 E17.14515
G1 X34.691 Y154.835 E17.23893
G1 F592.6 X34.451 Y154.985 E17.24655
G1 F576.9 X34.21 Y155.135 E17.25441
G1 F568.7 X33.756 Y155.135 E17.26715
G1 F576.9 X33.516 Y154.985 E17.27498
G1 F592.6 X33.275 Y154.835 E17.28263
G1 F600 X27.92 Y149.478 E17.48417
G1 X27.92 Y155.597 E17.64699
G1 X32.96 Y155.596 E17.78109
G1 F589.7 X33.23 Y155.59 E17.78841
G1 F568.7 X33.5 Y155.583 E17.79599
G1 F549.2 X33.77 Y155.576 E17.80384
G1 F540.5 X34.198 Y155.575 E17.81648
G1 F550.5 X34.467 Y155.581 E17.82428
G1 F568.7 X34.736 Y155.588 E17.83184
G1 F589.7 X35.005 Y155.595 E17.83912
G1 F600 X41.215 Y155.596 E18.00436
G0 F6000 X41.615 Y155.996
G1 F600 X41.615 Y141.899 E18.37945
G1 X34.523 Y141.899 E18.56816
G1 F563.4 X34.253 Y141.924 E18.57584
G1 F502.1 X33.983 Y141.949 E18.58446
G1 F531 X34.408 Y142.176 E18.59895
G1 F600 X40.171 Y147.939 E18.81581
G1 F601.5 X40.324 Y148.201 E18.82386
G1 X40.324 Y148.527 E18.83252
G1 X40.171 Y148.789 E18.84057
G1 F600 X37.678 Y151.282 E18.93438
