;FLAVOR:Marlin
;TIME:1399
;Filament used: 0.409389m
;Layer height: 0.16
;MINX:52.148
;MINY:63.47
;MINZ:0.16
;MAXX:106.262
;MAXY:100.765
;MAXZ:10.4
;Generated with Cura_SteamEngine main
M82 ;absolute extrusion mode
; Ender 3 Custom Start G-code
G92 E0 ; Reset Extruder
G28 ; Home all axes
M104 S120 ; Start heating up the nozzle most of the way
M190 S68.0 ; Start heating the bed, wait until target temperature reached
M109 S252.0 ; Finish heating the nozzle
G1 Z2.0 F3000 ; Move Z Axis up little to prevent scratching of Heat Bed
G1 X0.1 Y20 Z0.3 F5000.0 ; Move to start position
G1 X0.1 Y200.0 Z0.3 F1500.0 E15 ; Draw the first line
G1 X0.4 Y200.0 Z0.3 F5000.0 ; Move to side a little
G1 X0.4 Y20 Z0.3 F1500.0 E30 ; Draw the second line
G92 E0 ; Reset Extruder
G1 Z2.0 F3000 ; Move Z Axis up little to prevent scratching of Heat Bed
G1 X5 Y20 Z0.3 F5000.0 ; Move over to prevent blob squish
G92 E0
G92 E0
G1 F1500 E-4
;LAYER_COUNT:65
;LAYER:0
M106 S25.5
G0 F7500 X56.833 Y67.175 Z0.16
G0 X52.923 Y74.665
;TYPE:SKIRT
G1 F1500 E0
G1 X53.134 Y73.539 E0.03048
G1 X53.346 Y72.625 E0.05545
G1 X53.635 Y71.733 E0.0804
G1 X53.999 Y70.869 E0.10534
G1 X54.436 Y70.038 E0.13033
G1 X54.941 Y69.248 E0.15527
G1 X55.512 Y68.504 E0.18023
G1 X56.144 Y67.812 E0.20516
G1 X56.833 Y67.175 E0.23013
G1 X57.574 Y66.6 E0.25509
G1 X58.361 Y66.09 E0.28004
G1 X59.188 Y65.648 E0.30499
G1 X60.05 Y65.279 E0.32994
G1 X60.941 Y64.984 E0.35491
G1 X62.078 Y64.726 E0.38594
G1 X63.15 Y64.541 E0.41488
G1 X66.311 Y63.943 E0.50048
G1 X67.473 Y63.704 E0.53205
G1 X68.399 Y63.555 E0.557
G1 X69.5 Y63.481 E0.58637
G1 X70.219 Y63.47 E0.6055
G1 X83.388 Y63.472 E0.9559
G1 X84.357 Y63.491 E0.98169
G1 X85.293 Y63.551 E1.00665
G1 X86.22 Y63.691 E1.03159
G1 X87.521 Y64.028 E1.06735
G1 X88.219 Y64.257 E1.0869
G1 X89.989 Y64.869 E1.13673
G1 X92.375 Y65.618 E1.20327
G1 X94.816 Y66.309 E1.27077
G1 X96.674 Y66.786 E1.32182
G1 X97.45 Y66.977 E1.34308
G1 X98.107 Y67.155 E1.36119
G1 X98.998 Y67.447 E1.38614
G1 X99.862 Y67.814 E1.41112
G1 X100.69 Y68.253 E1.43605
G1 X101.479 Y68.761 E1.46102
G1 X102.551 Y69.618 E1.49754
G1 X103.294 Y70.347 E1.52524
G1 X103.905 Y71.058 E1.55018
G1 X104.453 Y71.819 E1.57513
G1 X104.934 Y72.624 E1.60009
G1 X105.345 Y73.467 E1.62504
G1 X105.683 Y74.342 E1.65
G1 X105.945 Y75.242 E1.67494
G1 X106.13 Y76.162 E1.69991
G1 X106.235 Y77.094 E1.72487
G1 X106.262 Y77.941 E1.74741
G1 X106.259 Y78.365 E1.7587
G1 X106.16 Y79.756 E1.7958
G1 X106.056 Y80.522 E1.81637
G1 X105.855 Y81.872 E1.85269
G1 X105.555 Y84.369 E1.91961
G1 X105.273 Y87.564 E2.00495
G1 X105.233 Y88.122 E2.01984
G1 X105.127 Y89.054 E2.04479
G1 X104.941 Y89.974 E2.06977
G1 X104.678 Y90.874 E2.09472
G1 X104.339 Y91.748 E2.11966
G1 X103.927 Y92.591 E2.14463
G1 X103.444 Y93.395 E2.16958
G1 X102.895 Y94.155 E2.19453
G1 X102.283 Y94.866 E2.21949
G1 X101.613 Y95.522 E2.24444
G1 X100.889 Y96.119 E2.26941
G1 X100.118 Y96.651 E2.29433
G1 X99.303 Y97.116 E2.3193
G1 X98.452 Y97.51 E2.34425
G1 X97.57 Y97.83 E2.36922
G1 X96.43 Y98.124 E2.40055
G1 X95.247 Y98.361 E2.43265
G1 X94.565 Y98.489 E2.45111
G1 X92.059 Y99.035 E2.51936
G1 X89.644 Y99.631 E2.58554
G1 X88.246 Y100.01 E2.62408
G1 X87.051 Y100.345 E2.65711
G1 X86.138 Y100.559 E2.68206
G1 X85.21 Y100.695 E2.70701
G1 X84.259 Y100.752 E2.73236
G1 X83.45 Y100.765 E2.75389
G1 X70.185 Y100.763 E3.10685
G1 X69.484 Y100.752 E3.1255
G1 X68.273 Y100.666 E3.15781
G1 X67.174 Y100.527 E3.18728
G1 X64.637 Y100.238 E3.25522
G1 X62.214 Y100.029 E3.31993
G1 X61.284 Y99.909 E3.34489
G1 X60.367 Y99.71 E3.36985
G1 X59.471 Y99.434 E3.3948
G1 X58.602 Y99.082 E3.41975
G1 X57.765 Y98.657 E3.44472
G1 X56.968 Y98.163 E3.46967
G1 X56.216 Y97.603 E3.49462
G1 X55.515 Y96.981 E3.51956
G1 X54.868 Y96.301 E3.54453
G1 X54.283 Y95.568 E3.56949
G1 X53.761 Y94.789 E3.59444
G1 X53.308 Y93.967 E3.61941
G1 X52.927 Y93.111 E3.64434
G1 X52.62 Y92.224 E3.66932
G1 X52.39 Y91.315 E3.69427
G1 X52.237 Y90.39 E3.71921
G1 X52.163 Y89.394 E3.74579
G1 X52.148 Y88.731 E3.76343
G1 X52.149 Y80.093 E3.99327
G1 X52.16 Y79.387 E4.01206
G1 X52.215 Y78.45 E4.03704
G1 X52.375 Y77.391 E4.06553
G1 X52.923 Y74.665 E4.13952
G1 F1500 E0.13952
G0 F7500 X52.949 Y80.105
G1 F1500 E4.13952
G1 X52.96 Y79.399 E4.15831
G1 X53.014 Y78.498 E4.18232
G1 X53.159 Y77.548 E4.20789
G1 X53.725 Y74.733 E4.28429
G1 X53.921 Y73.686 E4.31264
G1 X54.126 Y72.807 E4.33665
G1 X54.409 Y71.949 E4.36069
G1 X54.766 Y71.12 E4.38471
G1 X55.195 Y70.325 E4.40875
G1 X55.693 Y69.572 E4.43277
G1 X56.256 Y68.865 E4.45682
G1 X56.879 Y68.211 E4.48085
G1 X57.557 Y67.615 E4.50487
G1 X58.285 Y67.081 E4.52889
G1 X59.058 Y66.613 E4.55294
G1 X59.869 Y66.216 E4.57696
G1 X60.712 Y65.892 E4.60099
G1 X61.58 Y65.644 E4.62501
G1 X62.214 Y65.514 E4.64223
G1 X63.313 Y65.325 E4.6719
G1 X66.489 Y64.723 E4.75792
G1 X67.634 Y64.488 E4.78902
G1 X68.526 Y64.345 E4.81306
G1 X69.514 Y64.28 E4.8394
G1 X70.044 Y64.271 E4.85351
G1 X83.61 Y64.274 E5.21447
G1 X84.34 Y64.29 E5.2339
G1 X85.241 Y64.35 E5.25793
G1 X86.133 Y64.489 E5.28195
G1 X87.273 Y64.789 E5.31331
G1 X87.783 Y64.955 E5.32758
G1 X89.709 Y65.619 E5.38179
G1 X92.128 Y66.378 E5.44925
G1 X94.64 Y67.09 E5.51872
G1 X96.478 Y67.562 E5.56922
G1 X97.259 Y67.754 E5.59062
G1 X97.891 Y67.925 E5.60804
G1 X98.748 Y68.208 E5.63205
G1 X99.578 Y68.565 E5.65609
G1 X100.372 Y68.995 E5.68012
G1 X101.126 Y69.493 E5.70416
G1 X102.021 Y70.217 E5.73479
G1 X102.732 Y70.918 E5.76136
G1 X103.317 Y71.606 E5.78539
G1 X103.839 Y72.343 E5.80942
G1 X104.294 Y73.123 E5.83345
G1 X104.678 Y73.941 E5.85749
G1 X104.988 Y74.789 E5.88151
G1 X105.222 Y75.661 E5.90554
G1 X105.377 Y76.551 E5.92958
G1 X105.454 Y77.451 E5.95361
G1 X105.462 Y77.935 E5.96649
G1 X105.459 Y78.359 E5.97777
G1 X105.368 Y79.649 E6.01218
G1 X105.265 Y80.405 E6.03248
G1 X105.062 Y81.772 E6.06926
G1 X104.762 Y84.264 E6.13604
G1 X104.472 Y87.553 E6.2239
G1 X104.435 Y88.066 E6.23758
G1 X104.331 Y88.963 E6.26161
G1 X104.148 Y89.847 E6.28563
G1 X103.888 Y90.712 E6.30966
G1 X103.552 Y91.55 E6.33369
G1 X103.143 Y92.355 E6.35771
G1 X102.664 Y93.121 E6.38175
G1 X102.12 Y93.842 E6.40578
G1 X101.514 Y94.512 E6.42982
G1 X100.851 Y95.125 E6.45385
G1 X100.137 Y95.677 E6.47786
G1 X99.376 Y96.165 E6.50191
G1 X98.576 Y96.582 E6.52592
G1 X97.741 Y96.928 E6.54997
G1 X96.88 Y97.198 E6.57398
G1 X96.272 Y97.34 E6.59059
G1 X94.39 Y97.709 E6.64162
G1 X91.916 Y98.247 E6.70899
G1 X89.405 Y98.866 E6.7778
G1 X87.976 Y99.254 E6.8172
G1 X86.835 Y99.574 E6.84873
G1 X85.956 Y99.779 E6.87275
G1 X85.062 Y99.906 E6.89677
G1 X84.246 Y99.952 E6.91852
G1 X83.271 Y99.966 E6.94447
G1 X70.198 Y99.963 E7.29231
G1 X69.497 Y99.952 E7.31097
G1 X68.374 Y99.872 E7.34093
G1 X67.286 Y99.734 E7.37011
G1 X64.724 Y99.442 E7.43872
G1 X62.283 Y99.232 E7.50391
G1 X61.387 Y99.115 E7.52795
G1 X60.506 Y98.919 E7.55197
G1 X59.645 Y98.646 E7.576
G1 X58.811 Y98.298 E7.60005
G1 X58.012 Y97.877 E7.62408
G1 X57.253 Y97.387 E7.64812
G1 X56.541 Y96.832 E7.67214
G1 X55.88 Y96.217 E7.69616
G1 X55.277 Y95.545 E7.72018
G1 X54.735 Y94.822 E7.74423
G1 X54.259 Y94.055 E7.76825
G1 X53.853 Y93.248 E7.79228
G1 X53.52 Y92.409 E7.8163
G1 X53.262 Y91.543 E7.84034
G1 X53.082 Y90.658 E7.86437
G1 X52.962 Y89.371 E7.89877
G1 X52.948 Y88.731 E7.9158
G1 X52.949 Y80.105 E8.14532
G0 F7500 X52.549 Y80.099
G1 F1500 X52.56 Y79.393 E8.16411
G1 X52.615 Y78.474 E8.18861
G1 X52.767 Y77.469 E8.21565
G1 X53.341 Y74.613 E8.29316
G1 X53.528 Y73.613 E8.32023
G1 X53.736 Y72.716 E8.34473
G1 X54.022 Y71.841 E8.36923
G1 X54.383 Y70.994 E8.39373
G1 X54.816 Y70.181 E8.41824
G1 X55.317 Y69.409 E8.44272
G1 X55.884 Y68.684 E8.46721
G1 X56.512 Y68.01 E8.49173
G1 X57.195 Y67.393 E8.51622
G1 X57.93 Y66.839 E8.54071
G1 X58.71 Y66.349 E8.56522
G1 X59.53 Y65.93 E8.58972
G1 X60.382 Y65.583 E8.6142
G1 X61.262 Y65.311 E8.63871
G1 X62.146 Y65.12 E8.66277
G1 X63.226 Y64.934 E8.69193
G1 X66.399 Y64.333 E8.77786
G1 X67.553 Y64.096 E8.8092
G1 X68.462 Y63.95 E8.8337
G1 X69.507 Y63.881 E8.86157
G1 X70.219 Y63.87 E8.88051
G1 X83.388 Y63.872 E9.23092
G1 X84.348 Y63.891 E9.25647
G1 X85.267 Y63.951 E9.28097
G1 X86.177 Y64.09 E9.30546
G1 X87.397 Y64.408 E9.33901
G1 X87.907 Y64.574 E9.35328
G1 X89.844 Y65.242 E9.4078
G1 X92.284 Y66.008 E9.47585
G1 X94.685 Y66.688 E9.54225
G1 X96.576 Y67.174 E9.5942
G1 X97.355 Y67.365 E9.61554
G1 X97.999 Y67.54 E9.6333
G1 X98.874 Y67.828 E9.65781
G1 X99.72 Y68.19 E9.68229
G1 X100.532 Y68.624 E9.70679
G1 X101.303 Y69.127 E9.73129
G1 X102.285 Y69.917 E9.76482
G1 X103.013 Y70.632 E9.79197
G1 X103.611 Y71.332 E9.81647
G1 X104.146 Y72.081 E9.84096
G1 X104.615 Y72.874 E9.86547
G1 X105.012 Y73.704 E9.88996
G1 X105.336 Y74.566 E9.91446
G1 X105.584 Y75.453 E9.93896
G1 X105.755 Y76.358 E9.96347
G1 X105.846 Y77.274 E9.98796
G1 X105.862 Y77.938 E10.00564
G1 X105.859 Y78.362 E10.01692
G1 X105.764 Y79.702 E10.05266
G1 X105.661 Y80.463 E10.0731
G1 X105.457 Y81.837 E10.11006
G1 X105.158 Y84.316 E10.1765
G1 X104.872 Y87.558 E10.2631
G1 X104.834 Y88.094 E10.27739
G1 X104.729 Y89.009 E10.3019
G1 X104.545 Y89.911 E10.32639
G1 X104.283 Y90.793 E10.35088
G1 X103.945 Y91.65 E10.37539
G1 X103.535 Y92.474 E10.39988
G1 X103.054 Y93.259 E10.42437
G1 X102.508 Y94 E10.44887
G1 X101.899 Y94.69 E10.47335
G1 X101.232 Y95.325 E10.49786
G1 X100.513 Y95.9 E10.52235
G1 X99.746 Y96.41 E10.54686
G1 X98.939 Y96.852 E10.57134
G1 X98.096 Y97.222 E10.59584
G1 X97.224 Y97.518 E10.62034
G1 X96.351 Y97.732 E10.64426
G1 X95.173 Y97.968 E10.67623
G1 X94.477 Y98.099 E10.69507
G1 X91.992 Y98.64 E10.76274
G1 X89.519 Y99.25 E10.83052
G1 X88.138 Y99.625 E10.86859
G1 X86.943 Y99.96 E10.90161
G1 X86.047 Y100.169 E10.9261
G1 X85.136 Y100.301 E10.95059
G1 X84.252 Y100.352 E10.97415
G1 X83.443 Y100.365 E10.99568
G1 X70.192 Y100.363 E11.34826
G1 X69.491 Y100.352 E11.36692
G1 X68.324 Y100.269 E11.39805
G1 X67.269 Y100.135 E11.42634
G1 X64.684 Y99.841 E11.49557
G1 X62.248 Y99.631 E11.56063
G1 X61.335 Y99.512 E11.58513
G1 X60.436 Y99.315 E11.60961
G1 X59.557 Y99.04 E11.63412
G1 X58.706 Y98.69 E11.6586
G1 X57.888 Y98.267 E11.68311
G1 X57.11 Y97.775 E11.7076
G1 X56.377 Y97.217 E11.73211
G1 X55.696 Y96.598 E11.7566
G1 X55.071 Y95.922 E11.7811
G1 X54.507 Y95.195 E11.80558
G1 X54.008 Y94.421 E11.83008
G1 X53.578 Y93.607 E11.85458
G1 X53.22 Y92.758 E11.87909
G1 X52.938 Y91.882 E11.90358
G1 X52.732 Y90.985 E11.92807
G1 X52.606 Y90.073 E11.95257
G1 X52.563 Y89.383 E11.97096
G1 X52.548 Y88.731 E11.98832
G1 X52.549 Y80.099 E12.218
G1 F1500 E8.218
;MESH:void_switch-v32.stl
G0 F7500 X62.495 Y89.733
G0 X65.182 Y89.729
G0 X65.842 Y83.28
G0 X66.379 Y81.131
;TYPE:WALL-INNER
G1 F1500 E12.218
G1 F1011.8 X66.379 Y80.437 E12.24537
G1 F1015.2 X66.013 Y80.549 E12.26042
G1 F1022.1 X64.949 Y80.549 E12.30197
G1 F1023.9 X64.641 Y80.474 E12.31432
G1 X64.641 Y81.134 E12.34005
G1 F1022.1 X65.51 Y81.133 E12.37398
G1 F1015.2 X66.379 Y81.131 E12.40815
G0 F7500 X66.875 Y81.753
G1 F1500 X66.875 Y80.008 E12.45458
G1 X66.645 Y79.955 E12.46086
G1 X66.464 Y79.826 E12.46677
G1 X66.282 Y79.955 E12.47271
G1 X65.948 Y80.057 E12.482
G1 X64.976 Y80.056 E12.50786
G1 X64.62 Y79.97 E12.51761
G1 X64.483 Y79.881 E12.52195
G1 X64.346 Y79.97 E12.5263
G1 X64.148 Y80.012 E12.53169
G1 X64.146 Y81.755 E12.57807
G1 X64.529 Y81.627 E12.58881
G1 X66.495 Y81.627 E12.64112
G1 X66.875 Y81.753 E12.65177
G0 F7500 X67.185 Y82.627
G1 F1121.5 X67.23 Y82.282 E12.66416
G1 F1348.3 X67.275 Y81.937 E12.67446
G1 F1500 X67.275 Y79.721 E12.73342
G1 X67.238 Y79.657 E12.73539
G1 X67.088 Y79.657 E12.73938
G1 X66.822 Y79.596 E12.74664
G1 X66.666 Y79.485 E12.75173
G1 F1405.2 X66.463 Y79.111 E12.76382
G1 X66.262 Y79.485 E12.77588
G1 F1500 X66.105 Y79.596 E12.781
G1 X65.921 Y79.652 E12.78611
G1 X64.997 Y79.657 E12.8107
G1 X64.784 Y79.605 E12.81653
G1 X64.628 Y79.504 E12.82148
G1 X64.483 Y79.211 E12.83018
G1 X64.338 Y79.504 E12.83888
G1 X64.182 Y79.605 E12.84382
G1 X63.936 Y79.657 E12.85051
G1 X63.785 Y79.657 E12.85453
G1 X63.748 Y79.721 E12.8565
G1 X63.746 Y81.937 E12.91546
G1 F1348.3 X63.792 Y82.282 E12.92576
G1 F1121.5 X63.839 Y82.627 E12.93815
G1 X64.003 Y82.387 E12.9485
G1 F1348.3 X64.167 Y82.147 E12.9571
G1 F1500 X64.529 Y82.027 E12.96725
G1 X66.495 Y82.027 E13.01956
G1 X66.856 Y82.146 E13.02968
G1 F1348.3 X67.02 Y82.386 E13.03828
G1 F1121.5 X67.185 Y82.627 E13.04868
G1 F1500 E9.04868
G0 F7500 X68.54 Y82.627
G0 X68.54 Y88.877
G0 X67.675 Y88.877
;TYPE:WALL-OUTER
G1 F1500 E13.04868
G1 X67.675 Y79.613 E13.29517
G1 X67.468 Y79.257 E13.30613
G1 X67.088 Y79.257 E13.31624
G1 X66.947 Y79.2 E13.32029
G1 X66.888 Y79.075 E13.32397
G1 X66.887 Y75.757 E13.41225
G1 X66.039 Y75.757 E13.43482
G1 X66.039 Y79.075 E13.5231
G1 X65.98 Y79.2 E13.52678
G1 X65.867 Y79.256 E13.53014
G1 X64.969 Y79.257 E13.55403
G1 F1265.8 X64.756 Y79.081 E13.56274
G1 F1094.9 X64.756 Y75.83 E13.68125
G1 F1096.9 X64.21 Y75.83 E13.70112
G1 F1094.9 X64.21 Y79.081 E13.81963
G1 F1265.8 X63.997 Y79.257 E13.82834
G1 F1500 X63.555 Y79.257 E13.8401
G1 X63.348 Y79.613 E13.85106
G1 X63.349 Y88.878 E14.09758
G1 X64.329 Y88.877 E14.12366
G1 X64.329 Y82.627 E14.28996
G1 X64.408 Y82.467 E14.29471
G1 X64.529 Y82.427 E14.2981
G1 X66.495 Y82.427 E14.35041
G1 X66.616 Y82.466 E14.35379
G1 X66.695 Y82.627 E14.35856
G1 X66.695 Y88.877 E14.52486
G1 X67.675 Y88.877 E14.55094
G0 F7500 X67.185 Y88.387
;TYPE:WALL-INNER
G1 F1034.5 X67.185 Y82.627 E14.77317
G1 F1500 E10.77317
G0 F7500 X65.842 Y83.28
G0 X65.182 Y83.28
G0 X63.839 Y82.627
G1 F1500 E14.77317
G1 F1034.5 X63.839 Y88.387 E14.9954
G1 F1500 E10.9954
G0 F7500 X65.194 Y88.387
G0 X65.842 Y89.73
G0 X68.528 Y89.731
G0 X68.538 Y79.378
G0 X67.962 Y78.398
G0 X66.463 Y79.111
G1 F1500 E14.9954
G1 F1324.5 X66.463 Y77.646 E15.03955
G1 F1330.4 X66.463 Y76.181 E15.0835
G1 F1500 E11.0835
G0 F7500 X67.752 Y76.18
G0 X68.559 Y76.746
G0 X70.225 Y76.746
G1 F1500 E15.0835
G1 X71.5 Y75.471 E15.13148
G1 X70.224 Y75.47 E15.16543
G1 X70.225 Y76.746 E15.19938
G0 F7500 X70.641 Y75.844
G1 F1714.3 X70.619 Y75.881 E15.20038
G1 X70.555 Y75.844 E15.2021
G1 X70.619 Y75.807 E15.20382
G1 F1500 E11.20382
G0 F7500 X69.91 Y81.537
G1 F1500 E15.20382
G1 F1052.6 X70.116 Y81.055 E15.2237
G1 F1065.7 X70.585 Y80.586 E15.24854
G1 F1090.9 X70.335 Y80.335 E15.2615
G1 F1295.9 X70.199 Y79.923 E15.27486
G1 F1554.4 X70.198 Y79.149 E15.29474
G1 F1562.5 X70.197 Y78.375 E15.31451
G1 F1574.8 X70.195 Y77.601 E15.33412
G1 F1538.5 X70.36 Y77.176 E15.34595
G1 F1500 X71.93 Y75.607 E15.40501
G1 F1526.7 X72.253 Y75.447 E15.41443
G1 F1558.4 X73.414 Y75.445 E15.44417
G1 F1570.7 X74.575 Y75.442 E15.47367
G1 F1428.6 X74.829 Y75.51 E15.48102
G1 F1204.8 X75.085 Y75.578 E15.48979
G1 F1090.9 X75.339 Y75.832 E15.50293
G1 F1065.7 X75.809 Y75.363 E15.5278
G1 F1043.5 X76.173 Y75.161 E15.54372
G1 F1029.2 X75.895 Y75.158 E15.5545
G1 F1043.5 X75.617 Y75.155 E15.56514
G1 F1058.2 X75.339 Y75.152 E15.57562
G1 F1115.2 X75.22 Y75.128 E15.57997
G1 F1250 X74.897 Y75.095 E15.59033
G1 F1449.3 X74.574 Y75.061 E15.59928
G1 F1574.8 X72.355 Y75.061 E15.65552
G1 F1558.4 X72.031 Y75.066 E15.66382
G1 F1519 X71.707 Y75.071 E15.67233
G1 F1500 X69.825 Y75.071 E15.72241
G1 X69.825 Y76.954 E15.77251
G1 F1519 X69.82 Y77.278 E15.78102
G1 F1558.4 X69.815 Y77.602 E15.78932
G1 F1574.8 X69.815 Y78.386 E15.80919
G1 F1562.5 X69.815 Y79.171 E15.82925
G1 F1554.4 X69.815 Y79.956 E15.8494
G1 F1432 X69.848 Y80.211 E15.85657
G1 F1244.8 X69.881 Y80.467 E15.86484
G1 F1115.2 X69.905 Y80.586 E15.86919
G1 F1060.1 X69.907 Y81.062 E15.88711
G1 F1045.3 X69.91 Y81.538 E15.90529
G1 F1500 E11.90529
G0 F7500 X71.523 Y81.537
G0 X76.291 Y86.306
G0 X75.547 Y88.364
G1 F1500 E15.90529
G1 X75.3 Y88.221 E15.91288
G1 X70.624 Y83.543 E16.08887
G1 X70.624 Y88.364 E16.21715
G1 X75.547 Y88.364 E16.34814
G1 F1500 E12.34814
G0 F7500 X75.547 Y90.43
G0 X83.121 Y90.431
G0 X83.121 Y88.366
G1 F1500 E16.34814
G1 X83.121 Y82.276 E16.51019
G1 X82.973 Y82.527 E16.51794
G1 X80.552 Y84.95 E16.60908
G1 X80.347 Y85.118 E16.61613
G1 X80.027 Y85.272 E16.62558
G1 X79.873 Y85.593 E16.63505
G1 X79.704 Y85.799 E16.64214
G1 X77.282 Y88.221 E16.73328
G1 X77.035 Y88.364 E16.74088
G1 X83.121 Y88.366 E16.90281
G1 F1500 E12.90281
G0 F7500 X85.187 Y88.366
G0 X85.187 Y80.795
G0 X83.121 Y80.795
G1 F1500 E16.90281
G1 X83.121 Y75.873 E17.03378
G1 X78.3 Y75.873 E17.16206
