;FLAVOR:Marlin
;TIME:1913
;Filament used: 0.392302m
;Layer height: 0.16
;MINX:13.606
;MINY:91.352
;MINZ:0.2
;MAXX:67.323
;MAXY:128.647
;MAXZ:10.92
;Generated with Cura_SteamEngine main
M82 ;absolute extrusion mode
; Ender 3 Custom Start G-code
G92 E0 ; Reset Extruder
G28 ; Home all axes
M104 S120 ; Start heating up the nozzle most of the way
M190 S70.0 ; Start heating the bed, wait until target temperature reached
M109 S252.0 ; Finish heating the nozzle
G1 Z2.0 F3000 ; Move Z Axis up little to prevent scratching of Heat Bed
G1 X0.1 Y20 Z0.3 F5000.0 ; Move to start position
G1 X0.1 Y200.0 Z0.3 F1500.0 E15 ; Draw the first line
G1 X0.4 Y200.0 Z0.3 F5000.0 ; Move to side a little
G1 X0.4 Y20 Z0.3 F1500.0 E30 ; Draw the second line
G92 E0 ; Reset Extruder
G1 Z2.0 F3000 ; Move Z Axis up little to prevent scratching of Heat Bed
G1 X5 Y20 Z0.3 F5000.0 ; Move over to prevent blob squish
G92 E0
G92 E0
G1 F1500 E-6.5
;LAYER_COUNT:68
;LAYER:0
M107
G0 F6000 X22.377 Y92.453 Z0.2
G0 X14.58 Y101.016
;TYPE:SKIRT
G1 F1500 E0
G1 F600 X14.791 Y100.102 E0.0312
G1 X15.079 Y99.21 E0.06238
G1 X15.442 Y98.345 E0.09358
G1 X15.877 Y97.514 E0.12477
G1 X16.382 Y96.724 E0.15596
G1 X16.952 Y95.979 E0.18716
G1 X17.583 Y95.285 E0.21835
G1 X18.272 Y94.648 E0.24956
G1 X19.011 Y94.072 E0.28073
G1 X19.798 Y93.561 E0.31194
G1 X20.625 Y93.119 E0.34313
G1 X21.487 Y92.748 E0.37434
G1 X22.377 Y92.453 E0.40552
G1 X23.289 Y92.234 E0.43672
G1 X24.286 Y92.087 E0.47024
G1 X26.82 Y91.83 E0.55495
G1 X29.199 Y91.516 E0.63476
G1 X29.832 Y91.44 E0.65597
G1 X30.939 Y91.364 E0.69287
G1 X31.681 Y91.352 E0.71756
G1 X44.832 Y91.352 E1.15496
G1 X45.691 Y91.363 E1.18353
G1 X46.628 Y91.416 E1.21475
G1 X47.556 Y91.549 E1.24593
G1 X48.749 Y91.842 E1.28679
G1 X49.352 Y92.028 E1.30778
G1 X50.786 Y92.492 E1.35791
G1 X53.179 Y93.192 E1.44083
G1 X55.615 Y93.83 E1.52459
G1 X58.582 Y94.513 E1.62585
G1 X59.486 Y94.763 E1.65705
G1 X60.366 Y95.088 E1.68825
G1 X61.214 Y95.487 E1.71942
G1 X62.026 Y95.957 E1.75062
G1 X62.795 Y96.494 E1.78182
G1 X63.515 Y97.095 E1.81301
G1 X64.113 Y97.682 E1.84088
G1 X64.315 Y97.896 E1.85067
G1 X64.929 Y98.605 E1.88187
G1 X65.481 Y99.364 E1.91308
G1 X65.966 Y100.167 E1.94428
G1 X66.38 Y101.008 E1.97546
G1 X66.722 Y101.881 E2.00664
G1 X66.988 Y102.781 E2.03786
G1 X67.176 Y103.699 E2.06902
G1 X67.286 Y104.631 E2.10024
G1 X67.323 Y105.533 E2.13026
G1 X67.311 Y106.471 E2.16146
G1 X67.212 Y107.448 E2.19413
G1 X66.813 Y110.408 E2.29347
G1 X66.552 Y112.913 E2.37723
G1 X66.351 Y115.58 E2.46619
G1 X66.306 Y116.281 E2.48955
G1 X66.206 Y117.214 E2.52076
G1 X66.026 Y118.135 E2.55198
G1 X65.769 Y119.036 E2.58314
G1 X65.436 Y119.913 E2.61434
G1 X65.03 Y120.758 E2.64552
G1 X64.553 Y121.566 E2.67673
G1 X64.008 Y122.33 E2.70794
G1 X63.401 Y123.045 E2.73914
G1 X62.735 Y123.705 E2.77032
G1 X62.016 Y124.306 E2.80149
G1 X61.247 Y124.844 E2.83271
G1 X60.436 Y125.315 E2.8639
G1 X59.588 Y125.714 E2.89507
G1 X58.708 Y126.04 E2.92628
G1 X57.804 Y126.29 E2.95748
G1 X57.201 Y126.412 E2.97794
G1 X55.921 Y126.633 E3.02114
G1 X53.459 Y127.094 E3.10445
G1 X51.006 Y127.625 E3.18793
G1 X49.426 Y128.005 E3.24198
G1 X48.223 Y128.306 E3.28322
G1 X47.304 Y128.495 E3.31443
G1 X46.373 Y128.604 E3.34561
G1 X45.728 Y128.634 E3.36708
G1 X44.912 Y128.647 E3.39423
G1 X31.697 Y128.647 E3.83376
G1 X31.04 Y128.638 E3.85561
G1 X30.104 Y128.585 E3.88679
G1 X29.175 Y128.453 E3.918
G1 X28.478 Y128.299 E3.94174
G1 X27.688 Y128.092 E3.96891
G1 X27.067 Y127.912 E3.99041
G1 X24.56 Y127.222 E4.0769
G1 X22.007 Y126.587 E4.1644
G1 X21.106 Y126.326 E4.1956
G1 X20.231 Y125.989 E4.22678
G1 X19.388 Y125.579 E4.25796
G1 X18.582 Y125.099 E4.28916
G1 X17.821 Y124.551 E4.32035
G1 X17.109 Y123.941 E4.35154
G1 X16.451 Y123.272 E4.38275
G1 X15.853 Y122.55 E4.41393
G1 X15.318 Y121.779 E4.44514
G1 X14.851 Y120.966 E4.47632
G1 X14.455 Y120.116 E4.50751
G1 X14.133 Y119.235 E4.53871
G1 X13.887 Y118.33 E4.5699
G1 X13.72 Y117.407 E4.6011
G1 X13.621 Y116.23 E4.64039
G1 X13.606 Y115.567 E4.66244
G1 X13.607 Y107.544 E4.92929
G1 X13.618 Y106.849 E4.95241
G1 X13.673 Y105.913 E4.98359
G1 X13.829 Y104.876 E5.01847
G1 X14.328 Y102.369 E5.10349
G1 X14.58 Y101.016 E5.14927
G1 F1500 E-1.35073
G0 F6000 X14.407 Y107.557
G1 F1500 E5.14927
G1 F600 X14.418 Y106.862 E5.17238
G1 X14.473 Y105.96 E5.20244
G1 X14.613 Y105.032 E5.23366
G1 X15.134 Y102.414 E5.32244
G1 X15.367 Y101.163 E5.36476
G1 X15.571 Y100.283 E5.39481
G1 X15.853 Y99.425 E5.42485
G1 X16.209 Y98.595 E5.45488
G1 X16.637 Y97.8 E5.48491
G1 X17.134 Y97.046 E5.51495
G1 X17.696 Y96.339 E5.54499
G1 X18.318 Y95.684 E5.57503
G1 X18.996 Y95.087 E5.60508
G1 X19.724 Y94.552 E5.63513
G1 X20.496 Y94.084 E5.66515
G1 X21.306 Y93.686 E5.69517
G1 X22.149 Y93.361 E5.72522
G1 X23.017 Y93.112 E5.75526
G1 X23.904 Y92.94 E5.78531
G1 X24.366 Y92.883 E5.80079
G1 X26.91 Y92.625 E5.88584
G1 X29.172 Y92.326 E5.96173
G1 X29.927 Y92.235 E5.98702
G1 X30.953 Y92.164 E6.02123
G1 X31.681 Y92.152 E6.04544
G1 X44.832 Y92.152 E6.48285
G1 X45.68 Y92.163 E6.51105
G1 X46.582 Y92.216 E6.54111
G1 X47.475 Y92.348 E6.57113
G1 X48.516 Y92.607 E6.60681
G1 X48.948 Y92.739 E6.62183
G1 X50.536 Y93.251 E6.67733
G1 X52.994 Y93.971 E6.76252
G1 X55.434 Y94.61 E6.84641
G1 X58.402 Y95.293 E6.9477
G1 X59.272 Y95.534 E6.97773
G1 X60.118 Y95.852 E7.00779
G1 X60.932 Y96.243 E7.03783
G1 X61.708 Y96.704 E7.06785
G1 X62.441 Y97.232 E7.09789
G1 X63.124 Y97.823 E7.12793
G1 X63.531 Y98.231 E7.1471
G1 X63.733 Y98.445 E7.15689
G1 X64.324 Y99.129 E7.18695
G1 X64.851 Y99.862 E7.21698
G1 X65.312 Y100.639 E7.24703
G1 X65.702 Y101.453 E7.27705
G1 X66.018 Y102.299 E7.30709
G1 X66.259 Y103.17 E7.33715
G1 X66.421 Y104.058 E7.36717
G1 X66.512 Y105.148 E7.40355
G1 X66.524 Y105.557 E7.41716
G1 X66.51 Y106.46 E7.44719
G1 X66.421 Y107.332 E7.47635
G1 X66.017 Y110.328 E7.5769
G1 X65.755 Y112.839 E7.66087
G1 X65.561 Y115.41 E7.74662
G1 X65.508 Y116.23 E7.77395
G1 X65.41 Y117.128 E7.804
G1 X65.233 Y118.013 E7.83402
G1 X64.978 Y118.88 E7.86407
G1 X64.647 Y119.72 E7.8941
G1 X64.244 Y120.528 E7.92413
G1 X63.771 Y121.297 E7.95416
G1 X63.231 Y122.022 E7.98423
G1 X62.63 Y122.695 E8.01424
G1 X61.971 Y123.313 E8.04429
G1 X61.26 Y123.87 E8.07433
G1 X60.503 Y124.362 E8.10436
G1 X59.705 Y124.786 E8.13441
G1 X58.873 Y125.136 E8.16443
G1 X58.013 Y125.412 E8.19447
G1 X57.064 Y125.623 E8.22681
G1 X55.866 Y125.83 E8.26725
G1 X53.279 Y126.314 E8.35478
G1 X50.832 Y126.844 E8.43806
G1 X49.266 Y127.221 E8.49163
G1 X48.029 Y127.53 E8.53404
G1 X47.144 Y127.71 E8.56408
G1 X46.246 Y127.811 E8.59413
G1 X45.715 Y127.834 E8.61181
G1 X44.899 Y127.847 E8.63895
G1 X31.708 Y127.847 E9.07769
G1 X31.051 Y127.838 E9.09954
G1 X30.15 Y127.786 E9.12956
G1 X29.256 Y127.654 E9.15962
G1 X28.675 Y127.524 E9.17942
G1 X27.911 Y127.324 E9.20568
G1 X27.273 Y127.139 E9.22778
G1 X24.753 Y126.445 E9.31471
G1 X22.197 Y125.81 E9.40231
G1 X21.33 Y125.557 E9.43235
G1 X20.489 Y125.229 E9.46237
G1 X19.68 Y124.827 E9.49242
G1 X18.91 Y124.355 E9.52246
G1 X18.184 Y123.818 E9.55249
G1 X17.509 Y123.218 E9.58253
G1 X16.89 Y122.56 E9.61258
G1 X16.331 Y121.851 E9.64261
G1 X15.837 Y121.095 E9.67265
G1 X15.412 Y120.298 E9.70269
G1 X15.059 Y119.467 E9.73272
G1 X14.782 Y118.607 E9.76277
G1 X14.581 Y117.727 E9.79279
G1 X14.459 Y116.832 E9.82283
G1 X14.421 Y116.206 E9.84369
G1 X14.406 Y115.567 E9.86495
G1 X14.407 Y107.557 E10.13137
G0 F6000 X14.007 Y107.55
G1 F600 X14.018 Y106.855 E10.15448
G1 X14.073 Y105.936 E10.1851
G1 X14.221 Y104.954 E10.21813
G1 X14.721 Y102.441 E10.30336
G1 X14.973 Y101.089 E10.3491
G1 X15.181 Y100.193 E10.37969
G1 X15.466 Y99.317 E10.41033
G1 X15.826 Y98.47 E10.44094
G1 X16.258 Y97.657 E10.47156
G1 X16.758 Y96.884 E10.50218
G1 X17.324 Y96.158 E10.5328
G1 X17.951 Y95.484 E10.56342
G1 X18.634 Y94.866 E10.59405
G1 X19.368 Y94.31 E10.62468
G1 X20.148 Y93.82 E10.65532
G1 X20.967 Y93.4 E10.68593
G1 X21.819 Y93.052 E10.71654
G1 X22.698 Y92.779 E10.74715
G1 X23.598 Y92.584 E10.77778
G1 X24.326 Y92.485 E10.80222
G1 X26.879 Y92.226 E10.88757
G1 X29.246 Y91.914 E10.96697
G1 X29.879 Y91.838 E10.98818
G1 X30.946 Y91.764 E11.02375
G1 X31.681 Y91.752 E11.0482
G1 X44.832 Y91.752 E11.48561
G1 X45.686 Y91.763 E11.51401
G1 X46.605 Y91.816 E11.54463
G1 X47.516 Y91.949 E11.57525
G1 X48.633 Y92.225 E11.61352
G1 X49.229 Y92.408 E11.63426
G1 X50.666 Y92.873 E11.68449
G1 X53.102 Y93.585 E11.7689
G1 X55.521 Y94.219 E11.85208
G1 X58.492 Y94.903 E11.95348
G1 X59.379 Y95.148 E11.98408
G1 X60.242 Y95.47 E12.01472
G1 X61.074 Y95.865 E12.04535
G1 X61.868 Y96.331 E12.07597
G1 X62.619 Y96.863 E12.10658
G1 X63.32 Y97.459 E12.13719
G1 X63.822 Y97.957 E12.16071
G1 X64.024 Y98.171 E12.17049
G1 X64.627 Y98.867 E12.20112
G1 X65.166 Y99.613 E12.23173
G1 X65.639 Y100.403 E12.26236
G1 X66.042 Y101.231 E12.29299
G1 X66.371 Y102.091 E12.32361
G1 X66.624 Y102.976 E12.35423
G1 X66.8 Y103.88 E12.38486
G1 X66.911 Y105.136 E12.4268
G1 X66.923 Y105.545 E12.44041
G1 X66.91 Y106.466 E12.47104
G1 X66.816 Y107.39 E12.50193
G1 X66.417 Y110.351 E12.60131
G1 X66.154 Y112.878 E12.68581
G1 X65.956 Y115.492 E12.773
G1 X65.907 Y116.256 E12.79846
G1 X65.808 Y117.171 E12.82907
G1 X65.629 Y118.074 E12.85969
G1 X65.373 Y118.959 E12.89033
G1 X65.042 Y119.817 E12.92092
G1 X64.637 Y120.644 E12.95155
G1 X64.161 Y121.433 E12.9822
G1 X63.62 Y122.177 E13.01279
G1 X63.015 Y122.871 E13.04341
G1 X62.353 Y123.511 E13.07404
G1 X61.637 Y124.09 E13.10467
G1 X60.875 Y124.606 E13.13527
G1 X60.07 Y125.053 E13.1659
G1 X59.229 Y125.428 E13.19653
G1 X58.359 Y125.73 E13.22716
G1 X57.132 Y126.017 E13.26907
G1 X55.943 Y126.222 E13.3092
G1 X53.365 Y126.704 E13.39643
G1 X50.924 Y127.234 E13.47951
G1 X49.333 Y127.616 E13.53393
G1 X48.126 Y127.918 E13.57531
G1 X47.224 Y128.103 E13.60594
G1 X46.309 Y128.208 E13.63657
G1 X45.722 Y128.234 E13.65611
G1 X44.906 Y128.247 E13.68325
G1 X31.703 Y128.247 E14.12239
G1 X31.046 Y128.238 E14.14424
G1 X30.127 Y128.185 E14.17486
G1 X29.216 Y128.053 E14.20548
G1 X28.576 Y127.911 E14.22728
G1 X27.8 Y127.708 E14.25396
G1 X27.205 Y127.535 E14.27457
G1 X24.636 Y126.828 E14.36319
G1 X23.316 Y126.495 E14.40847
G1 X22.102 Y126.199 E14.45003
G1 X21.218 Y125.942 E14.48065
G1 X20.36 Y125.609 E14.51126
G1 X19.533 Y125.203 E14.5419
G1 X18.745 Y124.727 E14.57252
G1 X18.002 Y124.184 E14.60313
G1 X17.308 Y123.579 E14.63375
G1 X16.669 Y122.916 E14.66438
G1 X16.09 Y122.2 E14.695
G1 X15.576 Y121.436 E14.72563
G1 X15.13 Y120.631 E14.75624
G1 X14.755 Y119.79 E14.78687
G1 X14.455 Y118.92 E14.81747
G1 X14.231 Y118.027 E14.8481
G1 X14.086 Y117.118 E14.87871
G1 X14.021 Y116.218 E14.90872
G1 X14.006 Y115.567 E14.93038
G1 X14.007 Y107.55 E15.19703
G1 F1500 E8.69703
;MESH:void_switch-v10.stl
G0 F6000 X23.941 Y107.55
G0 X25.026 Y107.55
G0 X28.353 Y108.402
G1 F1500 E15.19703
G0 F6000 X28.353 Y108.437
;TYPE:WALL-INNER
G1 F600 X28.353 Y107.469 E15.22922
G1 X28.122 Y107.414 E15.23712
G1 X27.932 Y107.274 E15.24497
G1 X27.741 Y107.414 E15.25285
G1 X27.418 Y107.522 E15.26418
G1 X26.518 Y107.522 E15.29411
G1 X26.182 Y107.465 E15.30544
G1 X25.951 Y107.332 E15.31431
G1 X25.806 Y107.43 E15.32013
G1 X25.606 Y107.474 E15.32694
G1 X25.606 Y108.438 E15.359
G1 X26.017 Y108.302 E15.3734
G1 X27.942 Y108.302 E15.43743
G1 X28.353 Y108.437 E15.45182
G0 F6000 X27.896 Y107.845
G1 F531 X27.463 Y107.912 E15.46829
G1 F620.2 X26.99 Y107.912 E15.48351
G1 F628.3 X26.517 Y107.912 E15.49853
G1 F571.4 X26.038 Y107.87 E15.51532
G0 F6000 X28.37 Y108.874
G0 X28.647 Y109.302
G1 F429.3 X28.7 Y108.949 E15.53191
G1 F529.8 X28.753 Y108.596 E15.54536
G1 F600 X28.753 Y107.183 E15.59236
G1 X28.718 Y107.122 E15.5947
G1 X28.576 Y107.122 E15.59942
G1 X28.304 Y107.057 E15.60872
G1 X28.148 Y106.943 E15.61515
G1 F536.9 X27.931 Y106.578 E15.63093
G1 X27.716 Y106.943 E15.64667
G1 F600 X27.56 Y107.057 E15.6531
G1 X27.367 Y107.122 E15.65987
G1 X26.518 Y107.122 E15.68811
G1 X26.316 Y107.088 E15.69493
G1 X26.109 Y106.962 E15.70299
G1 X25.951 Y106.638 E15.71497
G1 X25.793 Y106.962 E15.72696
G1 X25.637 Y107.067 E15.73322
G1 X25.384 Y107.122 E15.74183
G1 X25.241 Y107.122 E15.74659
G1 X25.206 Y107.183 E15.74892
G1 X25.206 Y108.596 E15.79592
G1 F531 X25.259 Y108.949 E15.80934
G1 F430.9 X25.312 Y109.302 E15.82587
G1 X25.484 Y109.062 E15.83955
G1 F531 X25.656 Y108.821 E15.85067
G1 F600 X26.017 Y108.702 E15.86332
G1 X27.942 Y108.702 E15.92734
G1 X28.303 Y108.821 E15.93998
G1 F529.8 X28.475 Y109.061 E15.95111
G1 F429.3 X28.647 Y109.302 E15.96487
G1 F1500 E9.46487
G0 F6000 X28.883 Y115.438
G1 F1500 E15.96487
G0 F6000 X29.153 Y115.707
;TYPE:WALL-OUTER
G1 F600 X29.153 Y107.076 E16.25194
G1 X28.95 Y106.722 E16.26551
G1 X28.576 Y106.722 E16.27795
G1 X28.433 Y106.663 E16.28309
G1 X28.376 Y106.54 E16.2876
G1 X28.375 Y103.222 E16.39796
G1 X27.487 Y103.222 E16.42749
G1 X27.487 Y106.54 E16.53785
G1 X27.43 Y106.663 E16.54236
G1 X27.322 Y106.72 E16.54642
G1 X26.465 Y106.722 E16.57493
G1 F495.9 X26.234 Y106.547 E16.58659
G1 F422.5 X26.234 Y103.305 E16.73971
G1 F423.3 X25.668 Y103.305 E16.76639
G1 F422.5 X25.668 Y106.547 E16.91951
G1 F495.9 X25.446 Y106.722 E16.93089
G1 F600 X25.009 Y106.722 E16.94542
G1 X24.806 Y107.076 E16.95899
G1 X24.807 Y115.708 E17.24609
G1 X25.817 Y115.707 E17.27969
G1 X25.817 Y109.302 E17.49272
G1 X25.896 Y109.141 E17.49868
G1 X26.017 Y109.102 E17.50291
G1 X27.942 Y109.102 E17.56694
G1 X28.063 Y109.141 E17.57117
G1 X28.142 Y109.302 E17.57713
G1 X28.143 Y115.707 E17.79016
G1 X29.153 Y115.707 E17.82375
G0 F6000 X28.648 Y115.202
;TYPE:WALL-INNER
G1 F393.4 X28.648 Y112.252 E17.97338
G1 F392.8 X28.647 Y109.302 E18.12326
G0 F6000 X27.931 Y107.422
G0 X27.931 Y106.578
G1 F486.8 X27.931 Y105.122 E18.18294
G1 F488.8 X27.931 Y103.666 E18.24239
G0 F6000 X27.715 Y106.95
G0 X26.971 Y106.953
G0 X25.312 Y109.302
G1 F393.4 X25.312 Y115.202 E18.54165
G1 F1500 E12.04165
G0 F6000 X25.589 Y108.874
G0 X28.37 Y108.874
G0 X28.933 Y113.011
G0 X31.092 Y113.011
G0 X40.489 Y112.46
;TYPE:WALL-OUTER
G1 F1500 E18.54165
G1 F483.9 X40.8 Y112.149 E18.55978
G0 F6000 X41.35 Y112.7
G0 X44.103 Y109.847
G0 X44.589 Y109.031
;TYPE:WALL-INNER
G1 F600 X44.589 Y103.751 E18.7354
G1 X39.384 Y103.753 E18.90852
G1 X44.487 Y108.857 E19.14857
G1 X44.589 Y109.031 E19.15528
G0 F6000 X44.633 Y109.493
G0 X44.59 Y116.248
G1 F600 X44.59 Y110.661 E19.3411
G1 X44.486 Y110.836 E19.34787
G1 X39.178 Y116.148 E19.59764
G1 X39.005 Y116.248 E19.60429
G1 X44.59 Y116.248 E19.79004
G0 F6000 X38.187 Y116.328
G0 X37.369 Y116.248
G1 F600 X37.196 Y116.148 E19.79669
G1 X32.093 Y111.045 E20.03672
G1 X32.093 Y116.247 E20.20974
G1 X37.369 Y116.248 E20.38522
G0 F6000 X44.99 Y116.648
G1 F600 X44.99 Y110.879 E20.5771
G1 F586.8 X44.982 Y110.607 E20.58635
G1 F562.1 X44.973 Y110.335 E20.59601
G1 F539.3 X44.964 Y110.063 E20.60608
G1 F527.5 X44.962 Y109.631 E20.62243
G1 F539.3 X44.971 Y109.359 E20.6325
G1 F562.1 X44.98 Y109.087 E20.64216
G1 F586.8 X44.989 Y108.815 E20.65142
G1 F600 X44.989 Y103.351 E20.83315
G1 X39.092 Y103.353 E21.02928
G1 F533.3 X38.735 Y103.402 E21.04277
G1 F435.6 X38.377 Y103.452 E21.05933
G1 X38.636 Y103.64 E21.07399
G1 F533.3 X38.895 Y103.829 E21.08599
G1 F600 X44.204 Y109.14 E21.33576
G1 F591.1 X44.357 Y109.379 E21.34534
G1 F571.4 X44.51 Y109.619 E21.35528
G1 F562.1 X44.511 Y110.073 E21.37139
G1 F571.4 X44.358 Y110.313 E21.38133
G1 F591.1 X44.204 Y110.554 E21.39099
G1 F600 X38.895 Y115.865 E21.64076
G1 F591.1 X38.654 Y116.017 E21.65037
G1 F571.4 X38.412 Y116.17 E21.66037
G1 F562.1 X37.962 Y116.17 E21.67635
G1 F571.4 X37.721 Y116.018 E21.6863
G1 F591.1 X37.479 Y115.865 E21.69597
G1 F600 X32.169 Y110.555 E21.94573
G1 F533.3 X31.981 Y110.296 E21.95771
G1 F435.6 X31.792 Y110.037 E21.9724
G1 X31.743 Y110.394 E21.98891
G1 F533.3 X31.693 Y110.752 E22.00243
G1 F600 X31.693 Y116.647 E22.1985
G1 X37.155 Y116.648 E22.38017
G1 F586.8 X37.499 Y116.64 E22.39187
G1 F562.1 X37.843 Y116.631 E22.40409
G1 F538.1 X37.971 Y116.621 E22.40885
G1 F527.5 X38.403 Y116.621 E22.42519
G1 F538.1 X38.531 Y116.631 E22.42996
G1 F562.1 X38.875 Y116.639 E22.44217
G1 F586.8 X39.219 Y116.648 E22.45388
G1 F600 X44.99 Y116.648 E22.64582
G0 F6000 X44.668 Y109.847
G0 X38.187 Y103.366
G0 X37.427 Y103.866
G1 F568.7 X37.563 Y103.741 E22.6523
G1 F513.9 X37.78 Y103.597 E22.66241
G1 F430.9 X37.997 Y103.452 E22.6745
