;FLAVOR:Marlin
;TIME:2042
;Filament used: 0.415253m
;Layer height: 0.16
;MINX:40.36
;MINY:147.619
;MINZ:0.16
;MAXX:94.47
;MAXY:184.918
;MAXZ:10.88
;Generated with Cura_SteamEngine main
M82 ;absolute extrusion mode
; Ender 3 Custom Start G-code
G92 E0 ; Reset Extruder
G28 ; Home all axes
M104 S120 ; Start heating up the nozzle most of the way
M190 S68.0 ; Start heating the bed, wait until target temperature reached
M109 S248.0 ; Finish heating the nozzle
G1 Z2.0 F3000 ; Move Z Axis up little to prevent scratching of Heat Bed
G1 X0.1 Y20 Z0.3 F5000.0 ; Move to start position
G1 X0.1 Y200.0 Z0.3 F1500.0 E15 ; Draw the first line
G1 X0.4 Y200.0 Z0.3 F5000.0 ; Move to side a little
G1 X0.4 Y20 Z0.3 F1500.0 E30 ; Draw the second line
G92 E0 ; Reset Extruder
G1 Z2.0 F3000 ; Move Z Axis up little to prevent scratching of Heat Bed
G1 X5 Y20 Z0.3 F5000.0 ; Move over to prevent blob squish
G92 E0
G92 E0
G1 F1500 E-6.5
;LAYER_COUNT:68
;LAYER:0
M107
G0 F6000 X49.152 Y148.717 Z0.16
G0 X41.134 Y158.398
;TYPE:SKIRT
G1 F1500 E0
G1 F600 X41.345 Y157.272 E0.03048
G1 X41.557 Y156.358 E0.05545
G1 X41.846 Y155.466 E0.0804
G1 X42.21 Y154.602 E0.10534
G1 X42.647 Y153.771 E0.13033
G1 X43.152 Y152.981 E0.15527
G1 X43.723 Y152.237 E0.18023
G1 X44.355 Y151.545 E0.20516
G1 X45.044 Y150.908 E0.23013
G1 X45.785 Y150.333 E0.25509
G1 X46.572 Y149.823 E0.28004
G1 X47.399 Y149.381 E0.30499
G1 X48.261 Y149.012 E0.32994
G1 X49.152 Y148.717 E0.35491
G1 X50.064 Y148.5 E0.37986
G1 X51.05 Y148.355 E0.40638
G1 X53.545 Y148.103 E0.4731
G1 X55.082 Y147.896 E0.51437
G1 X56.556 Y147.715 E0.55388
G1 X57.772 Y147.629 E0.58632
G1 X58.452 Y147.619 E0.60441
G1 X71.6 Y147.619 E0.95426
G1 X72.494 Y147.633 E0.97805
G1 X73.43 Y147.688 E1.003
G1 X74.358 Y147.824 E1.02795
G1 X75.525 Y148.112 E1.05994
G1 X76.662 Y148.461 E1.09158
G1 X77.084 Y148.598 E1.10339
G1 X79.494 Y149.301 E1.17019
G1 X81.939 Y149.941 E1.23743
G1 X84.668 Y150.57 E1.31195
G1 X85.38 Y150.723 E1.33133
G1 X86.011 Y150.878 E1.34862
G1 X86.296 Y150.957 E1.35649
G1 X87.189 Y151.246 E1.38146
G1 X88.053 Y151.609 E1.4064
G1 X88.883 Y152.045 E1.43134
G1 X89.674 Y152.551 E1.45633
G1 X90.418 Y153.121 E1.48127
G1 X91.111 Y153.753 E1.50622
G1 X91.747 Y154.442 E1.53117
G1 X92.323 Y155.183 E1.55615
G1 X92.819 Y155.937 E1.58016
G1 X93.319 Y156.843 E1.60769
G1 X93.701 Y157.7 E1.63266
G1 X94.008 Y158.586 E1.65761
G1 X94.238 Y159.495 E1.68256
G1 X94.39 Y160.42 E1.7075
G1 X94.47 Y161.741 E1.74272
G1 X94.47 Y162.101 E1.75229
G1 X94.381 Y163.497 E1.78951
G1 X94.301 Y164.115 E1.8061
G1 X94.064 Y165.778 E1.85079
G1 X93.779 Y168.275 E1.91766
G1 X93.565 Y170.769 E1.98427
G1 X93.529 Y171.418 E2.00156
G1 X93.444 Y172.623 E2.03371
G1 X93.338 Y173.555 E2.05866
G1 X93.152 Y174.474 E2.08361
G1 X92.889 Y175.374 E2.10856
G1 X92.55 Y176.249 E2.13353
G1 X92.138 Y177.091 E2.15847
G1 X91.655 Y177.895 E2.18343
G1 X91.106 Y178.656 E2.2084
G1 X90.494 Y179.366 E2.23334
G1 X89.824 Y180.022 E2.25829
G1 X89.1 Y180.619 E2.28326
G1 X88.328 Y181.152 E2.30822
G1 X87.514 Y181.617 E2.33316
G1 X86.663 Y182.011 E2.35812
G1 X85.781 Y182.331 E2.38308
G1 X84.875 Y182.574 E2.40804
G1 X84.342 Y182.68 E2.4225
G1 X83.622 Y182.803 E2.44194
G1 X82.113 Y183.042 E2.48259
G1 X79.639 Y183.505 E2.54956
G1 X77.164 Y184.041 E2.61694
G1 X76.105 Y184.305 E2.64598
G1 X74.815 Y184.61 E2.68125
G1 X73.894 Y184.787 E2.70621
G1 X72.503 Y184.903 E2.74335
G1 X71.733 Y184.916 E2.76384
G1 X58.58 Y184.918 E3.11381
G1 X57.713 Y184.907 E3.13688
G1 X56.777 Y184.854 E3.16183
G1 X55.848 Y184.721 E3.1868
G1 X54.797 Y184.471 E3.21555
G1 X52.197 Y183.715 E3.28759
G1 X49.576 Y183.034 E3.35965
G1 X48.777 Y182.84 E3.38153
G1 X47.876 Y182.581 E3.40647
G1 X47 Y182.245 E3.43143
G1 X46.156 Y181.836 E3.45639
G1 X45.35 Y181.357 E3.48134
G1 X44.587 Y180.811 E3.5063
G1 X43.874 Y180.201 E3.53127
G1 X43.215 Y179.534 E3.55622
G1 X42.616 Y178.812 E3.58118
G1 X42.08 Y178.043 E3.60612
G1 X41.612 Y177.23 E3.63108
G1 X41.215 Y176.38 E3.65604
G1 X40.892 Y175.5 E3.68099
G1 X40.644 Y174.595 E3.70596
G1 X40.475 Y173.673 E3.7309
G1 X40.374 Y172.491 E3.76246
G1 X40.36 Y171.861 E3.77923
G1 X40.36 Y163.826 E3.99303
G1 X40.371 Y163.12 E4.01181
G1 X40.426 Y162.183 E4.03679
G1 X40.586 Y161.124 E4.06529
G1 X41.134 Y158.398 E4.13927
G1 F1500 E-2.36073
G0 F6000 X41.16 Y163.838
G1 F1500 E4.13927
G1 F600 X41.171 Y163.132 E4.15806
G1 X41.225 Y162.231 E4.18207
G1 X41.37 Y161.281 E4.20765
G1 X41.935 Y158.471 E4.28391
G1 X42.132 Y157.419 E4.31239
G1 X42.337 Y156.54 E4.3364
G1 X42.62 Y155.682 E4.36044
G1 X42.977 Y154.853 E4.38446
G1 X43.406 Y154.058 E4.4085
G1 X43.904 Y153.305 E4.43252
G1 X44.467 Y152.598 E4.45657
G1 X45.09 Y151.944 E4.4806
G1 X45.768 Y151.348 E4.50462
G1 X46.496 Y150.814 E4.52864
G1 X47.269 Y150.346 E4.55269
G1 X48.08 Y149.949 E4.57671
G1 X48.923 Y149.625 E4.60074
G1 X49.791 Y149.377 E4.62476
G1 X50.678 Y149.207 E4.64879
G1 X51.13 Y149.151 E4.66091
G1 X53.64 Y148.897 E4.72804
G1 X55.188 Y148.689 E4.7696
G1 X56.656 Y148.508 E4.80896
G1 X57.784 Y148.429 E4.83904
G1 X58.615 Y148.418 E4.86116
G1 X71.772 Y148.42 E5.21124
G1 X72.481 Y148.432 E5.23011
G1 X73.382 Y148.488 E5.25413
G1 X74.275 Y148.622 E5.27816
G1 X75.291 Y148.877 E5.30603
G1 X76.415 Y149.222 E5.33731
G1 X76.846 Y149.362 E5.34937
G1 X79.286 Y150.074 E5.417
G1 X81.758 Y150.721 E5.48499
G1 X84.438 Y151.339 E5.55817
G1 X85.213 Y151.505 E5.57926
G1 X85.798 Y151.649 E5.59529
G1 X86.083 Y151.728 E5.60316
G1 X86.941 Y152.007 E5.62717
G1 X87.772 Y152.362 E5.65121
G1 X88.568 Y152.788 E5.67524
G1 X89.323 Y153.283 E5.69926
G1 X90.032 Y153.843 E5.7233
G1 X90.688 Y154.464 E5.74733
G1 X91.287 Y155.14 E5.77137
G1 X91.823 Y155.867 E5.7954
G1 X92.183 Y156.438 E5.81336
G1 X92.618 Y157.229 E5.83738
G1 X92.981 Y158.056 E5.86141
G1 X93.27 Y158.912 E5.88545
G1 X93.482 Y159.789 E5.90946
G1 X93.615 Y160.683 E5.93351
G1 X93.67 Y161.741 E5.9617
G1 X93.67 Y162.101 E5.97128
G1 X93.587 Y163.396 E6.0058
G1 X93.509 Y164.002 E6.02206
G1 X93.27 Y165.678 E6.06711
G1 X92.983 Y168.19 E6.13438
G1 X92.766 Y170.723 E6.20203
G1 X92.73 Y171.374 E6.21938
G1 X92.646 Y172.566 E6.25117
G1 X92.542 Y173.463 E6.2752
G1 X92.359 Y174.347 E6.29922
G1 X92.098 Y175.212 E6.32326
G1 X91.762 Y176.05 E6.34728
G1 X91.354 Y176.856 E6.37132
G1 X90.875 Y177.622 E6.39536
G1 X90.331 Y178.342 E6.41937
G1 X89.725 Y179.012 E6.44341
G1 X89.062 Y179.625 E6.46743
G1 X88.348 Y180.178 E6.49146
G1 X87.587 Y180.665 E6.5155
G1 X86.786 Y181.083 E6.53954
G1 X85.952 Y181.428 E6.56356
G1 X85.09 Y181.698 E6.58759
G1 X84.206 Y181.891 E6.61167
G1 X83.497 Y182.013 E6.63081
G1 X81.95 Y182.258 E6.67249
G1 X79.5 Y182.717 E6.73881
G1 X76.996 Y183.259 E6.80698
G1 X76.042 Y183.497 E6.83314
G1 X74.631 Y183.831 E6.87173
G1 X73.744 Y184 E6.89575
G1 X72.487 Y184.103 E6.92931
G1 X71.733 Y184.116 E6.94938
G1 X58.58 Y184.118 E7.29935
G1 X57.724 Y184.107 E7.32213
G1 X56.823 Y184.054 E7.34615
G1 X55.929 Y183.922 E7.37019
G1 X55.021 Y183.702 E7.39505
G1 X52.444 Y182.953 E7.46646
G1 X49.8 Y182.266 E7.53915
G1 X48.965 Y182.063 E7.56201
G1 X48.098 Y181.811 E7.58603
G1 X47.256 Y181.484 E7.61007
G1 X46.447 Y181.084 E7.63408
G1 X45.676 Y180.613 E7.65812
G1 X44.949 Y180.076 E7.68217
G1 X44.273 Y179.478 E7.70619
G1 X43.653 Y178.821 E7.73022
G1 X43.093 Y178.113 E7.75424
G1 X42.598 Y177.357 E7.77829
G1 X42.172 Y176.561 E7.80231
G1 X41.818 Y175.73 E7.82634
G1 X41.539 Y174.871 E7.85037
G1 X41.337 Y173.991 E7.8744
G1 X41.213 Y173.097 E7.89841
G1 X41.174 Y172.466 E7.91523
G1 X41.16 Y171.861 E7.93134
G1 X41.16 Y163.838 E8.14481
G0 F6000 X40.76 Y163.832
G1 F600 X40.771 Y163.126 E8.1636
G1 X40.826 Y162.207 E8.1881
G1 X40.978 Y161.202 E8.21514
G1 X41.552 Y158.346 E8.29266
G1 X41.739 Y157.346 E8.31973
G1 X41.947 Y156.449 E8.34423
G1 X42.233 Y155.574 E8.36872
G1 X42.594 Y154.727 E8.39322
G1 X43.027 Y153.914 E8.41773
G1 X43.528 Y153.142 E8.44222
G1 X44.095 Y152.417 E8.46671
G1 X44.723 Y151.743 E8.49122
G1 X45.406 Y151.126 E8.51571
G1 X46.141 Y150.572 E8.5402
G1 X46.921 Y150.082 E8.56471
G1 X47.741 Y149.663 E8.58921
G1 X48.593 Y149.316 E8.61369
G1 X49.473 Y149.044 E8.6382
G1 X50.373 Y148.85 E8.66269
G1 X51.09 Y148.753 E8.68195
G1 X53.577 Y148.501 E8.74846
G1 X55.135 Y148.292 E8.79029
G1 X56.606 Y148.111 E8.82972
G1 X57.778 Y148.029 E8.86098
G1 X58.458 Y148.019 E8.87908
G1 X71.6 Y148.019 E9.22876
G1 X72.487 Y148.033 E9.25237
G1 X73.406 Y148.088 E9.27686
G1 X74.317 Y148.223 E9.30137
G1 X75.408 Y148.494 E9.33128
G1 X76.376 Y148.79 E9.35821
G1 X76.944 Y148.973 E9.37409
G1 X79.386 Y149.686 E9.44178
G1 X81.853 Y150.332 E9.50964
G1 X84.546 Y150.953 E9.58317
G1 X85.297 Y151.114 E9.60361
G1 X85.904 Y151.263 E9.62024
G1 X86.189 Y151.342 E9.62811
G1 X87.065 Y151.626 E9.65261
G1 X87.913 Y151.986 E9.67713
G1 X88.726 Y152.417 E9.70161
G1 X89.499 Y152.917 E9.72611
G1 X90.226 Y153.483 E9.75062
G1 X90.9 Y154.109 E9.7751
G1 X91.518 Y154.792 E9.79961
G1 X92.074 Y155.525 E9.82408
G1 X92.525 Y156.23 E9.84635
G1 X92.969 Y157.036 E9.87084
G1 X93.341 Y157.878 E9.89533
G1 X93.639 Y158.749 E9.91983
G1 X93.86 Y159.643 E9.94433
G1 X94.003 Y160.552 E9.96881
G1 X94.07 Y161.741 E10.0005
G1 X94.07 Y162.101 E10.01008
G1 X93.984 Y163.447 E10.04597
G1 X93.905 Y164.059 E10.06239
G1 X93.669 Y165.712 E10.10682
G1 X93.377 Y168.267 E10.17524
G1 X93.165 Y170.746 E10.24144
G1 X93.119 Y171.557 E10.26306
G1 X93.045 Y172.594 E10.29072
G1 X92.94 Y173.509 E10.31523
G1 X92.755 Y174.411 E10.33973
G1 X92.494 Y175.294 E10.36423
G1 X92.156 Y176.15 E10.38872
G1 X91.746 Y176.974 E10.4132
G1 X91.265 Y177.76 E10.43772
G1 X90.718 Y178.5 E10.46221
G1 X90.109 Y179.191 E10.48672
G1 X89.443 Y179.826 E10.5112
G1 X88.723 Y180.4 E10.5357
G1 X87.957 Y180.911 E10.5602
G1 X87.149 Y181.352 E10.5847
G1 X86.306 Y181.722 E10.60919
G1 X85.434 Y182.018 E10.6337
G1 X84.274 Y182.286 E10.66537
G1 X83.706 Y182.384 E10.68071
G1 X82.054 Y182.646 E10.72522
G1 X79.545 Y183.116 E10.79314
G1 X77.079 Y183.65 E10.86027
G1 X76.013 Y183.916 E10.88951
G1 X74.723 Y184.221 E10.92478
G1 X73.819 Y184.393 E10.94926
G1 X72.495 Y184.503 E10.98461
G1 X71.733 Y184.516 E11.00489
G1 X58.58 Y184.518 E11.35487
G1 X57.719 Y184.507 E11.37778
G1 X56.8 Y184.454 E11.40227
G1 X55.889 Y184.322 E11.42677
G1 X54.909 Y184.087 E11.45358
G1 X52.304 Y183.33 E11.52576
G1 X49.659 Y182.642 E11.59848
G1 X48.871 Y182.451 E11.62006
G1 X47.987 Y182.196 E11.64454
G1 X47.128 Y181.864 E11.66904
G1 X46.301 Y181.46 E11.69353
G1 X45.512 Y180.985 E11.71804
G1 X44.767 Y180.443 E11.74255
G1 X44.073 Y179.839 E11.76703
G1 X43.433 Y179.177 E11.79153
G1 X42.853 Y178.462 E11.81603
G1 X42.338 Y177.699 E11.84052
G1 X41.89 Y176.895 E11.86501
G1 X41.514 Y176.054 E11.88953
G1 X41.213 Y175.184 E11.91402
G1 X40.988 Y174.292 E11.9385
G1 X40.841 Y173.383 E11.963
G1 X40.774 Y172.479 E11.98712
G1 X40.76 Y171.861 E12.00357
G1 X40.76 Y163.832 E12.2172
G1 F1500 E5.7172
;MESH:void_switch-v12.stl
G0 F6000 X50.694 Y163.832
G0 X51.779 Y163.832
G0 X55.086 Y164.67
G1 F1500 E12.2172
G0 F6000 X55.086 Y164.696
;TYPE:WALL-INNER
G1 F600 X55.086 Y163.741 E12.24261
G1 X54.856 Y163.688 E12.2489
G1 X54.675 Y163.559 E12.25481
G1 X54.493 Y163.688 E12.26074
G1 X54.18 Y163.79 E12.2695
G1 X53.242 Y163.79 E12.29446
G1 X52.922 Y163.739 E12.30308
G1 X52.695 Y163.614 E12.30998
G1 X52.558 Y163.703 E12.31433
G1 X52.36 Y163.745 E12.31971
G1 X52.357 Y164.698 E12.34507
G1 X52.74 Y164.57 E12.35582
G1 X54.706 Y164.57 E12.40813
G1 X55.086 Y164.696 E12.41878
G0 F6000 X54.635 Y164.119
G1 F538.1 X54.224 Y164.18 E12.43111
G1 F620.2 X53.733 Y164.18 E12.44375
G1 F628.3 X53.242 Y164.18 E12.45622
G1 F575.5 X52.786 Y164.143 E12.46891
G0 F6000 X55.134 Y165.142
G0 X55.396 Y165.57
G1 F448.6 X55.441 Y165.225 E12.4813
G1 F539.3 X55.486 Y164.88 E12.49159
G1 F600 X55.486 Y163.451 E12.52962
G1 X55.45 Y163.39 E12.5315
G1 X55.299 Y163.39 E12.53552
G1 X55.033 Y163.329 E12.54278
G1 X54.877 Y163.218 E12.54788
G1 F562.1 X54.674 Y162.844 E12.55996
G1 X54.473 Y163.218 E12.57202
G1 F600 X54.316 Y163.329 E12.57714
G1 X54.13 Y163.39 E12.58235
G1 X53.242 Y163.39 E12.60598
G1 X53.05 Y163.359 E12.61115
G1 X52.84 Y163.237 E12.61761
G1 X52.695 Y162.942 E12.62636
G1 X52.549 Y163.237 E12.63512
G1 X52.394 Y163.338 E12.64004
G1 X52.147 Y163.39 E12.64676
G1 X51.995 Y163.39 E12.6508
G1 X51.959 Y163.451 E12.65269
G1 X51.957 Y164.88 E12.69071
G1 F539.3 X52.003 Y165.225 E12.70101
G1 F448.6 X52.05 Y165.57 E12.7134
G1 X52.214 Y165.33 E12.72375
G1 F539.3 X52.378 Y165.09 E12.73235
G1 F600 X52.74 Y164.97 E12.7425
G1 X54.706 Y164.97 E12.79481
G1 X55.067 Y165.089 E12.80493
G1 F539.3 X55.231 Y165.329 E12.81353
G1 F448.6 X55.396 Y165.57 E12.82392
G1 F1500 E6.32392
G0 F6000 X55.616 Y171.686
G1 F1500 E12.82392
G0 F6000 X55.886 Y171.956
;TYPE:WALL-OUTER
G1 F600 X55.886 Y163.344 E13.05307
G1 X55.681 Y162.99 E13.06396
G1 X55.299 Y162.99 E13.07412
G1 X55.158 Y162.933 E13.07817
G1 X55.099 Y162.808 E13.08185
G1 X55.098 Y159.49 E13.17013
G1 X54.25 Y159.49 E13.1927
G1 X54.25 Y162.808 E13.28098
G1 X54.191 Y162.933 E13.28466
G1 X54.085 Y162.988 E13.28784
G1 X53.195 Y162.99 E13.31152
G1 F505.3 X52.968 Y162.814 E13.32059
G1 F437.2 X52.968 Y161.188 E13.37998
G1 F438.8 X52.968 Y159.562 E13.43914
G1 X52.421 Y159.563 E13.45904
G1 X52.421 Y161.189 E13.51821
G1 F437.2 X52.421 Y162.815 E13.57759
G1 F505.3 X52.21 Y162.99 E13.58625
G1 F600 X51.764 Y162.99 E13.59812
G1 X51.559 Y163.344 E13.609
G1 X51.56 Y171.956 E13.83815
G1 X52.54 Y171.956 E13.86423
G1 X52.54 Y165.57 E14.03415
G1 X52.619 Y165.41 E14.03889
G1 X52.74 Y165.37 E14.04229
G1 X54.706 Y165.37 E14.0946
G1 X54.827 Y165.409 E14.09798
G1 X54.906 Y165.57 E14.10275
G1 X54.907 Y171.956 E14.27267
G1 X55.886 Y171.956 E14.29872
G0 F6000 X55.396 Y171.466
;TYPE:WALL-INNER
G1 F413.8 X55.396 Y165.57 E14.5262
G0 F6000 X54.674 Y163.69
G0 X54.674 Y162.844
G1 F529.8 X54.674 Y161.379 E14.57034
G1 F532.2 X54.674 Y159.914 E14.6143
G0 F6000 X54.478 Y163.218
G0 X53.718 Y163.221
G0 X52.05 Y165.57
G1 F413.8 X52.05 Y171.466 E14.84177
G1 F1500 E8.34177
G0 F6000 X52.312 Y165.142
G0 X55.134 Y165.142
G0 X55.672 Y171.742
G0 X57.853 Y171.744
G0 X59.006 Y172.345
G0 X63.569 Y172.517
G1 F1500 E14.84177
G1 F600 X63.481 Y172.466 E14.84448
G1 X58.835 Y167.821 E15.01929
G1 X58.834 Y172.517 E15.14424
G1 X63.569 Y172.517 E15.27023
G0 F6000 X64.298 Y172.621
G0 X71.33 Y172.515
G1 F600 X71.331 Y166.595 E15.42775
G1 X68.616 Y169.312 E15.52995
G1 X68.297 Y169.482 E15.53957
G1 X68.125 Y169.803 E15.54926
G1 X65.462 Y172.466 E15.64947
G1 X65.377 Y172.515 E15.65208
G1 X71.33 Y172.515 E15.81047
G0 F6000 X71.461 Y165.656
G0 X71.331 Y164.753
G1 F600 X71.331 Y160.019 E15.93644
G1 X66.635 Y160.02 E16.06139
G1 X71.28 Y164.666 E16.2362
G1 X71.331 Y164.753 E16.23888
G0 F6000 X71.436 Y165.483
G0 X71.73 Y172.915
G1 F600 X71.731 Y166.667 E16.40513
G1 F595.5 X71.728 Y166.361 E16.41333
G1 F585.4 X71.724 Y166.055 E16.42168
G1 F574.2 X71.721 Y165.749 E16.43019
G1 F564.7 X71.717 Y165.443 E16.43884
G1 F566 X71.721 Y165.178 E16.44631
G1 F579.7 X71.726 Y164.912 E16.45364
G1 F594.1 X71.73 Y164.646 E16.46079
G1 F600 X71.731 Y159.619 E16.59455
G1 X65.67 Y159.62 E16.75582
G1 X70.997 Y164.949 E16.95631
G1 F591.1 X71.143 Y165.187 E16.96385
G1 F574.2 X71.29 Y165.426 E16.97165
G1 F568.7 X71.29 Y165.886 E16.98457
G1 F578.3 X71.144 Y166.124 E16.99227
G1 F592.6 X70.997 Y166.363 E16.99983
G1 F600 X68.449 Y168.913 E17.09575
G1 X68.195 Y169.097 E17.1041
G1 X67.987 Y169.172 E17.10998
G1 X67.912 Y169.38 E17.11586
G1 X67.728 Y169.634 E17.12421
G1 X65.179 Y172.183 E17.22013
G1 F591.1 X64.939 Y172.329 E17.22771
G1 F574.2 X64.699 Y172.476 E17.23554
G1 F566 X64.244 Y172.476 E17.24837
G1 F575.5 X64.004 Y172.33 E17.25616
G1 F592.6 X63.764 Y172.183 E17.26375
G1 F600 X58.435 Y166.856 E17.46424
G1 X58.434 Y172.917 E17.62551
G1 X63.46 Y172.917 E17.75924
G1 F595.5 X63.766 Y172.914 E17.76744
G1 F583.9 X64.072 Y172.91 E17.77581
G1 F574.2 X64.378 Y172.906 E17.78432
G1 F563.4 X64.684 Y172.902 E17.79299
G1 F564.7 X64.949 Y172.906 E17.80049
G1 F578.3 X65.215 Y172.91 E17.80783
G1 F592.6 X65.481 Y172.914 E17.815
G1 F600 X71.73 Y172.915 E17.98127
G0 F6000 X72.13 Y173.315
G1 F600 X72.131 Y159.219 E18.35634
G1 X64.975 Y159.22 E18.54675
G1 F594.1 X64.723 Y159.223 E18.55352
G1 F581.1 X64.471 Y159.227 E18.56044
G1 F586.8 X64.896 Y159.411 E18.57304
