;FLAVOR:Marlin
;TIME:1564
;Filament used: 0.410062m
;Layer height: 0.16
;MINX:83.095
;MINY:91.353
;MINZ:0.16
;MAXX:137.207
;MAXY:128.648
;MAXZ:10.08
;Generated with Cura_SteamEngine main
M82 ;absolute extrusion mode
; Ender 3 Custom Start G-code
G92 E0 ; Reset Extruder
G28 ; Home all axes
M104 S120 ; Start heating up the nozzle most of the way
M190 S68.0 ; Start heating the bed, wait until target temperature reached
M109 S250.0 ; Finish heating the nozzle
G1 Z2.0 F3000 ; Move Z Axis up little to prevent scratching of Heat Bed
G1 X0.1 Y20 Z0.3 F5000.0 ; Move to start position
G1 X0.1 Y200.0 Z0.3 F1500.0 E15 ; Draw the first line
G1 X0.4 Y200.0 Z0.3 F5000.0 ; Move to side a little
G1 X0.4 Y20 Z0.3 F1500.0 E30 ; Draw the second line
G92 E0 ; Reset Extruder
G1 Z2.0 F3000 ; Move Z Axis up little to prevent scratching of Heat Bed
G1 X5 Y20 Z0.3 F5000.0 ; Move over to prevent blob squish
G92 E0
G92 E0
G1 F1500 E-6.5
;LAYER_COUNT:63
;LAYER:0
M107
G0 F6000 X87.78 Y95.092 Z0.16
G0 X83.878 Y102.535
;TYPE:SKIRT
G1 F1500 E0
G1 F900 X84.081 Y101.455 E0.02924
G1 X84.293 Y100.542 E0.05418
G1 X84.582 Y99.649 E0.07915
G1 X84.946 Y98.785 E0.1041
G1 X85.383 Y97.955 E0.12906
G1 X85.888 Y97.165 E0.15401
G1 X86.459 Y96.421 E0.17896
G1 X87.091 Y95.728 E0.20392
G1 X87.78 Y95.092 E0.22887
G1 X88.521 Y94.517 E0.25382
G1 X89.308 Y94.007 E0.27878
G1 X90.136 Y93.565 E0.30375
G1 X90.998 Y93.196 E0.3287
G1 X91.888 Y92.902 E0.35364
G1 X93.009 Y92.646 E0.38424
G1 X93.627 Y92.539 E0.40092
G1 X96.139 Y92.07 E0.46892
G1 X98.318 Y91.606 E0.5282
G1 X99.243 Y91.45 E0.55316
G1 X100.431 Y91.366 E0.58485
G1 X101.24 Y91.353 E0.60638
G1 X114.511 Y91.355 E0.95949
G1 X115.248 Y91.367 E0.9791
G1 X116.184 Y91.423 E1.00405
G1 X117.112 Y91.557 E1.029
G1 X118.026 Y91.771 E1.05398
G1 X118.807 Y92.021 E1.0758
G1 X119.908 Y92.419 E1.10695
G1 X122.373 Y93.271 E1.17635
G1 X124.745 Y94.018 E1.24252
G1 X127.22 Y94.719 E1.31096
G1 X128.187 Y94.968 E1.33753
G1 X129.014 Y95.196 E1.36036
G1 X129.906 Y95.486 E1.38532
G1 X130.77 Y95.85 E1.41026
G1 X131.6 Y96.287 E1.43522
G1 X132.39 Y96.793 E1.46018
G1 X133.134 Y97.365 E1.48515
G1 X134.165 Y98.343 E1.52297
G1 X134.856 Y99.148 E1.55119
G1 X135.403 Y99.909 E1.57613
G1 X135.884 Y100.714 E1.60108
G1 X136.294 Y101.558 E1.62605
G1 X136.631 Y102.433 E1.651
G1 X136.893 Y103.334 E1.67597
G1 X137.076 Y104.253 E1.7009
G1 X137.181 Y105.185 E1.72585
G1 X137.207 Y106.005 E1.74768
G1 X137.205 Y106.371 E1.75742
G1 X137.16 Y107.308 E1.78238
G1 X137.094 Y107.872 E1.79749
G1 X136.686 Y110.719 E1.87402
G1 X136.404 Y113.203 E1.94054
G1 X136.169 Y115.978 E2.01464
G1 X136.05 Y116.909 E2.03961
G1 X135.852 Y117.825 E2.06455
G1 X135.577 Y118.722 E2.08951
G1 X135.226 Y119.592 E2.11448
G1 X134.803 Y120.429 E2.13943
G1 X134.31 Y121.227 E2.16439
G1 X133.751 Y121.98 E2.18934
G1 X133.13 Y122.682 E2.21428
G1 X132.451 Y123.329 E2.23924
G1 X131.719 Y123.916 E2.2642
G1 X130.94 Y124.438 E2.28915
G1 X130.12 Y124.893 E2.31411
G1 X129.263 Y125.275 E2.33907
G1 X128.378 Y125.583 E2.36401
G1 X127.531 Y125.802 E2.38728
G1 X124.792 Y126.394 E2.46185
G1 X122.395 Y126.982 E2.52752
G1 X119.442 Y127.806 E2.60909
G1 X118.172 Y128.183 E2.64434
G1 X117.263 Y128.411 E2.66928
G1 X116.337 Y128.561 E2.69424
G1 X115.237 Y128.636 E2.72358
G1 X114.479 Y128.648 E2.74375
G1 X101.133 Y128.645 E3.09886
G1 X100.426 Y128.634 E3.11767
G1 X99.49 Y128.579 E3.14262
G1 X98.885 Y128.501 E3.15885
G1 X98.187 Y128.391 E3.17765
G1 X96.779 Y128.151 E3.21566
G1 X94.185 Y127.783 E3.28537
G1 X92.728 Y127.599 E3.32445
G1 X91.804 Y127.442 E3.34938
G1 X90.896 Y127.207 E3.37434
G1 X90.011 Y126.895 E3.39931
G1 X89.156 Y126.509 E3.42427
G1 X88.337 Y126.052 E3.44923
G1 X87.56 Y125.527 E3.47418
G1 X86.831 Y124.937 E3.49913
G1 X86.154 Y124.288 E3.52409
G1 X85.536 Y123.583 E3.54903
G1 X84.979 Y122.828 E3.574
G1 X84.489 Y122.029 E3.59893
G1 X84.069 Y121.19 E3.6239
G1 X83.722 Y120.319 E3.64885
G1 X83.45 Y119.421 E3.67381
G1 X83.255 Y118.504 E3.69876
G1 X83.14 Y117.573 E3.72372
G1 X83.109 Y117.022 E3.7384
G1 X83.095 Y116.392 E3.75517
G1 X83.095 Y108.01 E3.9782
G1 X83.106 Y107.304 E3.99699
G1 X83.161 Y106.367 E4.02196
G1 X83.321 Y105.308 E4.05046
G1 X83.878 Y102.535 E4.12572
G1 F1500 E-2.37428
G0 F6000 X83.895 Y108.022
G1 F1500 E4.12572
G1 F900 X83.906 Y107.316 E4.14451
G1 X83.96 Y106.415 E4.16852
G1 X84.105 Y105.465 E4.19409
G1 X84.667 Y102.668 E4.27
G1 X84.867 Y101.603 E4.29884
G1 X85.073 Y100.723 E4.32288
G1 X85.355 Y99.866 E4.34689
G1 X85.713 Y99.036 E4.37094
G1 X86.142 Y98.242 E4.39496
G1 X86.64 Y97.488 E4.419
G1 X87.203 Y96.782 E4.44303
G1 X87.826 Y96.128 E4.46706
G1 X88.504 Y95.532 E4.49108
G1 X89.233 Y94.998 E4.51512
G1 X90.005 Y94.531 E4.53913
G1 X90.817 Y94.134 E4.56318
G1 X91.66 Y93.81 E4.58721
G1 X92.528 Y93.562 E4.61123
G1 X93.146 Y93.435 E4.62802
G1 X93.676 Y93.343 E4.64233
G1 X96.326 Y92.848 E4.71406
G1 X98.484 Y92.389 E4.77277
G1 X99.375 Y92.24 E4.7968
G1 X100.444 Y92.166 E4.82532
G1 X101.419 Y92.152 E4.85126
G1 X114.498 Y92.155 E5.19927
G1 X115.235 Y92.167 E5.21888
G1 X116.137 Y92.222 E5.24293
G1 X117.03 Y92.356 E5.26695
G1 X117.907 Y92.569 E5.29097
G1 X118.535 Y92.773 E5.30854
G1 X119.671 Y93.183 E5.34067
G1 X122.113 Y94.028 E5.40943
G1 X124.529 Y94.788 E5.47682
G1 X127.006 Y95.49 E5.54532
G1 X128.182 Y95.794 E5.57764
G1 X128.8 Y95.966 E5.59471
G1 X129.658 Y96.247 E5.61874
G1 X130.489 Y96.602 E5.64278
G1 X131.284 Y97.029 E5.66679
G1 X132.039 Y97.525 E5.69083
G1 X132.747 Y98.086 E5.71486
G1 X133.588 Y98.896 E5.74593
G1 X134.247 Y99.668 E5.77294
G1 X134.771 Y100.404 E5.79698
G1 X135.227 Y101.183 E5.821
G1 X135.613 Y102 E5.84504
G1 X135.925 Y102.847 E5.86906
G1 X136.161 Y103.719 E5.8931
G1 X136.319 Y104.608 E5.91712
G1 X136.398 Y105.508 E5.94116
G1 X136.405 Y106.367 E5.96402
G1 X136.36 Y107.269 E5.98805
G1 X136.302 Y107.758 E6.00115
G1 X135.893 Y110.614 E6.07792
G1 X135.609 Y113.115 E6.14489
G1 X135.372 Y115.911 E6.21956
G1 X135.256 Y116.806 E6.24357
G1 X135.061 Y117.688 E6.2676
G1 X134.789 Y118.55 E6.29166
G1 X134.442 Y119.383 E6.31567
G1 X134.022 Y120.183 E6.33971
G1 X133.534 Y120.943 E6.36374
G1 X132.98 Y121.656 E6.38777
G1 X132.365 Y122.317 E6.41179
G1 X131.694 Y122.922 E6.43583
G1 X130.972 Y123.465 E6.45987
G1 X130.206 Y123.942 E6.48388
G1 X129.399 Y124.349 E6.50793
G1 X128.561 Y124.683 E6.53193
G1 X127.362 Y125.02 E6.56507
G1 X124.61 Y125.615 E6.63999
G1 X122.184 Y126.21 E6.70645
G1 X119.251 Y127.028 E6.78747
G1 X117.945 Y127.416 E6.82372
G1 X117.068 Y127.634 E6.84777
G1 X116.176 Y127.775 E6.8718
G1 X115.222 Y127.836 E6.89723
G1 X114.479 Y127.848 E6.917
G1 X101.145 Y127.845 E7.2718
G1 X100.438 Y127.834 E7.29061
G1 X99.537 Y127.78 E7.31463
G1 X99.009 Y127.711 E7.3288
G1 X98.184 Y127.58 E7.35102
G1 X96.849 Y127.352 E7.38706
G1 X94.338 Y126.995 E7.45454
G1 X92.828 Y126.805 E7.49504
G1 X91.938 Y126.652 E7.51907
G1 X91.065 Y126.422 E7.54309
G1 X90.216 Y126.115 E7.56711
G1 X89.397 Y125.734 E7.59115
G1 X88.615 Y125.282 E7.61518
G1 X87.876 Y124.763 E7.63921
G1 X87.186 Y124.18 E7.66324
G1 X86.55 Y123.539 E7.68727
G1 X85.973 Y122.844 E7.71131
G1 X85.46 Y122.101 E7.73533
G1 X85.015 Y121.315 E7.75936
G1 X84.641 Y120.493 E7.78339
G1 X84.342 Y119.641 E7.80742
G1 X84.119 Y118.766 E7.83144
G1 X83.974 Y117.874 E7.85549
G1 X83.909 Y116.997 E7.87889
G1 X83.895 Y116.392 E7.89499
G1 X83.895 Y108.022 E8.1177
G0 F6000 X83.495 Y108.016
G1 F900 X83.506 Y107.31 E8.13649
G1 X83.561 Y106.391 E8.16099
G1 X83.713 Y105.386 E8.18803
G1 X84.274 Y102.594 E8.26381
G1 X84.474 Y101.529 E8.29264
G1 X84.683 Y100.632 E8.31715
G1 X84.969 Y99.757 E8.34164
G1 X85.33 Y98.91 E8.36614
G1 X85.763 Y98.098 E8.39062
G1 X86.264 Y97.326 E8.41511
G1 X86.831 Y96.6 E8.43962
G1 X87.459 Y95.927 E8.46412
G1 X88.143 Y95.31 E8.48863
G1 X88.877 Y94.756 E8.51309
G1 X89.658 Y94.267 E8.53761
G1 X90.477 Y93.847 E8.5621
G1 X91.33 Y93.5 E8.58661
G1 X92.21 Y93.229 E8.61111
G1 X93.077 Y93.041 E8.63471
G1 X93.612 Y92.948 E8.64916
G1 X96.217 Y92.462 E8.71967
G1 X98.401 Y91.997 E8.77909
G1 X99.309 Y91.845 E8.80358
G1 X100.438 Y91.766 E8.8337
G1 X101.247 Y91.753 E8.85522
G1 X114.505 Y91.755 E9.20799
G1 X115.242 Y91.767 E9.22761
G1 X116.161 Y91.822 E9.2521
G1 X117.071 Y91.957 E9.27658
G1 X117.967 Y92.17 E9.30109
G1 X118.671 Y92.397 E9.32077
G1 X119.789 Y92.801 E9.3524
G1 X122.227 Y93.644 E9.42104
G1 X124.653 Y94.408 E9.48872
G1 X127.089 Y95.098 E9.55608
G1 X128.088 Y95.355 E9.58353
G1 X128.907 Y95.581 E9.60614
G1 X129.783 Y95.866 E9.63065
G1 X130.63 Y96.226 E9.65514
G1 X131.443 Y96.658 E9.67963
G1 X132.215 Y97.16 E9.70414
G1 X132.941 Y97.726 E9.72863
G1 X133.876 Y98.619 E9.76303
G1 X134.551 Y99.408 E9.79066
G1 X135.087 Y100.157 E9.81517
G1 X135.556 Y100.949 E9.83966
G1 X135.954 Y101.779 E9.86415
G1 X136.279 Y102.641 E9.88866
G1 X136.528 Y103.527 E9.91315
G1 X136.698 Y104.432 E9.93765
G1 X136.79 Y105.348 E9.96215
G1 X136.807 Y106.003 E9.97958
G1 X136.805 Y106.369 E9.98932
G1 X136.76 Y107.288 E10.0138
G1 X136.698 Y107.815 E10.02792
G1 X136.287 Y110.683 E10.10501
G1 X136.006 Y113.158 E10.17129
G1 X135.77 Y115.945 E10.24571
G1 X135.653 Y116.858 E10.27021
G1 X135.456 Y117.757 E10.29469
G1 X135.183 Y118.636 E10.31919
G1 X134.834 Y119.488 E10.34368
G1 X134.413 Y120.307 E10.36819
G1 X133.922 Y121.086 E10.39269
G1 X133.365 Y121.819 E10.41718
G1 X132.747 Y122.501 E10.44167
G1 X132.072 Y123.127 E10.46617
G1 X131.345 Y123.693 E10.49068
G1 X130.572 Y124.193 E10.51518
G1 X129.759 Y124.623 E10.53965
G1 X128.911 Y124.982 E10.56415
G1 X128.035 Y125.266 E10.58866
G1 X127.447 Y125.411 E10.60477
G1 X124.71 Y126.002 E10.67928
G1 X122.268 Y126.602 E10.74619
G1 X119.331 Y127.421 E10.82731
G1 X118.058 Y127.799 E10.86265
G1 X117.165 Y128.023 E10.88715
G1 X116.256 Y128.168 E10.91164
G1 X115.23 Y128.236 E10.939
G1 X114.479 Y128.248 E10.95898
G1 X101.139 Y128.245 E11.31394
G1 X100.432 Y128.234 E11.33275
G1 X99.513 Y128.179 E11.35725
G1 X98.947 Y128.106 E11.37243
G1 X98.117 Y127.974 E11.39479
G1 X96.837 Y127.756 E11.42934
G1 X94.226 Y127.385 E11.49951
G1 X92.778 Y127.202 E11.53835
G1 X91.871 Y127.047 E11.56283
G1 X90.98 Y126.814 E11.58734
G1 X90.113 Y126.505 E11.61183
G1 X89.276 Y126.122 E11.63632
G1 X88.475 Y125.667 E11.66083
G1 X87.717 Y125.145 E11.68532
G1 X87.007 Y124.559 E11.70982
G1 X86.351 Y123.913 E11.73431
G1 X85.753 Y123.213 E11.75881
G1 X85.218 Y122.464 E11.7833
G1 X84.75 Y121.671 E11.8078
G1 X84.352 Y120.84 E11.83232
G1 X84.029 Y119.979 E11.85679
G1 X83.781 Y119.092 E11.88129
G1 X83.611 Y118.187 E11.9058
G1 X83.509 Y117.009 E11.93726
G1 X83.495 Y116.392 E11.95368
G1 X83.495 Y108.016 E12.17655
G1 F1500 E5.67655
;MESH:void_switch-v21.stl
G0 F6000 X97.391 Y108.824
;TYPE:WALL-INNER
G1 F1500 E12.17655
G1 F780.9 X97.391 Y108.267 E12.19363
G1 X97.108 Y108.368 E12.20284
G1 F800 X96.785 Y108.394 E12.21254
G1 F814.5 X95.803 Y108.394 E12.24142
G1 F807.2 X95.519 Y108.31 E12.2502
G1 F803.6 X95.518 Y108.83 E12.2657
G1 F807.2 X96.152 Y108.832 E12.28451
G1 F814.5 X96.786 Y108.834 E12.30315
G1 F809 X97.088 Y108.829 E12.31209
G1 F791.2 X97.391 Y108.824 E12.32126
G0 F6000 X97.821 Y109.379
G1 F900 X97.821 Y107.925 E12.35995
G1 X97.591 Y107.872 E12.36623
G1 X97.41 Y107.743 E12.37215
G1 X97.228 Y107.872 E12.37808
G1 X96.941 Y107.974 E12.38619
G1 X95.865 Y107.974 E12.41482
G1 X95.567 Y107.887 E12.42308
G1 X95.43 Y107.798 E12.42742
G1 X95.293 Y107.887 E12.43177
G1 X95.095 Y107.929 E12.43716
G1 X95.092 Y109.382 E12.47582
G1 X95.475 Y109.254 E12.48656
G1 X97.44 Y109.254 E12.53885
G1 X97.821 Y109.379 E12.54952
G0 F6000 X98.13 Y110.254
G1 F671.6 X98.175 Y109.909 E12.56192
G1 F809 X98.221 Y109.564 E12.57222
G1 F900 X98.221 Y107.638 E12.62347
G1 X98.184 Y107.574 E12.62544
G1 X98.034 Y107.574 E12.62943
G1 X97.768 Y107.513 E12.63669
G1 X97.612 Y107.402 E12.64179
G1 F843.1 X97.409 Y107.028 E12.65387
G1 X97.208 Y107.402 E12.66593
G1 F900 X97.051 Y107.513 E12.67105
G1 X96.863 Y107.574 E12.67631
G1 X95.891 Y107.569 E12.70217
G1 X95.731 Y107.522 E12.70661
G1 X95.575 Y107.421 E12.71155
G1 X95.43 Y107.126 E12.7203
G1 X95.284 Y107.421 E12.72906
G1 X95.129 Y107.522 E12.73398
G1 X94.882 Y107.574 E12.7407
G1 X94.731 Y107.574 E12.74471
G1 X94.694 Y107.638 E12.74668
G1 X94.692 Y109.564 E12.79793
G1 F809 X94.738 Y109.909 E12.80823
G1 F672.9 X94.785 Y110.254 E12.82062
G1 X94.949 Y110.014 E12.83097
G1 F809 X95.113 Y109.774 E12.83957
G1 F900 X95.475 Y109.654 E12.84972
G1 X97.44 Y109.654 E12.90201
G1 X97.803 Y109.773 E12.91217
G1 F809 X97.966 Y110.013 E12.92076
G1 F671.6 X98.13 Y110.254 E12.93115
G1 F1500 E6.43115
G0 F6000 X97.641 Y116.494
;TYPE:WALL-OUTER
G1 F1500 E12.93115
G1 F900 X98.621 Y116.494 E12.95723
G1 X98.621 Y107.53 E13.19574
G1 X98.414 Y107.174 E13.2067
G1 X98.034 Y107.174 E13.21681
G1 X97.893 Y107.117 E13.22086
G1 X97.834 Y106.992 E13.22454
G1 X97.833 Y103.674 E13.31282
G1 X96.985 Y103.674 E13.33539
G1 X96.985 Y106.992 E13.42367
G1 X96.926 Y107.117 E13.42735
G1 X96.82 Y107.172 E13.43053
G1 X95.914 Y107.173 E13.45463
G1 F757.9 X95.703 Y106.998 E13.46329
G1 F655.7 X95.703 Y105.372 E13.52268
G1 F658.1 X95.703 Y103.746 E13.58184
G1 X95.156 Y103.747 E13.60174
G1 X95.156 Y105.373 E13.66091
G1 F655.7 X95.156 Y106.999 E13.72029
G1 F757.9 X94.945 Y107.174 E13.72895
G1 F900 X94.501 Y107.174 E13.74076
G1 X94.294 Y107.53 E13.75172
G1 X94.295 Y116.494 E13.99024
G1 X95.275 Y116.494 E14.01631
G1 X95.275 Y110.254 E14.18235
G1 X95.354 Y110.094 E14.1871
G1 X95.475 Y110.054 E14.19049
G1 X97.44 Y110.054 E14.24277
G1 X97.561 Y110.093 E14.24615
G1 X97.64 Y110.254 E14.25093
G1 X97.641 Y116.494 E14.41696
G0 F6000 X98.131 Y116.004
;TYPE:WALL-INNER
G1 F620.7 X98.131 Y113.129 E14.52788
G1 F619.6 X98.13 Y110.254 E14.639
G1 F1500 E8.139
G0 F6000 X97.409 Y107.028
G1 F1500 E14.639
G1 F794.7 X97.409 Y105.563 E14.68314
G1 F798.2 X97.409 Y104.098 E14.72709
G1 F1500 E8.22709
G0 F6000 X94.785 Y110.254
G1 F1500 E14.72709
G1 F620.7 X94.785 Y116.004 E14.94894
G1 F1500 E8.44894
G0 F6000 X109.719 Y112.212
;TYPE:WALL-OUTER
G1 F1500 E14.94894
G1 F724.3 X110.03 Y111.901 E14.96348
G1 F1500 E8.46348
G0 F6000 X108.02 Y116.245
;TYPE:WALL-INNER
G1 F1500 E14.96348
G1 F900 X114.066 Y116.248 E15.12435
G1 X114.066 Y110.197 E15.28536
G1 X114.002 Y110.308 E15.28877
G1 X108.126 Y116.184 E15.50988
G1 X108.02 Y116.245 E15.51313
G1 F1500 E9.01313
G0 F6000 X106.25 Y116.245
G1 F1500 E15.51313
G1 F900 X106.144 Y116.184 E15.51639
G1 X101.568 Y111.607 E15.6886
G1 X101.568 Y116.246 E15.81203
G1 X106.25 Y116.245 E15.93661
G1 F1500 E9.43661
G0 F6000 X100.811 Y108.856
G1 F1500 E15.93661
G1 F743.8 X101.393 Y108.273 E15.96313
G1 X101.15 Y108.029 E15.97422
G1 F636 X100.891 Y107.7 E15.98999
G1 X100.812 Y108.169 E16.00789
G1 F743.8 X100.811 Y108.856 E16.03001
G1 F1500 E9.53001
G0 F6000 X101.219 Y104.257
G1 F1500 E16.03001
G1 F718.6 X102.073 Y103.402 E16.07029
G1 X101.219 Y103.402 E16.09875
G1 X101.219 Y104.257 E16.12724
G0 F6000 X100.887 Y105.356
G1 F623.9 X101.033 Y105.144 E16.13712
G1 F784.3 X101.18 Y104.931 E16.14502
G1 F900 X102.749 Y103.361 E16.20408
G1 F689.7 X103.05 Y103.074 E16.21852
G1 X102.58 Y102.953 E16.23538
G1 F900 X100.77 Y102.953 E16.28354
G1 X100.769 Y104.761 E16.33164
G1 F784.3 X100.828 Y105.058 E16.34089
G1 F623.9 X100.887 Y105.356 E16.35255
G1 F1500 E9.85255
G0 F6000 X106.092 Y103.576
G1 F1500 E16.35255
G1 F746.9 X106.675 Y102.994 E16.37896
G1 X105.988 Y102.994 E16.40099
G1 F692.3 X105.691 Y103.031 E16.41134
G1 F604 X105.394 Y103.069 E16.42321
G1 X105.621 Y103.2 E16.4336
G1 F692.3 X105.848 Y103.332 E16.44269
G1 F746.9 X106.092 Y103.576 E16.45375
G1 F1500 E9.95375
G0 F6000 X114.066 Y108.437
G1 F1500 E16.45375
G1 F900 X114.066 Y103.754 E16.57836
G1 X109.428 Y103.753 E16.70176
G1 X114.002 Y108.326 E16.87386
G1 X114.066 Y108.437 E16.87727
G1 F1500 E10.37727
G0 F6000 X106.119 Y116.645
G1 F1500 E16.87727
G1 F886.7 X106.387 Y116.64 E16.88451
G1 F861.2 X106.655 Y116.634 E16.89197
G1 F837.2 X106.923 Y116.628 E16.89963
G1 F825.7 X107.348 Y116.628 E16.91196
G1 F837.2 X107.616 Y116.633 E16.91963
G1 F861.2 X107.884 Y116.639 E16.92708
G1 F886.7 X108.152 Y116.645 E16.93432
G1 F900 X114.466 Y116.648 E17.10232
G1 X114.466 Y110.334 E17.27033
G1 F886.7 X114.46 Y110.066 E17.27757
G1 F861.2 X114.454 Y109.798 E17.28502
G1 F837.2 X114.448 Y109.53 E17.29269
