;FLAVOR:Marlin
;TIME:1998
;Filament used: 0.426976m
;Layer height: 0.16
;MINX:24.757
;MINY:62.968
;MINZ:0.16
;MAXX:78.866
;MAXY:100.268
;MAXZ:10.08
;Generated with Cura_SteamEngine main
M82 ;absolute extrusion mode
; Ender 3 Custom Start G-code
G92 E0 ; Reset Extruder
G28 ; Home all axes
M104 S120 ; Start heating up the nozzle most of the way
M190 S68.0 ; Start heating the bed, wait until target temperature reached
M109 S248.0 ; Finish heating the nozzle
G1 Z2.0 F3000 ; Move Z Axis up little to prevent scratching of Heat Bed
G1 X0.1 Y20 Z0.3 F5000.0 ; Move to start position
G1 X0.1 Y200.0 Z0.3 F1500.0 E15 ; Draw the first line
G1 X0.4 Y200.0 Z0.3 F5000.0 ; Move to side a little
G1 X0.4 Y20 Z0.3 F1500.0 E30 ; Draw the second line
G92 E0 ; Reset Extruder
G1 Z2.0 F3000 ; Move Z Axis up little to prevent scratching of Heat Bed
G1 X5 Y20 Z0.3 F5000.0 ; Move over to prevent blob squish
G92 E0
G92 E0
G1 F1500 E-3.5
;LAYER_COUNT:63
;LAYER:0
M107
G0 F6000 X31.788 Y64.734 Z0.16
G0 X25.538 Y73.711
;TYPE:SKIRT
G1 F1500 E0
G1 F600 X25.74 Y72.629 E0.02929
G1 X25.951 Y71.716 E0.05422
G1 X26.24 Y70.823 E0.0792
G1 X26.603 Y69.959 E0.10413
G1 X27.039 Y69.128 E0.1291
G1 X27.544 Y68.338 E0.15405
G1 X28.114 Y67.593 E0.17901
G1 X28.746 Y66.9 E0.20396
G1 X29.434 Y66.263 E0.22891
G1 X30.175 Y65.687 E0.25389
G1 X30.961 Y65.176 E0.27883
G1 X31.788 Y64.734 E0.30378
G1 X32.65 Y64.365 E0.32873
G1 X33.54 Y64.07 E0.35368
G1 X34.453 Y63.851 E0.37866
G1 X35.456 Y63.704 E0.40563
G1 X37.922 Y63.457 E0.47158
G1 X39.566 Y63.239 E0.51571
G1 X40.961 Y63.064 E0.55311
G1 X42.164 Y62.979 E0.5852
G1 X42.826 Y62.969 E0.60282
G1 X55.988 Y62.968 E0.95304
G1 X56.847 Y62.979 E0.97589
G1 X57.784 Y63.032 E1.00087
G1 X58.712 Y63.165 E1.02581
G1 X59.762 Y63.415 E1.05453
G1 X62.373 Y64.174 E1.12688
G1 X64.773 Y64.799 E1.19287
G1 X67.216 Y65.363 E1.25958
G1 X69.827 Y65.888 E1.33045
G1 X70.738 Y66.112 E1.35541
G1 X71.627 Y66.413 E1.38038
G1 X72.486 Y66.788 E1.40532
G1 X73.311 Y67.235 E1.43029
G1 X73.952 Y67.646 E1.45055
G1 X74.71 Y68.199 E1.47552
G1 X75.419 Y68.813 E1.50047
G1 X76.072 Y69.486 E1.52542
G1 X76.666 Y70.212 E1.55038
G1 X77.195 Y70.986 E1.57533
G1 X77.657 Y71.802 E1.60028
G1 X78.048 Y72.655 E1.62525
G1 X78.364 Y73.538 E1.6502
G1 X78.605 Y74.444 E1.67514
G1 X78.767 Y75.368 E1.70011
G1 X78.86 Y76.643 E1.73412
G1 X78.866 Y77.048 E1.7449
G1 X78.84 Y77.986 E1.76987
G1 X78.775 Y78.63 E1.78709
G1 X78.654 Y79.56 E1.81204
G1 X78.525 Y80.447 E1.83589
G1 X78.235 Y82.911 E1.90191
G1 X78.008 Y85.454 E1.96984
G1 X77.886 Y87.524 E2.02502
G1 X77.841 Y88.158 E2.04193
G1 X77.735 Y89.09 E2.06689
G1 X77.55 Y90.009 E2.09183
G1 X77.287 Y90.909 E2.11678
G1 X76.949 Y91.784 E2.14174
G1 X76.537 Y92.627 E2.1667
G1 X76.055 Y93.431 E2.19165
G1 X75.506 Y94.191 E2.21659
G1 X74.894 Y94.902 E2.24155
G1 X74.224 Y95.559 E2.26652
G1 X73.5 Y96.155 E2.29147
G1 X72.729 Y96.688 E2.31641
G1 X71.914 Y97.154 E2.34139
G1 X71.063 Y97.548 E2.36635
G1 X70.182 Y97.868 E2.39129
G1 X69.276 Y98.112 E2.41625
G1 X68.434 Y98.267 E2.43903
G1 X67.309 Y98.429 E2.46928
G1 X64.743 Y98.833 E2.53839
G1 X62.297 Y99.289 E2.6046
G1 X59.033 Y100.001 E2.69349
G1 X58.109 Y100.161 E2.71844
G1 X56.865 Y100.252 E2.75163
G1 X56.049 Y100.265 E2.77335
G1 X42.976 Y100.268 E3.12119
G1 X42.102 Y100.257 E3.14445
G1 X41.475 Y100.23 E3.16115
G1 X40.239 Y100.142 E3.19412
G1 X37.683 Y99.997 E3.26224
G1 X36.001 Y99.95 E3.30701
G1 X35.302 Y99.921 E3.32563
G1 X34.368 Y99.842 E3.35057
G1 X33.443 Y99.683 E3.37554
G1 X32.536 Y99.446 E3.40049
G1 X31.652 Y99.133 E3.42544
G1 X30.798 Y98.745 E3.4504
G1 X29.98 Y98.286 E3.47535
G1 X29.204 Y97.759 E3.50031
G1 X28.476 Y97.168 E3.52526
G1 X27.801 Y96.517 E3.55022
G1 X27.183 Y95.811 E3.57518
G1 X26.629 Y95.055 E3.60012
G1 X26.14 Y94.255 E3.62507
G1 X25.722 Y93.415 E3.65003
G1 X25.376 Y92.543 E3.675
G1 X25.106 Y91.645 E3.69995
G1 X24.914 Y90.727 E3.7249
G1 X24.8 Y89.796 E3.74986
G1 X24.771 Y89.248 E3.76446
G1 X24.757 Y88.62 E3.78117
G1 X24.757 Y79.176 E4.03246
G1 X24.768 Y78.468 E4.0513
G1 X24.823 Y77.532 E4.07625
G1 X24.983 Y76.471 E4.1048
G1 X25.538 Y73.711 E4.17971
G1 F1500 E0.67971
G0 F6000 X25.557 Y79.189
G1 F1500 E4.17971
G1 F600 X25.568 Y78.481 E4.19855
G1 X25.622 Y77.579 E4.22259
G1 X25.767 Y76.629 E4.24816
G1 X26.321 Y73.873 E4.32296
G1 X26.526 Y72.776 E4.35266
G1 X26.731 Y71.897 E4.37667
G1 X27.013 Y71.039 E4.4007
G1 X27.37 Y70.209 E4.42475
G1 X27.799 Y69.414 E4.44878
G1 X28.296 Y68.66 E4.47281
G1 X28.858 Y67.953 E4.49684
G1 X29.481 Y67.299 E4.52088
G1 X30.158 Y66.702 E4.54489
G1 X30.886 Y66.168 E4.56892
G1 X31.659 Y65.7 E4.59296
G1 X32.47 Y65.302 E4.617
G1 X33.312 Y64.977 E4.64101
G1 X34.181 Y64.729 E4.66506
G1 X35.067 Y64.558 E4.68907
G1 X35.536 Y64.5 E4.70164
G1 X38.012 Y64.252 E4.76785
G1 X39.665 Y64.032 E4.81223
G1 X41.06 Y63.857 E4.84963
G1 X42.176 Y63.779 E4.8794
G1 X42.838 Y63.769 E4.89702
G1 X55.988 Y63.768 E5.24691
G1 X56.836 Y63.779 E5.26948
G1 X57.738 Y63.832 E5.29352
G1 X58.631 Y63.964 E5.31754
G1 X59.539 Y64.184 E5.3424
G1 X62.135 Y64.939 E5.41434
G1 X64.568 Y65.573 E5.48124
G1 X67.082 Y66.153 E5.54989
G1 X69.67 Y66.673 E5.62012
G1 X70.546 Y66.89 E5.64414
G1 X71.401 Y67.183 E5.66819
G1 X72.225 Y67.551 E5.6922
G1 X73.396 Y68.23 E5.72822
G1 X74.238 Y68.845 E5.75596
G1 X74.917 Y69.441 E5.78
G1 X75.541 Y70.094 E5.80403
G1 X76.105 Y70.799 E5.82806
G1 X76.604 Y71.552 E5.85209
G1 X77.034 Y72.346 E5.87612
G1 X77.393 Y73.175 E5.90015
G1 X77.677 Y74.032 E5.92418
G1 X77.883 Y74.911 E5.9482
G1 X78.012 Y75.805 E5.97223
G1 X78.06 Y76.655 E5.99489
G1 X78.066 Y77.06 E6.00566
G1 X78.039 Y77.963 E6.0297
G1 X77.982 Y78.527 E6.04479
G1 X77.838 Y79.623 E6.0742
G1 X77.733 Y80.341 E6.09351
G1 X77.436 Y82.854 E6.16084
G1 X77.212 Y85.37 E6.22805
G1 X77.097 Y87.341 E6.28058
G1 X77.043 Y88.101 E6.30086
G1 X76.94 Y88.998 E6.32488
G1 X76.757 Y89.883 E6.34893
G1 X76.497 Y90.748 E6.37296
G1 X76.161 Y91.586 E6.39698
G1 X75.752 Y92.391 E6.42101
G1 X75.274 Y93.157 E6.44503
G1 X74.73 Y93.878 E6.46907
G1 X74.125 Y94.548 E6.49309
G1 X73.462 Y95.162 E6.51713
G1 X72.748 Y95.715 E6.54116
G1 X71.987 Y96.202 E6.5652
G1 X71.187 Y96.62 E6.58922
G1 X70.353 Y96.966 E6.61324
G1 X69.491 Y97.236 E6.63728
G1 X68.32 Y97.475 E6.66908
G1 X67.226 Y97.632 E6.69848
G1 X64.609 Y98.044 E6.76898
G1 X62.118 Y98.509 E6.8364
G1 X58.863 Y99.219 E6.92505
G1 X57.973 Y99.372 E6.94908
G1 X56.852 Y99.452 E6.97898
G1 X56.036 Y99.465 E7.00069
G1 X42.976 Y99.468 E7.3482
G1 X42.113 Y99.457 E7.37116
G1 X41.532 Y99.432 E7.38663
G1 X40.343 Y99.348 E7.41835
G1 X37.68 Y99.197 E7.48932
G1 X35.881 Y99.145 E7.53721
G1 X35.336 Y99.122 E7.55172
G1 X34.436 Y99.044 E7.57576
G1 X33.547 Y98.887 E7.59978
G1 X32.675 Y98.651 E7.62382
G1 X31.827 Y98.34 E7.64785
G1 X31.01 Y97.955 E7.67188
G1 X30.231 Y97.499 E7.6959
G1 X29.495 Y96.975 E7.71994
G1 X28.808 Y96.389 E7.74397
G1 X28.175 Y95.744 E7.76801
G1 X27.603 Y95.046 E7.79203
G1 X27.094 Y94.3 E7.81606
G1 X26.653 Y93.512 E7.84008
G1 X26.283 Y92.688 E7.86412
G1 X25.988 Y91.835 E7.88813
G1 X25.77 Y90.958 E7.91218
G1 X25.629 Y90.066 E7.93621
G1 X25.57 Y89.225 E7.95864
G1 X25.557 Y88.62 E7.97474
G1 X25.557 Y79.189 E8.22568
G0 F6000 X25.157 Y79.182
G1 F600 X25.168 Y78.474 E8.24452
G1 X25.223 Y77.555 E8.26902
G1 X25.375 Y76.55 E8.29607
G1 X25.931 Y73.785 E8.37111
G1 X26.133 Y72.703 E8.4004
G1 X26.341 Y71.806 E8.4249
G1 X26.627 Y70.931 E8.44939
G1 X26.987 Y70.083 E8.4739
G1 X27.419 Y69.27 E8.4984
G1 X27.92 Y68.498 E8.52289
G1 X28.486 Y67.772 E8.54738
G1 X29.114 Y67.098 E8.5719
G1 X29.797 Y66.481 E8.59639
G1 X30.531 Y65.926 E8.62087
G1 X31.311 Y65.436 E8.64538
G1 X32.13 Y65.016 E8.66987
G1 X32.982 Y64.668 E8.69436
G1 X33.862 Y64.396 E8.71887
G1 X34.762 Y64.201 E8.74337
G1 X35.496 Y64.102 E8.76308
G1 X37.95 Y63.856 E8.8287
G1 X39.616 Y63.635 E8.87342
G1 X41.011 Y63.46 E8.91083
G1 X42.17 Y63.379 E8.94174
G1 X42.832 Y63.369 E8.95936
G1 X55.988 Y63.368 E9.30942
G1 X56.842 Y63.379 E9.33214
G1 X57.761 Y63.432 E9.35663
G1 X58.672 Y63.565 E9.38113
G1 X59.65 Y63.799 E9.40789
G1 X62.266 Y64.56 E9.48038
G1 X64.687 Y65.19 E9.54694
G1 X67.146 Y65.758 E9.6141
G1 X69.749 Y66.281 E9.68474
G1 X70.642 Y66.501 E9.70921
G1 X71.514 Y66.798 E9.73372
G1 X72.356 Y67.17 E9.75822
G1 X73.616 Y67.895 E9.7969
G1 X74.474 Y68.522 E9.82517
G1 X75.168 Y69.127 E9.84967
G1 X75.807 Y69.79 E9.87417
G1 X76.386 Y70.506 E9.89867
G1 X76.9 Y71.27 E9.92317
G1 X77.347 Y72.075 E9.94767
G1 X77.721 Y72.916 E9.97216
G1 X78.022 Y73.786 E9.99666
G1 X78.245 Y74.679 E10.02115
G1 X78.391 Y75.588 E10.04565
G1 X78.46 Y76.649 E10.07394
G1 X78.466 Y77.054 E10.08472
G1 X78.439 Y77.974 E10.10921
G1 X78.378 Y78.579 E10.12539
G1 X78.234 Y79.681 E10.15496
G1 X78.126 Y80.413 E10.17464
G1 X77.834 Y82.899 E10.24125
G1 X77.611 Y85.395 E10.30793
G1 X77.496 Y87.364 E10.36041
G1 X77.442 Y88.129 E10.38081
G1 X77.337 Y89.044 E10.40532
G1 X77.153 Y89.946 E10.42981
G1 X76.892 Y90.829 E10.45431
G1 X76.555 Y91.686 E10.47882
G1 X76.144 Y92.51 E10.50332
G1 X75.664 Y93.295 E10.5278
G1 X75.118 Y94.036 E10.55229
G1 X74.509 Y94.727 E10.5768
G1 X73.843 Y95.362 E10.60128
G1 X73.124 Y95.937 E10.62578
G1 X72.357 Y96.448 E10.6503
G1 X71.55 Y96.89 E10.67479
G1 X70.707 Y97.26 E10.69928
G1 X69.835 Y97.556 E10.72378
G1 X68.941 Y97.775 E10.74828
G1 X68.377 Y97.871 E10.7635
G1 X67.267 Y98.03 E10.79333
G1 X64.673 Y98.439 E10.86321
G1 X62.21 Y98.899 E10.92988
G1 X58.948 Y99.61 E11.01871
G1 X58.041 Y99.767 E11.0432
G1 X56.859 Y99.852 E11.07474
G1 X56.043 Y99.865 E11.09645
G1 X42.976 Y99.868 E11.44414
G1 X42.108 Y99.857 E11.46724
G1 X41.504 Y99.831 E11.48332
G1 X40.295 Y99.745 E11.51557
G1 X37.68 Y99.597 E11.58526
G1 X35.864 Y99.545 E11.6336
G1 X35.319 Y99.522 E11.64812
G1 X34.402 Y99.443 E11.67261
G1 X33.495 Y99.285 E11.69711
G1 X32.605 Y99.049 E11.72161
G1 X31.739 Y98.736 E11.74611
G1 X30.903 Y98.35 E11.77061
G1 X30.104 Y97.892 E11.79511
G1 X29.348 Y97.367 E11.8196
G1 X28.64 Y96.779 E11.84409
G1 X27.986 Y96.131 E11.86859
G1 X27.391 Y95.428 E11.89309
G1 X26.859 Y94.677 E11.91758
G1 X26.394 Y93.883 E11.94207
G1 X25.999 Y93.051 E11.96657
G1 X25.679 Y92.188 E11.99106
G1 X25.434 Y91.3 E12.01557
G1 X25.268 Y90.395 E12.04006
G1 X25.17 Y89.237 E12.07098
G1 X25.157 Y88.62 E12.0874
G1 X25.157 Y79.182 E12.33853
G1 F1500 E8.83853
;MESH:void_switch-v42.stl
G0 F6000 X39.083 Y80.48
;TYPE:WALL-INNER
G1 F1500 E12.33853
G1 F600 X39.083 Y79.39 E12.36753
G1 X38.569 Y79.535 E12.38174
G1 X37.629 Y79.54 E12.40675
G1 X37.156 Y79.438 E12.41963
G1 X37.156 Y80.48 E12.44735
G1 X39.083 Y80.48 E12.49863
G0 F6000 X39.483 Y81.006
G1 F600 X39.483 Y79.091 E12.54958
G1 X39.253 Y79.038 E12.55586
G1 X39.072 Y78.909 E12.56178
G1 X38.89 Y79.038 E12.56771
G1 X38.534 Y79.136 E12.57754
G1 X37.631 Y79.14 E12.60156
G1 X37.228 Y79.053 E12.61253
G1 X37.091 Y78.964 E12.61688
G1 X36.954 Y79.053 E12.62123
G1 X36.756 Y79.095 E12.62661
G1 X36.754 Y81.008 E12.67751
G1 X37.137 Y80.88 E12.68826
G1 X39.103 Y80.88 E12.74057
G1 X39.483 Y81.006 E12.75122
G0 F6000 X39.793 Y81.88
G1 F448.6 X39.838 Y81.535 E12.7636
G1 F539.3 X39.883 Y81.19 E12.7739
G1 F600 X39.883 Y78.801 E12.83747
G1 X39.847 Y78.74 E12.83936
G1 X39.696 Y78.74 E12.84337
G1 X39.43 Y78.679 E12.85063
G1 X39.274 Y78.568 E12.85573
G1 F562.1 X39.071 Y78.194 E12.86782
G1 X38.87 Y78.568 E12.87988
G1 F600 X38.713 Y78.679 E12.88499
G1 X38.499 Y78.738 E12.8909
G1 X37.634 Y78.74 E12.91392
G1 X37.392 Y78.688 E12.9205
G1 X37.236 Y78.587 E12.92545
G1 X37.091 Y78.294 E12.93414
G1 X36.946 Y78.587 E12.94284
G1 X36.79 Y78.688 E12.94779
G1 X36.544 Y78.74 E12.95448
G1 X36.392 Y78.74 E12.95852
G1 X36.356 Y78.801 E12.96041
G1 X36.354 Y81.19 E13.02397
G1 F539.3 X36.4 Y81.535 E13.03428
G1 F448.6 X36.447 Y81.88 E13.04667
G1 X36.611 Y81.64 E13.05701
G1 F539.3 X36.775 Y81.4 E13.06562
G1 F600 X37.137 Y81.28 E13.07577
G1 X39.103 Y81.28 E13.12808
G1 X39.464 Y81.399 E13.13819
G1 F539.3 X39.628 Y81.639 E13.1468
G1 F448.6 X39.793 Y81.88 E13.15719
G1 F1500 E9.65719
G0 F6000 X40.283 Y88.74
;TYPE:WALL-OUTER
G1 F1500 E13.15719
G1 F600 X40.283 Y78.694 E13.4245
G1 X40.078 Y78.34 E13.43538
G1 X39.696 Y78.34 E13.44554
G1 X39.555 Y78.283 E13.44959
G1 X39.496 Y78.158 E13.45327
G1 X39.495 Y74.84 E13.54155
G1 X38.647 Y74.84 E13.56412
G1 X38.647 Y78.158 E13.6524
G1 X38.588 Y78.283 E13.65608
G1 X38.465 Y78.34 E13.65969
G1 X37.577 Y78.34 E13.68332
G1 F506.3 X37.364 Y78.164 E13.69203
G1 F438 X37.364 Y74.913 E13.81054
G1 F438.8 X36.818 Y74.913 E13.83041
G1 F438 X36.818 Y78.164 E13.94891
G1 F506.3 X36.605 Y78.34 E13.95763
G1 F600 X36.161 Y78.34 E13.96944
G1 X35.956 Y78.694 E13.98032
G1 X35.957 Y88.74 E14.24763
G1 X36.937 Y88.74 E14.27371
G1 X36.937 Y81.88 E14.45624
G1 X37.016 Y81.72 E14.46099
G1 X37.137 Y81.68 E14.46438
G1 X39.103 Y81.68 E14.51669
G1 X39.224 Y81.719 E14.52007
G1 X39.303 Y81.88 E14.52484
G1 X39.303 Y88.74 E14.70737
G1 X40.283 Y88.74 E14.73345
G0 F6000 X39.793 Y88.25
;TYPE:WALL-INNER
G1 F413.8 X39.793 Y81.88 E14.97922
G1 F1500 E11.47922
G0 F6000 X36.447 Y81.88
G1 F1500 E14.97922
G1 F413.8 X36.447 Y88.25 E15.22498
G1 F1500 E11.72498
G0 F6000 X39.071 Y78.194
G1 F1500 E15.22498
G1 F529.8 X39.071 Y76.729 E15.26913
G1 F532.2 X39.071 Y75.264 E15.31308
G1 F1500 E11.81308
G0 F6000 X38.611 Y80.008
;TYPE:SKIN
G1 F1500 E15.31308
G1 F385.9 X37.629 Y80.01 E15.35371
G1 F1500 E11.85371
G0 F6000 X42.914 Y76.01
;TYPE:WALL-INNER
G1 F1500 E15.35371
G1 F427.8 X43.874 Y75.05 E15.40437
G1 X42.914 Y75.05 E15.4402
G1 X42.914 Y76.01 E15.47602
G1 F1500 E11.97602
G0 F6000 X42.482 Y81.02
G1 F1500 E15.47602
G1 F532.2 X42.708 Y80.595 E15.49047
G1 F600 X43.335 Y79.968 E15.51406
G1 X42.976 Y79.609 E15.52757
G1 F607.6 X42.815 Y79.288 E15.537
G1 F617 X42.813 Y78.169 E15.56596
G1 F621.8 X42.81 Y77.05 E15.59469
G1 F612.2 X42.977 Y76.625 E15.6066
G1 F600 X44.487 Y75.115 E15.66342
G1 F606.1 X44.809 Y74.952 E15.67293
G1 F615.4 X45.928 Y74.95 E15.70196
G1 F620.2 X47.047 Y74.947 E15.73076
G1 F610.7 X47.472 Y75.115 E15.74271
G1 F600 X47.83 Y75.473 E15.75618
G1 X48.456 Y74.846 E15.77976
G1 F525.2 X48.768 Y74.623 E15.79142
G1 X48.341 Y74.568 E15.8045
G1 F601.5 X47.851 Y74.567 E15.81751
G1 F604.5 X47.361 Y74.566 E15.83045
G1 F607.6 X46.871 Y74.565 E15.84332
G1 F610.7 X46.381 Y74.564 E15.85613
G1 F613.8 X45.891 Y74.563 E15.86888
G1 F617 X45.401 Y74.562 E15.88156
G1 F620.2 X44.911 Y74.561 E15.89417
G1 F617 X44.586 Y74.565 E15.90258
G1 F606.1 X44.26 Y74.569 E15.91117
G1 F600 X42.433 Y74.569 E15.95978
G1 X42.433 Y76.4 E16.0085
G1 F606.1 X42.429 Y76.725 E16.01707
G1 F618.6 X42.424 Y77.05 E16.02545
G1 F623.4 X42.424 Y79.185 E16.08013
G1 F620.2 X42.426 Y79.617 E16.09125
G1 F612.2 X42.429 Y80.049 E16.10252
G1 F604.5 X42.432 Y80.481 E16.11393
G1 F564.7 X42.457 Y80.751 E16.12159
G1 F504.2 X42.482 Y81.02 E16.13015
G0 F6000 X42.849 Y79.968
G1 F685.7 X42.827 Y80.005 E16.13115
G1 X42.763 Y79.968 E16.13287
G1 X42.827 Y79.931 E16.13459
G1 F1500 E12.63459
G0 F6000 X47.873 Y74.943
G1 F1500 E16.13459
G1 F685.7 X47.851 Y74.98 E16.13559
G1 X47.787 Y74.943 E16.13732
G1 X47.851 Y74.906 E16.13904
G1 F1500 E12.63904
G0 F6000 X55.729 Y80.215
G1 F1500 E16.13904
G1 F600 X55.729 Y75.369 E16.26798
G1 X50.96 Y75.369 E16.39487
G1 X55.62 Y80.03 E16.57025
G1 X55.729 Y80.215 E16.57596
G1 F1500 E13.07596
G0 F6000 X55.729 Y87.866
G1 F1500 E16.57596
G1 F600 X55.729 Y81.825 E16.7367
G1 X55.62 Y82.01 E16.74241
G1 X53.018 Y84.614 E16.84036
G1 X52.657 Y84.795 E16.85111
G1 X52.477 Y85.155 E16.86182
G1 X49.872 Y87.76 E16.95984
G1 X49.688 Y87.867 E16.96551
G1 X55.729 Y87.866 E17.12624
G1 F1500 E13.62624
G0 F6000 X48.076 Y87.868
G1 F1500 E17.12624
G1 F600 X47.89 Y87.76 E17.13197
G1 X43.233 Y83.1 E17.30727
G1 X43.233 Y87.867 E17.43411
G1 X48.076 Y87.868 E17.56297
G1 F1500 E14.06297
G0 F6000 X56.129 Y88.266
G1 F1500 E17.56297
G1 F600 X56.129 Y82.055 E17.72823
G1 F586.8 X56.12 Y81.71 E17.73762
G1 F559.4 X56.11 Y81.365 E17.74747
G1 F535.7 X56.1 Y81.237 E17.7513
G1 F524 X56.1 Y80.803 E17.76452
G1 F535.7 X56.11 Y80.675 E17.76835
G1 F559.4 X56.119 Y80.33 E17.77819
G1 F586.8 X56.129 Y79.985 E17.78758
G1 F600 X56.129 Y74.969 E17.92105
G1 X49.994 Y74.969 E18.08429
G1 X55.337 Y80.313 E18.28537
G1 F589.7 X55.491 Y80.553 E18.29309
G1 F570.1 X55.646 Y80.794 E18.30111
G1 F559.4 X55.646 Y81.246 E18.31401
