;FLAVOR:Marlin
;TIME:2112
;Filament used: 0.411037m
;Layer height: 0.16
;MINX:114.214
;MINY:128.648
;MINZ:0.16
;MAXX:168.326
;MAXY:165.947
;MAXZ:10.56
;Generated with Cura_SteamEngine main
M82 ;absolute extrusion mode
; Ender 3 Custom Start G-code
G92 E0 ; Reset Extruder
G28 ; Home all axes
M104 S120 ; Start heating up the nozzle most of the way
M190 S68.0 ; Start heating the bed, wait until target temperature reached
M109 S248.0 ; Finish heating the nozzle
G1 Z2.0 F3000 ; Move Z Axis up little to prevent scratching of Heat Bed
G1 X0.1 Y20 Z0.3 F5000.0 ; Move to start position
G1 X0.1 Y200.0 Z0.3 F1500.0 E15 ; Draw the first line
G1 X0.4 Y200.0 Z0.3 F5000.0 ; Move to side a little
G1 X0.4 Y20 Z0.3 F1500.0 E30 ; Draw the second line
G92 E0 ; Reset Extruder
G1 Z2.0 F3000 ; Move Z Axis up little to prevent scratching of Heat Bed
G1 X5 Y20 Z0.3 F5000.0 ; Move over to prevent blob squish
G92 E0
G92 E0
G1 F1500 E-6.5
;LAYER_COUNT:66
;LAYER:0
M107
G0 F6000 X118.9 Y132.355 Z0.16
G0 X114.998 Y139.798
;TYPE:SKIRT
G1 F1500 E0
G1 F600 X115.201 Y138.718 E0.02924
G1 X115.413 Y137.805 E0.05418
G1 X115.702 Y136.912 E0.07915
G1 X116.066 Y136.048 E0.1041
G1 X116.503 Y135.218 E0.12906
G1 X117.008 Y134.428 E0.15401
G1 X117.579 Y133.684 E0.17896
G1 X118.211 Y132.991 E0.20392
G1 X118.9 Y132.355 E0.22887
G1 X119.641 Y131.78 E0.25382
G1 X120.428 Y131.27 E0.27878
G1 X121.256 Y130.828 E0.30375
G1 X122.118 Y130.459 E0.3287
G1 X123.008 Y130.165 E0.35364
G1 X124.136 Y129.908 E0.38442
G1 X125.255 Y129.714 E0.41464
G1 X128.345 Y129.13 E0.49832
G1 X129.534 Y128.885 E0.53062
G1 X130.46 Y128.735 E0.55558
G1 X131.569 Y128.661 E0.58515
G1 X132.288 Y128.65 E0.60429
G1 X145.442 Y128.648 E0.95429
G1 X146.305 Y128.659 E0.97725
G1 X147.241 Y128.712 E1.0022
G1 X148.17 Y128.845 E1.02717
G1 X149.084 Y129.057 E1.05214
G1 X149.648 Y129.229 E1.06782
G1 X151.267 Y129.767 E1.11322
G1 X151.737 Y129.931 E1.12646
G1 X154.135 Y130.69 E1.19339
G1 X156.589 Y131.391 E1.2613
G1 X158.671 Y131.927 E1.3185
G1 X159.736 Y132.189 E1.34769
G1 X160.636 Y132.451 E1.37263
G1 X161.511 Y132.789 E1.39759
G1 X162.354 Y133.201 E1.42255
G1 X163.433 Y133.869 E1.45632
G1 X163.648 Y134.02 E1.46331
G1 X164.392 Y134.592 E1.48828
G1 X165.084 Y135.224 E1.51322
G1 X165.72 Y135.913 E1.53817
G1 X166.295 Y136.654 E1.56312
G1 X166.805 Y137.441 E1.58808
G1 X167.246 Y138.269 E1.61304
G1 X167.615 Y139.132 E1.63801
G1 X167.909 Y140.022 E1.66295
G1 X168.126 Y140.935 E1.68792
G1 X168.265 Y141.862 E1.71286
G1 X168.326 Y143.022 E1.74377
G1 X168.326 Y143.492 E1.75628
G1 X168.286 Y144.429 E1.78123
G1 X168.233 Y144.916 E1.79427
G1 X168.136 Y145.654 E1.81407
G1 X167.926 Y147.102 E1.853
G1 X167.638 Y149.579 E1.91935
G1 X167.387 Y152.466 E1.99646
G1 X167.299 Y153.71 E2.02965
G1 X167.193 Y154.642 E2.0546
G1 X167.008 Y155.561 E2.07955
G1 X166.745 Y156.462 E2.10452
G1 X166.406 Y157.336 E2.12947
G1 X165.994 Y158.179 E2.15443
G1 X165.512 Y158.983 E2.17937
G1 X164.963 Y159.744 E2.20434
G1 X164.351 Y160.454 E2.22928
G1 X163.681 Y161.111 E2.25425
G1 X162.957 Y161.707 E2.2792
G1 X162.185 Y162.24 E2.30417
G1 X161.371 Y162.705 E2.32911
G1 X160.52 Y163.099 E2.35406
G1 X159.639 Y163.42 E2.37901
G1 X158.733 Y163.664 E2.40398
G1 X158.042 Y163.795 E2.42269
G1 X155.47 Y164.201 E2.49197
G1 X153.019 Y164.66 E2.55832
G1 X150.501 Y165.204 E2.62687
G1 X148.653 Y165.641 E2.6774
G1 X147.732 Y165.818 E2.70235
G1 X146.8 Y165.916 E2.72729
G1 X146.294 Y165.936 E2.74076
G1 X145.603 Y165.947 E2.75915
G1 X132.25 Y165.946 E3.11445
G1 X131.549 Y165.935 E3.1331
G1 X130.613 Y165.88 E3.15805
G1 X129.685 Y165.746 E3.183
G1 X128.949 Y165.581 E3.20307
G1 X126.193 Y164.863 E3.27885
G1 X123.597 Y164.267 E3.34972
G1 X122.923 Y164.123 E3.36806
G1 X122.015 Y163.888 E3.39302
G1 X121.131 Y163.576 E3.41796
G1 X120.276 Y163.19 E3.44292
G1 X119.457 Y162.733 E3.46788
G1 X118.68 Y162.208 E3.49283
G1 X117.951 Y161.618 E3.51778
G1 X117.274 Y160.969 E3.54273
G1 X116.655 Y160.264 E3.5677
G1 X116.099 Y159.509 E3.59265
G1 X115.609 Y158.709 E3.61761
G1 X115.189 Y157.871 E3.64255
G1 X114.841 Y157 E3.66751
G1 X114.57 Y156.102 E3.69247
G1 X114.375 Y155.184 E3.71744
G1 X114.26 Y154.254 E3.74237
G1 X114.229 Y153.689 E3.75743
G1 X114.214 Y153.026 E3.77507
G1 X114.215 Y145.273 E3.98137
G1 X114.226 Y144.567 E4.00015
G1 X114.281 Y143.63 E4.02513
G1 X114.441 Y142.571 E4.05363
G1 X114.998 Y139.798 E4.12888
G1 F1500 E-2.37112
G0 F6000 X115.015 Y145.285
G1 F1500 E4.12888
G1 F600 X115.026 Y144.579 E4.14767
G1 X115.08 Y143.678 E4.17169
G1 X115.225 Y142.728 E4.19726
G1 X115.79 Y139.915 E4.2736
G1 X115.987 Y138.866 E4.302
G1 X116.193 Y137.986 E4.32605
G1 X116.475 Y137.129 E4.35006
G1 X116.833 Y136.299 E4.37411
G1 X117.262 Y135.505 E4.39812
G1 X117.76 Y134.751 E4.42216
G1 X118.323 Y134.045 E4.44619
G1 X118.946 Y133.391 E4.47022
G1 X119.624 Y132.795 E4.49424
G1 X120.353 Y132.261 E4.51829
G1 X121.125 Y131.794 E4.5423
G1 X121.937 Y131.397 E4.56635
G1 X122.78 Y131.073 E4.59038
G1 X123.648 Y130.825 E4.6144
G1 X124.272 Y130.696 E4.63135
G1 X125.408 Y130.499 E4.66203
G1 X128.533 Y129.908 E4.74665
G1 X129.695 Y129.669 E4.77822
G1 X130.587 Y129.526 E4.80226
G1 X131.582 Y129.46 E4.82879
G1 X132.119 Y129.451 E4.84308
G1 X145.442 Y129.448 E5.19758
G1 X146.294 Y129.459 E5.22025
G1 X147.195 Y129.512 E5.24427
G1 X148.089 Y129.644 E5.26831
G1 X149.394 Y129.988 E5.30422
G1 X150.801 Y130.46 E5.34371
G1 X151.004 Y130.522 E5.34936
G1 X151.503 Y130.696 E5.36342
G1 X153.926 Y131.464 E5.43105
G1 X156.363 Y132.159 E5.49848
G1 X158.453 Y132.698 E5.55591
G1 X159.545 Y132.966 E5.58583
G1 X160.411 Y133.22 E5.60984
G1 X161.252 Y133.549 E5.63387
G1 X162.06 Y133.952 E5.6579
G1 X162.973 Y134.524 E5.68657
G1 X163.188 Y134.675 E5.69356
G1 X163.904 Y135.226 E5.7176
G1 X164.567 Y135.839 E5.74162
G1 X165.174 Y136.507 E5.76564
G1 X165.72 Y137.227 E5.78968
G1 X166.2 Y137.992 E5.81371
G1 X166.61 Y138.797 E5.83775
G1 X166.947 Y139.635 E5.86178
G1 X167.209 Y140.499 E5.88581
G1 X167.393 Y141.383 E5.90983
G1 X167.499 Y142.28 E5.93386
G1 X167.526 Y143.022 E5.95362
G1 X167.526 Y143.492 E5.96613
G1 X167.44 Y144.813 E6.00135
G1 X167.344 Y145.539 E6.02084
G1 X167.137 Y146.967 E6.05923
G1 X166.84 Y149.516 E6.12751
G1 X166.59 Y152.402 E6.20459
G1 X166.501 Y153.654 E6.23799
G1 X166.397 Y154.551 E6.26202
G1 X166.215 Y155.435 E6.28603
G1 X165.954 Y156.3 E6.31007
G1 X165.618 Y157.138 E6.33409
G1 X165.21 Y157.944 E6.35813
G1 X164.732 Y158.71 E6.38216
G1 X164.187 Y159.43 E6.40618
G1 X163.582 Y160.1 E6.4302
G1 X162.919 Y160.714 E6.45425
G1 X162.205 Y161.266 E6.47826
G1 X161.444 Y161.753 E6.5023
G1 X160.644 Y162.172 E6.52633
G1 X159.809 Y162.517 E6.55037
G1 X158.948 Y162.788 E6.57439
G1 X157.917 Y163.005 E6.60242
G1 X155.341 Y163.412 E6.67182
G1 X152.846 Y163.878 E6.73935
G1 X150.353 Y164.417 E6.80722
G1 X148.469 Y164.863 E6.85873
G1 X147.582 Y165.032 E6.88276
G1 X146.281 Y165.136 E6.91749
G1 X145.59 Y165.147 E6.93587
G1 X132.263 Y165.146 E7.29048
G1 X131.562 Y165.135 E7.30914
G1 X130.66 Y165.081 E7.33318
G1 X129.767 Y164.947 E7.35721
G1 X129.15 Y164.807 E7.37404
G1 X126.395 Y164.089 E7.44979
G1 X123.67 Y163.464 E7.52418
G1 X123.091 Y163.34 E7.53994
G1 X122.217 Y163.113 E7.56397
G1 X121.366 Y162.808 E7.58802
G1 X120.546 Y162.43 E7.61205
G1 X119.763 Y161.981 E7.63606
G1 X119.022 Y161.464 E7.6601
G1 X118.33 Y160.884 E7.68413
G1 X117.692 Y160.245 E7.70816
G1 X117.113 Y159.551 E7.7322
G1 X116.598 Y158.81 E7.75621
G1 X116.15 Y158.025 E7.78026
G1 X115.774 Y157.205 E7.80427
G1 X115.471 Y156.354 E7.8283
G1 X115.245 Y155.479 E7.85235
G1 X115.097 Y154.588 E7.87638
G1 X115.028 Y153.666 E7.90098
G1 X115.014 Y153.026 E7.91802
G1 X115.015 Y145.285 E8.12399
G0 F6000 X114.615 Y145.279
G1 F600 X114.626 Y144.573 E8.14278
G1 X114.681 Y143.654 E8.16727
G1 X114.833 Y142.649 E8.19432
G1 X115.394 Y139.857 E8.27009
G1 X115.594 Y138.792 E8.29893
G1 X115.803 Y137.895 E8.32343
G1 X116.089 Y137.02 E8.34793
G1 X116.45 Y136.173 E8.37243
G1 X116.883 Y135.361 E8.39691
G1 X117.384 Y134.589 E8.4214
G1 X117.951 Y133.863 E8.44591
G1 X118.579 Y133.19 E8.4704
G1 X119.263 Y132.573 E8.49491
G1 X119.997 Y132.019 E8.51938
G1 X120.778 Y131.53 E8.5439
G1 X121.597 Y131.11 E8.56839
G1 X122.45 Y130.763 E8.59289
G1 X123.33 Y130.492 E8.61739
G1 X124.204 Y130.302 E8.64119
G1 X125.331 Y130.107 E8.67163
G1 X128.445 Y129.518 E8.75595
G1 X129.615 Y129.277 E8.78774
G1 X130.524 Y129.131 E8.81224
G1 X131.575 Y129.06 E8.84026
G1 X132.112 Y129.051 E8.85455
G1 X145.442 Y129.048 E9.20924
G1 X146.299 Y129.059 E9.23205
G1 X147.218 Y129.112 E9.25654
G1 X148.13 Y129.245 E9.28106
G1 X149.026 Y129.456 E9.30556
G1 X149.521 Y129.609 E9.31934
G1 X150.993 Y130.103 E9.36066
G1 X151.135 Y130.144 E9.36459
G1 X151.653 Y130.324 E9.37918
G1 X154.01 Y131.071 E9.44497
G1 X156.494 Y131.78 E9.5137
G1 X158.489 Y132.294 E9.56852
G1 X159.64 Y132.577 E9.60006
G1 X160.524 Y132.835 E9.62456
G1 X161.382 Y133.169 E9.64906
G1 X162.208 Y133.577 E9.67357
G1 X163.203 Y134.197 E9.70477
G1 X163.418 Y134.348 E9.71176
G1 X164.148 Y134.909 E9.73625
G1 X164.826 Y135.532 E9.76075
G1 X165.448 Y136.211 E9.78526
G1 X166.008 Y136.941 E9.80974
G1 X166.503 Y137.717 E9.83423
G1 X166.929 Y138.534 E9.85874
G1 X167.282 Y139.384 E9.88323
G1 X167.56 Y140.262 E9.90774
G1 X167.761 Y141.16 E9.93222
G1 X167.883 Y142.072 E9.95671
G1 X167.926 Y143.022 E9.98201
G1 X167.926 Y143.492 E9.99452
G1 X167.837 Y144.865 E10.03113
G1 X167.761 Y145.447 E10.04674
G1 X167.532 Y147.03 E10.0893
G1 X167.237 Y149.565 E10.15721
G1 X166.991 Y152.404 E10.23303
G1 X166.9 Y153.682 E10.26712
G1 X166.795 Y154.597 E10.29163
G1 X166.611 Y155.499 E10.31613
G1 X166.349 Y156.381 E10.34061
G1 X166.012 Y157.238 E10.36511
G1 X165.602 Y158.062 E10.3896
G1 X165.122 Y158.847 E10.41408
G1 X164.575 Y159.588 E10.43859
G1 X163.966 Y160.279 E10.4631
G1 X163.3 Y160.914 E10.48758
G1 X162.58 Y161.489 E10.5121
G1 X161.814 Y161.999 E10.53658
G1 X161.007 Y162.441 E10.56107
G1 X160.164 Y162.811 E10.58556
G1 X159.292 Y163.107 E10.61007
G1 X157.98 Y163.4 E10.64584
G1 X155.406 Y163.806 E10.71517
G1 X152.933 Y164.269 E10.78212
G1 X150.422 Y164.811 E10.85047
G1 X148.561 Y165.252 E10.90136
G1 X147.657 Y165.425 E10.92585
G1 X146.288 Y165.536 E10.96239
G1 X145.597 Y165.547 E10.98078
G1 X132.257 Y165.546 E11.33573
G1 X131.556 Y165.535 E11.35439
G1 X130.637 Y165.48 E11.37889
G1 X129.726 Y165.346 E11.40339
G1 X129.05 Y165.194 E11.42182
G1 X126.278 Y164.472 E11.49804
G1 X123.705 Y163.881 E11.56829
G1 X123.007 Y163.732 E11.58728
G1 X122.116 Y163.5 E11.61178
G1 X121.248 Y163.192 E11.63628
G1 X120.411 Y162.81 E11.66076
G1 X119.609 Y162.357 E11.68527
G1 X118.85 Y161.836 E11.70977
G1 X118.139 Y161.251 E11.73427
G1 X117.482 Y160.606 E11.75876
G1 X116.883 Y159.907 E11.78326
G1 X116.347 Y159.159 E11.80774
G1 X115.878 Y158.367 E11.83224
G1 X115.479 Y157.537 E11.85674
G1 X115.154 Y156.675 E11.88125
G1 X114.905 Y155.789 E11.90574
G1 X114.733 Y154.884 E11.93025
G1 X114.629 Y153.678 E11.96246
G1 X114.614 Y153.026 E11.97981
G1 X114.615 Y145.279 E12.18595
G1 F1500 E5.68595
;MESH:void_switch-v17.stl
G0 F6000 X126.212 Y146.395
;TYPE:WALL-INNER
G1 F1500 E12.18595
G1 F600 X126.595 Y146.267 E12.19669
G1 X128.562 Y146.267 E12.24903
G1 X128.942 Y146.393 E12.25968
G1 X128.942 Y145.188 E12.29174
G1 X128.712 Y145.134 E12.29803
G1 X128.53 Y145.005 E12.30397
G1 X128.348 Y145.134 E12.3099
G1 X128.036 Y145.237 E12.31864
G1 X126.944 Y145.237 E12.3477
G1 X126.687 Y145.15 E12.35492
G1 X126.55 Y145.061 E12.35927
G1 X126.413 Y145.15 E12.36361
G1 X126.215 Y145.192 E12.369
G1 X126.212 Y146.395 E12.40101
G0 F6000 X126.749 Y145.732
G1 F369.8 X127.097 Y145.752 E12.41606
G1 F381 X127.905 Y145.752 E12.44992
G1 F374.4 X128.168 Y145.741 E12.46114
G1 F352.9 X128.388 Y145.713 E12.47117
G1 F1500 E5.97117
G0 F6000 X125.905 Y147.267
G1 F1500 E12.47117
G1 F448.6 X126.069 Y147.027 E12.48152
G1 F539.3 X126.233 Y146.787 E12.49012
G1 F600 X126.595 Y146.667 E12.50027
G1 X128.562 Y146.667 E12.55261
G1 X128.923 Y146.786 E12.56272
G1 F539.3 X129.087 Y147.026 E12.57133
G1 F448.6 X129.252 Y147.267 E12.58172
G1 X129.297 Y146.922 E12.5941
G1 F539.3 X129.342 Y146.577 E12.6044
G1 F600 X129.342 Y144.901 E12.649
G1 X129.305 Y144.837 E12.65097
G1 X129.155 Y144.837 E12.65496
G1 X128.889 Y144.775 E12.66222
G1 X128.733 Y144.665 E12.6673
G1 F562.1 X128.53 Y144.291 E12.67939
G1 X128.327 Y144.665 E12.69148
G1 F600 X128.171 Y144.775 E12.69656
G1 X127.985 Y144.837 E12.70177
G1 X127.004 Y144.837 E12.72788
G1 X126.695 Y144.684 E12.73705
G1 X126.55 Y144.389 E12.7458
G1 X126.404 Y144.684 E12.75456
G1 X126.249 Y144.785 E12.75948
G1 X126.002 Y144.837 E12.76619
G1 X125.851 Y144.837 E12.77021
G1 X125.814 Y144.901 E12.77218
G1 X125.812 Y146.577 E12.81677
G1 F539.3 X125.858 Y146.922 E12.82708
G1 F448.6 X125.905 Y147.267 E12.83947
G1 F1500 E6.33947
G0 F6000 X125.415 Y153.173
;TYPE:WALL-OUTER
G1 F1500 E12.83947
G1 F600 X126.395 Y153.172 E12.86554
G1 X126.395 Y147.267 E13.02267
G1 X126.474 Y147.107 E13.02741
G1 X126.595 Y147.067 E13.0308
G1 X128.562 Y147.067 E13.08314
G1 X128.683 Y147.106 E13.08653
G1 X128.762 Y147.267 E13.0913
G1 X128.762 Y153.172 E13.24842
G1 X129.742 Y153.172 E13.27449
G1 X129.742 Y144.793 E13.49744
G1 X129.535 Y144.437 E13.5084
G1 X129.155 Y144.437 E13.51851
G1 X129.014 Y144.38 E13.52256
G1 X128.955 Y144.255 E13.52624
G1 X128.954 Y140.937 E13.61452
G1 X128.105 Y140.937 E13.63711
G1 X128.105 Y144.255 E13.7254
G1 X128.046 Y144.38 E13.72908
G1 X127.94 Y144.435 E13.73225
G1 X127.036 Y144.437 E13.75631
G1 F505.3 X126.823 Y144.261 E13.76504
G1 F437.2 X126.823 Y142.635 E13.82442
G1 F438.8 X126.823 Y141.009 E13.88358
G1 X126.276 Y141.01 E13.90349
G1 X126.276 Y142.636 E13.96265
G1 F437.2 X126.276 Y144.262 E14.02203
G1 F505.3 X126.065 Y144.437 E14.03069
G1 F600 X125.621 Y144.437 E14.04251
G1 X125.414 Y144.793 E14.05347
G1 X125.415 Y153.173 E14.27644
G0 F6000 X125.905 Y152.682
;TYPE:WALL-INNER
G1 F413.8 X125.905 Y147.267 E14.48536
G1 F1500 E7.98536
G0 F6000 X129.252 Y147.267
G1 F1500 E14.48536
G1 F413.8 X129.252 Y152.682 E14.69428
G1 F1500 E8.19428
G0 F6000 X128.53 Y144.291
G1 F1500 E14.69428
G1 F529.8 X128.53 Y142.826 E14.73843
G1 F532.2 X128.53 Y141.361 E14.78238
G1 F1500 E8.28238
G0 F6000 X132.354 Y141.622
G1 F1500 E14.78238
G1 F452.8 X133.26 Y140.716 E14.82755
G1 X132.355 Y140.716 E14.85946
G1 X132.354 Y141.622 E14.8914
G1 F1500 E8.3914
G0 F6000 X131.918 Y146.671
G1 F1500 E14.8914
G1 F495.9 X131.994 Y146.432 E14.89947
G1 F454.5 X132.071 Y146.193 E14.90829
G1 F435.6 X132.631 Y145.631 E14.93737
G1 F449.4 X132.369 Y145.369 E14.95053
G1 F546.7 X132.226 Y144.942 E14.96368
G1 F666.7 X132.224 Y143.813 E14.99072
G1 F674.2 X132.222 Y142.684 E15.01746
G1 F636.6 X132.374 Y142.259 E15.02878
G1 F600 X133.9 Y140.733 E15.0862
G1 F631.6 X134.225 Y140.586 E15.09521
G1 F670.4 X135.354 Y140.584 E15.1221
G1 F676.1 X136.483 Y140.581 E15.14876
G1 F609.1 X136.743 Y140.651 E15.15582
G1 F504.2 X137.003 Y140.722 E15.16435
G1 F449.4 X137.272 Y140.99 E15.17784
G1 F434.8 X137.834 Y140.429 E15.207
G1 F470.6 X138.203 Y140.283 E15.22046
G1 X137.791 Y140.325 E15.23451
G1 F434.8 X137.272 Y140.325 E15.25357
G1 F464.2 X137.107 Y140.291 E15.25936
G1 F533.3 X136.795 Y140.259 E15.26875
G1 F621.8 X136.483 Y140.227 E15.2768
G1 F676.1 X135.338 Y140.228 E15.30384
G1 F670.4 X134.193 Y140.229 E15.33111
G1 F631.6 X133.7 Y140.25 E15.34358
G1 F600 X131.889 Y140.25 E15.39177
G1 X131.889 Y142.058 E15.43988
G1 F618.6 X131.878 Y142.371 E15.44796
G1 F655.7 X131.866 Y142.684 E15.45559
G1 F674.2 X131.866 Y143.447 E15.47366
G1 F670.4 X131.867 Y144.21 E15.49183
G1 F666.7 X131.868 Y144.973 E15.5101
G1 F568.7 X131.931 Y145.466 E15.52405
G1 F464.2 X131.965 Y145.631 E15.52984
G1 F435.6 X131.964 Y146.149 E15.54883
G1 F454.5 X131.941 Y146.41 E15.55803
G1 F495.9 X131.918 Y146.671 E15.56647
G1 F1500 E9.06647
G0 F6000 X132.688 Y153.547
G1 F1500 E15.56647
G1 F600 X137.532 Y153.547 E15.69536
G1 X137.321 Y153.425 E15.70184
G1 X132.689 Y148.792 E15.87616
G1 X132.688 Y153.547 E16.00268
G1 F1500 E9.50268
G0 F6000 X139.092 Y153.547
G1 F1500 E16.00268
G1 F600 X145.186 Y153.548 E16.16483
G1 X145.186 Y147.456 E16.32693
G1 X145.065 Y147.661 E16.33326
G1 X142.449 Y150.279 E16.43174
G1 X142.097 Y150.457 E16.44224
G1 X141.92 Y150.805 E16.45263
