;FLAVOR:Marlin
;TIME:2379
;Filament used: 0.507213m
;Layer height: 0.16
;MINX:76.597
;MINY:91.502
;MINZ:0.16
;MAXX:142.798
;MAXY:128.498
;MAXZ:10.56
;Generated with Cura_SteamEngine main
M82 ;absolute extrusion mode
; Ender 3 Custom Start G-code
G92 E0 ; Reset Extruder
G28 ; Home all axes
M104 S120 ; Start heating up the nozzle most of the way
M190 S68.0 ; Start heating the bed, wait until target temperature reached
M109 S248.0 ; Finish heating the nozzle
G1 Z2.0 F3000 ; Move Z Axis up little to prevent scratching of Heat Bed
G1 X0.1 Y20 Z0.3 F5000.0 ; Move to start position
G1 X0.1 Y200.0 Z0.3 F1500.0 E15 ; Draw the first line
G1 X0.4 Y200.0 Z0.3 F5000.0 ; Move to side a little
G1 X0.4 Y20 Z0.3 F1500.0 E30 ; Draw the second line
G92 E0 ; Reset Extruder
G1 Z2.0 F3000 ; Move Z Axis up little to prevent scratching of Heat Bed
G1 X5 Y20 Z0.3 F5000.0 ; Move over to prevent blob squish
G92 E0
G92 E0
G1 F1500 E-3.5
;LAYER_COUNT:66
;LAYER:0
M107
G0 F6000 X80.496 Y95.026 Z0.16
G0 X76.597 Y103.916
;TYPE:SKIRT
G1 F1500 E0
G1 F600 X76.607 Y103.253 E0.01764
G1 X76.661 Y102.317 E0.04259
G1 X76.795 Y101.389 E0.06754
G1 X77.007 Y100.475 E0.0925
G1 X77.297 Y99.583 E0.11746
G1 X77.661 Y98.719 E0.14241
G1 X78.097 Y97.889 E0.16735
G1 X78.603 Y97.099 E0.19232
G1 X79.174 Y96.355 E0.21727
G1 X79.807 Y95.662 E0.24224
G1 X80.496 Y95.026 E0.26719
G1 X81.236 Y94.451 E0.29213
G1 X82.024 Y93.941 E0.31711
G1 X82.851 Y93.5 E0.34204
G1 X83.713 Y93.131 E0.36699
G1 X84.604 Y92.837 E0.39196
G1 X85.516 Y92.619 E0.41691
G1 X86.444 Y92.481 E0.44187
G1 X87.297 Y92.423 E0.46462
G1 X87.953 Y92.41 E0.48208
G1 X90.381 Y92.416 E0.54668
G1 X94.441 Y92.41 E0.65471
G1 X96.933 Y92.339 E0.72105
G1 X99.451 Y92.195 E0.78816
G1 X101.968 Y91.98 E0.85537
G1 X104.001 Y91.752 E0.90981
G1 X105.324 Y91.592 E0.94526
G1 X106.443 Y91.514 E0.97511
G1 X107.185 Y91.502 E0.99486
G1 X120.063 Y91.504 E1.33752
G1 X120.976 Y91.519 E1.36181
G1 X121.912 Y91.576 E1.38676
G1 X122.84 Y91.712 E1.41172
G1 X123.937 Y91.981 E1.44177
G1 X124.546 Y92.164 E1.45869
G1 X127.019 Y92.866 E1.5271
G1 X129.441 Y93.48 E1.59358
G1 X131.966 Y94.046 E1.66243
G1 X133.729 Y94.396 E1.71026
G1 X134.64 Y94.618 E1.73521
G1 X135.53 Y94.916 E1.76018
G1 X136.39 Y95.289 E1.78512
G1 X137.215 Y95.735 E1.81008
G1 X138 Y96.249 E1.83504
G1 X138.738 Y96.827 E1.85999
G1 X139.609 Y97.659 E1.89204
G1 X139.821 Y97.885 E1.90028
G1 X140.433 Y98.596 E1.92524
G1 X140.982 Y99.356 E1.95019
G1 X141.464 Y100.161 E1.97515
G1 X141.876 Y101.003 E2.0001
G1 X142.215 Y101.878 E2.02507
G1 X142.478 Y102.778 E2.05001
G1 X142.664 Y103.697 E2.07496
G1 X142.77 Y104.629 E2.09992
G1 X142.798 Y105.411 E2.12074
G1 X142.798 Y105.765 E2.13016
G1 X142.758 Y106.702 E2.15512
G1 X142.702 Y107.213 E2.16879
G1 X142.545 Y108.383 E2.20021
G1 X142.475 Y108.849 E2.21274
G1 X142.171 Y111.375 E2.28044
G1 X141.942 Y113.862 E2.34689
G1 X141.88 Y114.88 E2.37403
G1 X141.772 Y116.4 E2.41458
G1 X141.666 Y117.332 E2.43954
G1 X141.481 Y118.251 E2.46448
G1 X141.218 Y119.151 E2.48943
G1 X140.88 Y120.026 E2.51439
G1 X140.468 Y120.868 E2.53933
G1 X139.986 Y121.673 E2.5643
G1 X139.437 Y122.433 E2.58924
G1 X138.825 Y123.144 E2.6142
G1 X138.155 Y123.801 E2.63917
G1 X137.431 Y124.397 E2.66412
G1 X136.66 Y124.93 E2.68906
G1 X135.845 Y125.396 E2.71404
G1 X134.994 Y125.79 E2.739
G1 X134.113 Y126.11 E2.76394
G1 X133.207 Y126.354 E2.7889
G1 X132.356 Y126.51 E2.81192
G1 X131.437 Y126.641 E2.83662
G1 X128.856 Y127.048 E2.90615
G1 X126.393 Y127.508 E2.97282
G1 X123.103 Y128.231 E3.06245
G1 X122.18 Y128.394 E3.08739
G1 X120.948 Y128.486 E3.12026
G1 X120.208 Y128.498 E3.13995
G1 X107.172 Y128.495 E3.48681
G1 X106.485 Y128.485 E3.5051
G1 X105.72 Y128.447 E3.52548
G1 X103.11 Y128.227 E3.59517
G1 X100.635 Y128.086 E3.66113
G1 X98.002 Y128.012 E3.73122
G1 X95.517 Y127.972 E3.79735
G1 X92.914 Y127.974 E3.86661
G1 X91.198 Y128.01 E3.91228
G1 X88.933 Y128.009 E3.97255
G1 X88.235 Y127.999 E3.99112
G1 X87.299 Y127.945 E4.01607
G1 X86.371 Y127.813 E4.04101
G1 X85.457 Y127.601 E4.06597
G1 X84.565 Y127.312 E4.09092
G1 X83.7 Y126.949 E4.11588
G1 X82.87 Y126.513 E4.14083
G1 X82.079 Y126.008 E4.1658
G1 X81.335 Y125.437 E4.19075
G1 X80.642 Y124.805 E4.21571
G1 X80.005 Y124.117 E4.24066
G1 X79.43 Y123.376 E4.26561
G1 X78.919 Y122.59 E4.29056
G1 X78.477 Y121.762 E4.31553
G1 X78.108 Y120.9 E4.34048
G1 X77.813 Y120.01 E4.36543
G1 X77.611 Y119.181 E4.38814
G1 X77.489 Y118.571 E4.40469
G1 X77.169 Y116.853 E4.45119
G1 X77.017 Y116.153 E4.47025
G1 X76.829 Y115.21 E4.49583
G1 X76.686 Y114.283 E4.52079
G1 X76.621 Y113.303 E4.54692
G1 X76.598 Y112.21 E4.57601
G1 X76.597 Y103.916 E4.7967
G0 F6000 X76.997 Y103.922
G1 F600 X77.007 Y103.259 E4.81434
G1 X77.061 Y102.34 E4.83884
G1 X77.194 Y101.429 E4.86333
G1 X77.406 Y100.533 E4.88783
G1 X77.695 Y99.659 E4.91233
G1 X78.059 Y98.813 E4.93683
G1 X78.495 Y98.002 E4.96133
G1 X78.999 Y97.232 E4.98582
G1 X79.568 Y96.509 E5.0103
G1 X80.198 Y95.837 E5.03481
G1 X80.884 Y95.223 E5.05931
G1 X81.621 Y94.671 E5.08381
G1 X82.402 Y94.184 E5.1083
G1 X83.223 Y93.767 E5.1328
G1 X84.077 Y93.424 E5.15729
G1 X84.958 Y93.155 E5.1818
G1 X85.859 Y92.964 E5.2063
G1 X86.772 Y92.852 E5.23078
G1 X87.308 Y92.823 E5.24506
G1 X87.952 Y92.81 E5.2622
G1 X90.381 Y92.816 E5.32683
G1 X94.416 Y92.81 E5.4342
G1 X96.966 Y92.737 E5.50207
G1 X99.509 Y92.592 E5.56985
G1 X102.007 Y92.379 E5.63656
G1 X104.003 Y92.155 E5.69
G1 X105.373 Y91.989 E5.72672
G1 X106.451 Y91.914 E5.75547
G1 X107.185 Y91.902 E5.77501
G1 X120.063 Y91.904 E6.11766
G1 X120.969 Y91.919 E6.14177
G1 X121.888 Y91.975 E6.16627
G1 X122.798 Y92.112 E6.19076
G1 X123.822 Y92.364 E6.21882
G1 X124.387 Y92.533 E6.23451
G1 X126.917 Y93.252 E6.30449
G1 X129.396 Y93.88 E6.37254
G1 X131.848 Y94.43 E6.4394
G1 X133.651 Y94.788 E6.48832
G1 X134.546 Y95.007 E6.51283
G1 X135.418 Y95.302 E6.53733
G1 X136.261 Y95.672 E6.56182
G1 X137.069 Y96.113 E6.58632
G1 X137.835 Y96.623 E6.6108
G1 X138.555 Y97.198 E6.63532
G1 X139.317 Y97.933 E6.66349
G1 X139.529 Y98.159 E6.67173
G1 X140.129 Y98.857 E6.69623
G1 X140.666 Y99.605 E6.72073
G1 X141.137 Y100.396 E6.74522
G1 X141.537 Y101.225 E6.76971
G1 X141.863 Y102.086 E6.79421
G1 X142.114 Y102.972 E6.81871
G1 X142.286 Y103.876 E6.8432
G1 X142.38 Y104.792 E6.8677
G1 X142.398 Y105.411 E6.88418
G1 X142.398 Y105.765 E6.8936
G1 X142.358 Y106.685 E6.9181
G1 X142.306 Y107.16 E6.93081
G1 X142.174 Y108.154 E6.95749
G1 X142.077 Y108.814 E6.97524
G1 X141.774 Y111.326 E7.04257
G1 X141.54 Y113.866 E7.11044
G1 X141.473 Y114.962 E7.13965
G1 X141.373 Y116.371 E7.17724
G1 X141.268 Y117.286 E7.20175
G1 X141.084 Y118.188 E7.22624
G1 X140.823 Y119.071 E7.25074
G1 X140.486 Y119.928 E7.27524
G1 X140.076 Y120.752 E7.29973
G1 X139.595 Y121.537 E7.32423
G1 X139.049 Y122.278 E7.34872
G1 X138.44 Y122.969 E7.37323
G1 X137.774 Y123.604 E7.39771
G1 X137.055 Y124.179 E7.42221
G1 X136.288 Y124.689 E7.44672
G1 X135.481 Y125.132 E7.47121
G1 X134.638 Y125.502 E7.49571
G1 X133.766 Y125.798 E7.52021
G1 X132.872 Y126.017 E7.5447
G1 X132.299 Y126.114 E7.56017
G1 X131.395 Y126.243 E7.58446
G1 X128.786 Y126.654 E7.65474
G1 X126.33 Y127.112 E7.72122
G1 X123.017 Y127.841 E7.81148
G1 X122.11 Y127.999 E7.83598
G1 X120.941 Y128.086 E7.86717
G1 X120.208 Y128.098 E7.88667
G1 X107.178 Y128.095 E8.23338
G1 X106.491 Y128.085 E8.25166
G1 X105.753 Y128.048 E8.27132
G1 X103.165 Y127.83 E8.34042
G1 X100.633 Y127.686 E8.40791
G1 X98.02 Y127.612 E8.47746
G1 X95.522 Y127.572 E8.54394
G1 X92.905 Y127.574 E8.61357
G1 X91.198 Y127.61 E8.659
G1 X88.939 Y127.609 E8.71911
G1 X88.241 Y127.599 E8.73768
G1 X87.322 Y127.546 E8.76217
G1 X86.411 Y127.413 E8.78667
G1 X85.515 Y127.202 E8.81116
G1 X84.641 Y126.914 E8.83565
G1 X83.794 Y126.551 E8.86017
G1 X82.983 Y126.116 E8.88466
G1 X82.213 Y125.612 E8.90914
G1 X81.489 Y125.043 E8.93365
G1 X80.817 Y124.413 E8.95816
G1 X80.202 Y123.728 E8.98265
G1 X79.649 Y122.992 E9.00715
G1 X79.162 Y122.211 E9.03164
G1 X78.745 Y121.39 E9.05614
G1 X78.4 Y120.536 E9.08064
G1 X78.131 Y119.656 E9.10513
G1 X78.003 Y119.101 E9.12028
G1 X77.913 Y118.656 E9.13236
G1 X77.565 Y116.794 E9.18277
G1 X77.37 Y115.884 E9.20753
G1 X77.221 Y115.132 E9.22793
G1 X77.082 Y114.222 E9.25242
G1 X77.021 Y113.295 E9.27714
G1 X76.998 Y112.202 E9.30623
G1 X76.997 Y103.922 E9.52655
G0 F6000 X77.397 Y103.928
G1 F600 X77.407 Y103.265 E9.54419
G1 X77.461 Y102.364 E9.56821
G1 X77.594 Y101.47 E9.59226
G1 X77.805 Y100.592 E9.61628
G1 X78.094 Y99.737 E9.6403
G1 X78.457 Y98.91 E9.66433
G1 X78.892 Y98.118 E9.68837
G1 X79.395 Y97.368 E9.7124
G1 X79.962 Y96.665 E9.73643
G1 X80.589 Y96.016 E9.76044
G1 X81.272 Y95.424 E9.78449
G1 X82.004 Y94.895 E9.80852
G1 X82.78 Y94.433 E9.83255
G1 X83.593 Y94.041 E9.85657
G1 X84.439 Y93.723 E9.88062
G1 X85.309 Y93.481 E9.90465
G1 X86.197 Y93.317 E9.92867
G1 X87.319 Y93.223 E9.95863
G1 X87.951 Y93.21 E9.97545
G1 X90.38 Y93.216 E10.04008
G1 X94.428 Y93.21 E10.14779
G1 X97 Y93.137 E10.21626
G1 X99.495 Y92.994 E10.28275
G1 X102.05 Y92.776 E10.35098
G1 X104.087 Y92.548 E10.40552
G1 X105.421 Y92.386 E10.44128
G1 X106.458 Y92.314 E10.46894
G1 X107.185 Y92.302 E10.48828
G1 X120.063 Y92.304 E10.83094
G1 X120.961 Y92.319 E10.85484
G1 X121.863 Y92.375 E10.87889
G1 X122.756 Y92.511 E10.90292
G1 X123.707 Y92.747 E10.92899
G1 X124.308 Y92.927 E10.94569
G1 X126.814 Y93.639 E11.01501
G1 X129.281 Y94.264 E11.08272
G1 X131.761 Y94.82 E11.15035
G1 X133.573 Y95.18 E11.19951
G1 X134.45 Y95.395 E11.22353
G1 X135.305 Y95.687 E11.24757
G1 X136.131 Y96.053 E11.27161
G1 X136.921 Y96.491 E11.29565
G1 X137.669 Y96.997 E11.31967
G1 X138.369 Y97.567 E11.34369
G1 X139.025 Y98.207 E11.36808
G1 X139.237 Y98.433 E11.37633
G1 X139.825 Y99.118 E11.40035
G1 X140.35 Y99.853 E11.42438
G1 X140.809 Y100.631 E11.44841
G1 X141.196 Y101.447 E11.47245
G1 X141.51 Y102.294 E11.49648
G1 X141.748 Y103.165 E11.52051
G1 X141.907 Y104.054 E11.54454
G1 X141.988 Y104.953 E11.56855
G1 X141.998 Y105.765 E11.59016
G1 X141.909 Y107.108 E11.62597
G1 X141.754 Y108.265 E11.65704
G1 X141.678 Y108.774 E11.67073
G1 X141.376 Y111.279 E11.73786
G1 X141.143 Y113.806 E11.80539
G1 X141.074 Y114.934 E11.83546
G1 X140.974 Y116.343 E11.87304
G1 X140.871 Y117.24 E11.89707
G1 X140.688 Y118.125 E11.92111
G1 X140.428 Y118.989 E11.94512
G1 X140.092 Y119.828 E11.96917
G1 X139.684 Y120.633 E11.99318
G1 X139.205 Y121.399 E12.01722
G1 X138.661 Y122.12 E12.04125
G1 X138.056 Y122.79 E12.06527
G1 X137.393 Y123.404 E12.08932
G1 X136.679 Y123.956 E12.11333
G1 X135.918 Y124.444 E12.13739
G1 X135.118 Y124.862 E12.1614
G1 X134.284 Y125.208 E12.18543
G1 X133.422 Y125.478 E12.20946
G1 X132.242 Y125.718 E12.2415
G1 X131.352 Y125.845 E12.26543
G1 X128.722 Y126.259 E12.33627
G1 X126.231 Y126.724 E12.40369
G1 X122.931 Y127.45 E12.4936
G1 X122.042 Y127.605 E12.51761
G1 X120.933 Y127.686 E12.5472
G1 X120.208 Y127.698 E12.56649
G1 X107.184 Y127.695 E12.91304
G1 X106.497 Y127.685 E12.93132
G1 X105.787 Y127.65 E12.95023
G1 X103.186 Y127.43 E13.01969
G1 X100.632 Y127.286 E13.08775
G1 X98.038 Y127.212 E13.1568
G1 X95.529 Y127.172 E13.22357
G1 X92.896 Y127.174 E13.29363
G1 X91.198 Y127.21 E13.33882
G1 X88.945 Y127.209 E13.39877
G1 X88.247 Y127.199 E13.41734
G1 X87.345 Y127.146 E13.44138
G1 X86.452 Y127.014 E13.4654
G1 X85.574 Y126.803 E13.48943
G1 X84.718 Y126.515 E13.51346
G1 X83.891 Y126.153 E13.53748
G1 X83.099 Y125.718 E13.56152
G1 X82.348 Y125.216 E13.58556
G1 X81.645 Y124.649 E13.60959
G1 X80.995 Y124.022 E13.63362
G1 X80.403 Y123.34 E13.65765
G1 X79.873 Y122.609 E13.68168
G1 X79.411 Y121.833 E13.70571
G1 X79.018 Y121.02 E13.72973
G1 X78.7 Y120.175 E13.75376
G1 X78.395 Y119.022 E13.78549
G1 X78.305 Y118.577 E13.79757
G1 X77.956 Y116.708 E13.84816
G1 X77.799 Y115.984 E13.86787
G1 X77.614 Y115.054 E13.8931
G1 X77.477 Y114.162 E13.91712
G1 X77.421 Y113.287 E13.94045
G1 X77.398 Y112.194 E13.96954
G1 X77.397 Y103.928 E14.18948
G1 F1500 E10.68948
;MESH:void_switch-v53-mount-vb-stem.stl(1)
G0 F6000 X90.852 Y112.119
;TYPE:WALL-INNER
G1 F1500 E14.18948
G1 F442 X90.852 Y111.501 E14.2118
G1 F440.4 X89.962 Y111.503 E14.24407
G1 F437.2 X89.072 Y111.506 E14.27657
G1 F435.6 X89.072 Y112.157 E14.30043
G1 F437.2 X89.438 Y112.039 E14.31447
G1 F440.4 X90.559 Y112.044 E14.35512
G1 F442 X90.852 Y112.119 E14.36604
G0 F6000 X91.323 Y112.555
G1 F600 X91.323 Y110.904 E14.40997
G1 X90.942 Y111.03 E14.42065
G1 X88.976 Y111.03 E14.47296
G1 X88.596 Y110.904 E14.48361
G1 X88.596 Y112.559 E14.52765
G1 X88.826 Y112.612 E14.53393
G1 X89.008 Y112.741 E14.53986
G1 X89.19 Y112.612 E14.5458
G1 X89.511 Y112.51 E14.55476
G1 X90.521 Y112.513 E14.58164
G1 X90.851 Y112.597 E14.5907
G1 X90.988 Y112.686 E14.59504
G1 X91.125 Y112.597 E14.59939
G1 X91.323 Y112.555 E14.60478
G0 F6000 X90.988 Y113.39
G1 F600 X91.133 Y113.063 E14.61429
G1 X91.289 Y112.962 E14.61924
G1 X91.535 Y112.91 E14.62593
G1 X91.687 Y112.91 E14.62997
G1 X91.723 Y112.849 E14.63186
G1 X91.723 Y110.719 E14.68853
G1 F536.9 X91.676 Y110.434 E14.69712
G1 F443.6 X91.629 Y110.149 E14.70752
G1 F485.8 X91.305 Y110.511 E14.72348
G1 F600 X90.942 Y110.63 E14.73365
G1 X88.976 Y110.63 E14.78596
G1 X88.615 Y110.511 E14.79607
G1 F484.8 X88.291 Y110.15 E14.81204
G1 F442.8 X88.244 Y110.435 E14.82246
G1 F536.9 X88.196 Y110.72 E14.83105
G1 F600 X88.196 Y112.849 E14.8877
G1 X88.232 Y112.91 E14.88959
G1 X88.384 Y112.91 E14.89363
G1 X88.65 Y112.971 E14.90089
G1 X88.806 Y113.082 E14.90599
G1 F566 X89.008 Y113.51 E14.91933
G1 X89.21 Y113.082 E14.93268
G1 F600 X89.366 Y112.971 E14.93778
G1 X89.556 Y112.91 E14.94309
G1 X90.489 Y112.912 E14.96791
G1 X90.687 Y112.962 E14.97335
G1 X90.842 Y113.063 E14.97827
G1 X90.988 Y113.39 E14.9878
G1 F1500 E11.4878
G0 F6000 X90.715 Y116.736
;TYPE:WALL-OUTER
G1 F1500 E14.9878
G1 F439.6 X91.261 Y116.736 E15.00763
G1 X91.262 Y113.51 E15.1248
G1 F507.4 X91.471 Y113.31 E15.1339
G1 F600 X91.918 Y113.31 E15.14579
G1 X92.123 Y112.956 E15.15668
G1 X92.123 Y103.61 E15.40536
G1 X91.143 Y103.61 E15.43143
G1 X91.14 Y110.065 E15.60319
G1 X91.063 Y110.191 E15.60712
G1 X90.942 Y110.23 E15.6105
G1 X88.976 Y110.23 E15.66281
G1 X88.855 Y110.191 E15.66619
G1 X88.778 Y110.065 E15.67012
G1 X88.775 Y103.61 E15.84188
G1 X87.796 Y103.61 E15.86793
G1 X87.796 Y112.956 E16.11661
G1 X88.001 Y113.31 E16.12749
G1 X88.384 Y113.31 E16.13768
G1 X88.525 Y113.367 E16.14173
G1 X88.584 Y113.51 E16.14584
G1 X88.584 Y116.81 E16.23365
G1 X89.432 Y116.81 E16.25622
G1 X89.432 Y113.51 E16.34402
G1 X89.491 Y113.367 E16.34814
G1 X89.599 Y113.312 E16.35136
G1 X90.505 Y113.31 E16.37547
G1 F507.4 X90.714 Y113.51 E16.38457
G1 F439.6 X90.715 Y116.736 E16.50174
G1 F1500 E13.00174
G0 F6000 X89.008 Y116.386
;TYPE:WALL-INNER
G1 F1500 E16.50174
G1 F535.7 X89.008 Y113.51 E16.58745
G1 F1500 E13.08745
G0 F6000 X88.291 Y110.15
G1 F1500 E16.58745
G1 F407.5 X88.291 Y109.394 E16.61707
G1 F408.2 X88.29 Y108.638 E16.64664
G1 F409.6 X88.29 Y107.882 E16.67611
G1 F410.3 X88.289 Y107.126 E16.70553
G1 F411 X88.288 Y106.37 E16.7349
G1 F411.7 X88.288 Y105.614 E16.76422
G1 F413.1 X88.287 Y104.858 E16.79343
G1 F413.8 X88.287 Y104.102 E16.8226
G1 F1500 E13.3226
G0 F6000 X91.633 Y104.1
G1 F1500 E16.8226
G1 F413.8 X91.633 Y104.964 E16.85594
G1 F413.1 X91.632 Y105.828 E16.88933
G1 F412.4 X91.632 Y106.692 E16.92278
G1 F411 X91.631 Y107.556 E16.95634
G1 F410.3 X91.631 Y108.42 E16.98996
G1 F409.6 X91.63 Y109.284 E17.02364
G1 F408.9 X91.63 Y110.148 E17.05738
G1 F1500 E13.55738
;MESH:void_switch-v53-mount-vb-stem.stl
G0 F6000 X99.727 Y112.119
;TYPE:WALL-INNER
G1 F1500 E17.05738
G1 F442 X99.727 Y111.501 E17.0797
G1 F440.4 X98.836 Y111.503 E17.11201
G1 F437.2 X97.945 Y111.505 E17.14454
G1 F435.6 X97.946 Y111.505 E17.14458
G1 X97.948 Y112.154 E17.16837
G1 F437.2 X98.308 Y112.039 E17.18217
G1 F440.4 X99.434 Y112.044 E17.22299
G1 F442 X99.727 Y112.119 E17.23392
G0 F6000 X100.198 Y112.555
G1 F600 X100.198 Y110.904 E17.27785
G1 X99.818 Y111.03 E17.2885
G1 X97.852 Y111.03 E17.34081
G1 X97.47 Y110.903 E17.35152
G1 X97.472 Y112.558 E17.39556
G1 X97.701 Y112.611 E17.40181
G1 X97.88 Y112.738 E17.40765
G1 X98.059 Y112.611 E17.41349
G1 X98.38 Y112.51 E17.42245
G1 X99.396 Y112.513 E17.44948
G1 X99.726 Y112.597 E17.45854
G1 X99.863 Y112.686 E17.46289
G1 X100 Y112.597 E17.46723
G1 X100.198 Y112.555 E17.47262
