;FLAVOR:Marlin
;TIME:2045
;Filament used: 0.415391m
;Layer height: 0.16
;MINX:43.236
;MINY:68.643
;MINZ:0.16
;MAXX:97.346
;MAXY:105.942
;MAXZ:10.88
;Generated with Cura_SteamEngine main
M82 ;absolute extrusion mode
; Ender 3 Custom Start G-code
G92 E0 ; Reset Extruder
G28 ; Home all axes
M104 S120 ; Start heating up the nozzle most of the way
M190 S68.0 ; Start heating the bed, wait until target temperature reached
M109 S248.0 ; Finish heating the nozzle
G1 Z2.0 F3000 ; Move Z Axis up little to prevent scratching of Heat Bed
G1 X0.1 Y20 Z0.3 F5000.0 ; Move to start position
G1 X0.1 Y200.0 Z0.3 F1500.0 E15 ; Draw the first line
G1 X0.4 Y200.0 Z0.3 F5000.0 ; Move to side a little
G1 X0.4 Y20 Z0.3 F1500.0 E30 ; Draw the second line
G92 E0 ; Reset Extruder
G1 Z2.0 F3000 ; Move Z Axis up little to prevent scratching of Heat Bed
G1 X5 Y20 Z0.3 F5000.0 ; Move over to prevent blob squish
G92 E0
G92 E0
G1 F1500 E-6.5
;LAYER_COUNT:68
;LAYER:0
M107
G0 F6000 X48.662 Y71.358 Z0.16
G0 X44.011 Y79.423
;TYPE:SKIRT
G1 F1500 E0
G1 F600 X44.222 Y78.297 E0.03048
G1 X44.434 Y77.383 E0.05545
G1 X44.723 Y76.491 E0.0804
G1 X45.087 Y75.627 E0.10534
G1 X45.524 Y74.796 E0.13033
G1 X46.029 Y74.006 E0.15527
G1 X46.6 Y73.262 E0.18023
G1 X47.232 Y72.57 E0.20516
G1 X47.921 Y71.933 E0.23013
G1 X48.662 Y71.358 E0.25509
G1 X49.449 Y70.848 E0.28004
G1 X50.276 Y70.406 E0.30499
G1 X51.138 Y70.037 E0.32994
G1 X52.029 Y69.742 E0.35491
G1 X52.941 Y69.525 E0.37986
G1 X53.933 Y69.379 E0.40654
G1 X56.389 Y69.132 E0.47222
G1 X59.355 Y68.746 E0.5518
G1 X60.59 Y68.656 E0.58475
G1 X61.31 Y68.645 E0.60391
G1 X74.464 Y68.643 E0.95391
G1 X75.332 Y68.654 E0.97701
G1 X76.269 Y68.707 E1.00198
G1 X77.197 Y68.84 E1.02693
G1 X78.396 Y69.134 E1.05978
G1 X79.955 Y69.618 E1.10321
G1 X82.371 Y70.321 E1.17016
G1 X84.821 Y70.959 E1.23753
G1 X87.339 Y71.538 E1.30627
G1 X88.43 Y71.772 E1.33596
G1 X89.337 Y72.008 E1.3609
G1 X90.222 Y72.32 E1.38587
G1 X91.076 Y72.706 E1.41081
G1 X91.955 Y73.201 E1.43765
G1 X92.174 Y73.338 E1.44452
G1 X92.947 Y73.869 E1.46948
G1 X93.672 Y74.464 E1.49443
G1 X94.344 Y75.118 E1.51938
G1 X94.958 Y75.828 E1.54436
G1 X95.509 Y76.587 E1.56931
G1 X95.993 Y77.39 E1.59426
G1 X96.407 Y78.231 E1.6192
G1 X96.748 Y79.105 E1.64417
G1 X97.014 Y80.004 E1.66911
G1 X97.201 Y80.923 E1.69407
G1 X97.31 Y81.855 E1.71903
G1 X97.339 Y82.504 E1.73632
G1 X97.346 Y82.986 E1.74915
G1 X97.319 Y83.924 E1.77411
G1 X97.259 Y84.537 E1.7905
G1 X97.18 Y85.146 E1.80684
G1 X96.937 Y86.847 E1.85256
G1 X96.651 Y89.369 E1.9201
G1 X96.439 Y91.859 E1.98659
G1 X96.402 Y92.508 E2.00389
G1 X96.322 Y93.64 E2.03409
G1 X96.216 Y94.572 E2.05904
G1 X96.031 Y95.492 E2.08401
G1 X95.768 Y96.392 E2.10896
G1 X95.43 Y97.267 E2.13392
G1 X95.018 Y98.11 E2.15889
G1 X94.536 Y98.914 E2.18383
G1 X93.988 Y99.675 E2.20878
G1 X93.376 Y100.386 E2.23374
G1 X92.706 Y101.042 E2.25869
G1 X91.983 Y101.639 E2.28364
G1 X91.211 Y102.173 E2.30862
G1 X90.397 Y102.638 E2.33356
G1 X89.546 Y103.033 E2.35853
G1 X88.665 Y103.353 E2.38347
G1 X87.76 Y103.598 E2.40841
G1 X87.206 Y103.707 E2.42344
G1 X86.526 Y103.823 E2.44179
G1 X85.026 Y104.06 E2.4822
G1 X82.561 Y104.519 E2.54892
G1 X80.108 Y105.048 E2.61569
G1 X78.639 Y105.411 E2.65595
G1 X77.641 Y105.644 E2.68322
G1 X76.719 Y105.818 E2.70818
G1 X75.786 Y105.913 E2.73314
G1 X75.315 Y105.931 E2.74568
G1 X74.625 Y105.942 E2.76404
G1 X61.272 Y105.941 E3.11934
G1 X60.571 Y105.93 E3.13799
G1 X59.635 Y105.875 E3.16294
G1 X58.707 Y105.741 E3.18789
G1 X57.68 Y105.496 E3.21598
G1 X55.048 Y104.733 E3.2889
G1 X52.438 Y104.056 E3.36065
G1 X51.644 Y103.863 E3.38239
G1 X50.743 Y103.603 E3.40734
G1 X49.867 Y103.266 E3.43231
G1 X49.023 Y102.857 E3.45727
G1 X48.218 Y102.377 E3.48221
G1 X47.456 Y101.83 E3.50717
G1 X46.743 Y101.22 E3.53213
G1 X46.085 Y100.552 E3.55708
G1 X45.486 Y99.83 E3.58204
G1 X44.951 Y99.06 E3.60699
G1 X44.484 Y98.247 E3.63194
G1 X44.087 Y97.397 E3.6569
G1 X43.765 Y96.516 E3.68186
G1 X43.518 Y95.611 E3.70682
G1 X43.35 Y94.688 E3.73178
G1 X43.249 Y93.47 E3.7643
G1 X43.236 Y92.839 E3.7811
G1 X43.237 Y84.851 E3.99364
G1 X43.248 Y84.145 E4.01243
G1 X43.303 Y83.208 E4.0374
G1 X43.463 Y82.149 E4.0659
G1 X44.011 Y79.423 E4.13989
G1 F1500 E-2.36011
G0 F6000 X44.037 Y84.863
G1 F1500 E4.13989
G1 F600 X44.048 Y84.157 E4.15867
G1 X44.102 Y83.256 E4.18269
G1 X44.247 Y82.306 E4.20826
G1 X44.812 Y79.496 E4.28453
G1 X45.009 Y78.444 E4.31301
G1 X45.214 Y77.565 E4.33702
G1 X45.497 Y76.707 E4.36106
G1 X45.854 Y75.878 E4.38508
G1 X46.283 Y75.083 E4.40911
G1 X46.781 Y74.33 E4.43314
G1 X47.344 Y73.623 E4.45718
G1 X47.967 Y72.969 E4.48122
G1 X48.645 Y72.373 E4.50524
G1 X49.373 Y71.839 E4.52926
G1 X50.146 Y71.371 E4.5533
G1 X50.957 Y70.974 E4.57733
G1 X51.8 Y70.65 E4.60136
G1 X52.668 Y70.402 E4.62538
G1 X53.555 Y70.232 E4.64941
G1 X54.013 Y70.175 E4.66169
G1 X56.468 Y69.928 E4.72734
G1 X59.458 Y69.539 E4.80757
G1 X60.603 Y69.455 E4.83812
G1 X61.141 Y69.446 E4.85244
G1 X74.464 Y69.443 E5.20694
G1 X75.321 Y69.454 E5.22974
G1 X76.223 Y69.507 E5.25379
G1 X77.116 Y69.639 E5.2778
G1 X78.162 Y69.899 E5.30648
G1 X79.708 Y70.379 E5.34956
G1 X82.165 Y71.094 E5.41764
G1 X84.61 Y71.731 E5.48487
G1 X87.202 Y72.327 E5.55564
G1 X88.262 Y72.554 E5.58449
G1 X89.136 Y72.783 E5.60853
G1 X89.986 Y73.087 E5.63255
G1 X90.805 Y73.466 E5.65656
G1 X91.531 Y73.88 E5.6788
G1 X91.75 Y74.017 E5.68567
G1 X92.493 Y74.529 E5.70968
G1 X93.189 Y75.105 E5.73372
G1 X93.83 Y75.741 E5.75774
G1 X94.413 Y76.43 E5.78176
G1 X94.933 Y77.169 E5.8058
G1 X95.386 Y77.95 E5.82983
G1 X95.767 Y78.769 E5.85386
G1 X96.075 Y79.618 E5.87789
G1 X96.306 Y80.491 E5.90192
G1 X96.459 Y81.381 E5.92595
G1 X96.539 Y82.516 E5.95622
G1 X96.546 Y82.998 E5.96905
G1 X96.519 Y83.901 E5.99309
G1 X96.465 Y84.436 E6.0074
G1 X96.388 Y85.033 E6.02341
G1 X96.144 Y86.747 E6.06948
G1 X95.856 Y89.283 E6.13739
G1 X95.643 Y91.78 E6.20407
G1 X95.604 Y92.452 E6.22198
G1 X95.524 Y93.584 E6.25218
G1 X95.42 Y94.481 E6.27621
G1 X95.238 Y95.366 E6.30025
G1 X94.978 Y96.231 E6.32428
G1 X94.642 Y97.069 E6.3483
G1 X94.234 Y97.875 E6.37234
G1 X93.756 Y98.641 E6.39636
G1 X93.212 Y99.362 E6.4204
G1 X92.607 Y100.032 E6.44442
G1 X91.944 Y100.646 E6.46846
G1 X91.23 Y101.199 E6.49249
G1 X90.47 Y101.686 E6.51651
G1 X89.67 Y102.105 E6.54054
G1 X88.836 Y102.451 E6.56456
G1 X87.974 Y102.721 E6.5886
G1 X87.071 Y102.919 E6.6132
G1 X86.534 Y103.011 E6.62769
G1 X84.939 Y103.263 E6.67066
G1 X82.382 Y103.739 E6.73987
G1 X79.949 Y104.264 E6.80609
G1 X78.587 Y104.601 E6.84343
G1 X77.459 Y104.865 E6.87425
G1 X76.571 Y105.031 E6.89829
G1 X75.303 Y105.131 E6.93213
G1 X74.613 Y105.142 E6.95049
G1 X61.285 Y105.141 E7.30513
G1 X60.584 Y105.13 E7.32378
G1 X59.682 Y105.076 E7.34783
G1 X58.789 Y104.942 E7.37185
G1 X57.903 Y104.727 E7.39611
G1 X55.293 Y103.97 E7.46842
G1 X52.634 Y103.281 E7.54151
G1 X51.833 Y103.086 E7.56344
G1 X50.966 Y102.833 E7.58747
G1 X50.124 Y102.506 E7.61151
G1 X49.315 Y102.104 E7.63555
G1 X48.544 Y101.633 E7.65959
G1 X47.819 Y101.096 E7.68359
G1 X47.143 Y100.496 E7.70764
G1 X46.523 Y99.84 E7.73166
G1 X45.964 Y99.131 E7.75568
G1 X45.47 Y98.375 E7.77971
G1 X45.044 Y97.578 E7.80376
G1 X44.691 Y96.747 E7.82778
G1 X44.412 Y95.888 E7.85181
G1 X44.211 Y95.008 E7.87583
G1 X44.088 Y94.113 E7.89987
G1 X44.049 Y93.448 E7.9176
G1 X44.036 Y92.839 E7.9338
G1 X44.037 Y84.863 E8.14603
G0 F6000 X43.637 Y84.857
G1 F600 X43.648 Y84.151 E8.16482
G1 X43.703 Y83.232 E8.18931
G1 X43.855 Y82.227 E8.21636
G1 X44.429 Y79.371 E8.29387
G1 X44.616 Y78.371 E8.32094
G1 X44.824 Y77.474 E8.34544
G1 X45.11 Y76.599 E8.36994
G1 X45.471 Y75.752 E8.39443
G1 X45.904 Y74.939 E8.41894
G1 X46.405 Y74.167 E8.44343
G1 X46.972 Y73.442 E8.46792
G1 X47.6 Y72.768 E8.49243
G1 X48.283 Y72.151 E8.51692
G1 X49.018 Y71.597 E8.54141
G1 X49.798 Y71.107 E8.56592
G1 X50.618 Y70.688 E8.59043
G1 X51.47 Y70.341 E8.6149
G1 X52.35 Y70.069 E8.63941
G1 X53.25 Y69.875 E8.66391
G1 X53.973 Y69.777 E8.68332
G1 X56.443 Y69.528 E8.74938
G1 X59.406 Y69.143 E8.82888
G1 X60.597 Y69.055 E8.86066
G1 X61.135 Y69.046 E8.87497
G1 X74.464 Y69.043 E9.22963
G1 X75.327 Y69.054 E9.2526
G1 X76.246 Y69.107 E9.27709
G1 X77.157 Y69.239 E9.30159
G1 X78.279 Y69.517 E9.33234
G1 X79.827 Y69.997 E9.37547
G1 X82.273 Y70.709 E9.44325
G1 X84.703 Y71.342 E9.51007
G1 X87.296 Y71.938 E9.58086
G1 X88.346 Y72.163 E9.60943
G1 X89.237 Y72.395 E9.63393
G1 X90.104 Y72.704 E9.65842
G1 X90.941 Y73.086 E9.6829
G1 X91.743 Y73.541 E9.70744
G1 X91.962 Y73.678 E9.71431
G1 X92.72 Y74.199 E9.73879
G1 X93.431 Y74.785 E9.7633
G1 X94.088 Y75.43 E9.7878
G1 X94.686 Y76.129 E9.81228
G1 X95.222 Y76.878 E9.83678
G1 X95.69 Y77.671 E9.86128
G1 X96.088 Y78.501 E9.88578
G1 X96.413 Y79.362 E9.91026
G1 X96.661 Y80.249 E9.93477
G1 X96.832 Y81.154 E9.95928
G1 X96.939 Y82.51 E9.99547
G1 X96.946 Y82.992 E10.0083
G1 X96.919 Y83.912 E10.03279
G1 X96.862 Y84.487 E10.04816
G1 X96.784 Y85.09 E10.06434
G1 X96.538 Y86.816 E10.11073
G1 X96.257 Y89.291 E10.17701
G1 X96.04 Y91.836 E10.24497
G1 X96.003 Y92.48 E10.26213
G1 X95.923 Y93.612 E10.29233
G1 X95.818 Y94.527 E10.31683
G1 X95.634 Y95.429 E10.34133
G1 X95.373 Y96.312 E10.36583
G1 X95.036 Y97.169 E10.39033
G1 X94.626 Y97.993 E10.41482
G1 X94.146 Y98.779 E10.43933
G1 X93.6 Y99.52 E10.46382
G1 X92.991 Y100.211 E10.48833
G1 X92.325 Y100.846 E10.51281
G1 X91.606 Y101.421 E10.53731
G1 X90.84 Y101.932 E10.56181
G1 X90.033 Y102.374 E10.58629
G1 X89.19 Y102.745 E10.6108
G1 X88.318 Y103.041 E10.6353
G1 X87.139 Y103.313 E10.6675
G1 X86.463 Y103.428 E10.68574
G1 X84.968 Y103.664 E10.72601
G1 X82.468 Y104.129 E10.79367
G1 X80.032 Y104.655 E10.85998
G1 X78.683 Y104.989 E10.89696
G1 X77.55 Y105.254 E10.92792
G1 X76.645 Y105.425 E10.95243
G1 X75.309 Y105.531 E10.98809
G1 X74.619 Y105.542 E11.00645
G1 X61.279 Y105.541 E11.3614
G1 X60.578 Y105.53 E11.38006
G1 X59.659 Y105.475 E11.40456
G1 X58.748 Y105.341 E11.42906
G1 X57.792 Y105.112 E11.45521
G1 X55.155 Y104.347 E11.52827
G1 X52.521 Y103.664 E11.60068
G1 X51.738 Y103.474 E11.62211
G1 X50.854 Y103.218 E11.6466
G1 X49.995 Y102.886 E11.67111
G1 X49.169 Y102.48 E11.6956
G1 X48.38 Y102.005 E11.7201
G1 X47.636 Y101.463 E11.74459
G1 X46.942 Y100.858 E11.76909
G1 X46.303 Y100.195 E11.79359
G1 X45.724 Y99.48 E11.81807
G1 X45.209 Y98.716 E11.84259
G1 X44.762 Y97.911 E11.86709
G1 X44.387 Y97.071 E11.89157
G1 X44.086 Y96.201 E11.91606
G1 X43.862 Y95.308 E11.94056
G1 X43.716 Y94.399 E11.96505
G1 X43.649 Y93.459 E11.99013
G1 X43.636 Y92.839 E12.00663
G1 X43.637 Y84.857 E12.21902
G1 F1500 E5.71902
;MESH:void_switch-v12.stl
G0 F6000 X53.571 Y84.857
G0 X54.656 Y84.857
G0 X57.963 Y85.695
G1 F1500 E12.21902
G0 F6000 X57.963 Y85.721
;TYPE:WALL-INNER
G1 F600 X57.963 Y84.766 E12.24443
G1 X57.733 Y84.713 E12.25071
G1 X57.552 Y84.584 E12.25662
G1 X57.37 Y84.713 E12.26256
G1 X57.057 Y84.815 E12.27132
G1 X56.119 Y84.815 E12.29627
G1 X55.799 Y84.764 E12.3049
G1 X55.572 Y84.639 E12.31179
G1 X55.435 Y84.728 E12.31614
G1 X55.237 Y84.77 E12.32152
G1 X55.235 Y85.723 E12.34688
G1 X55.618 Y85.595 E12.35763
G1 X57.583 Y85.595 E12.40991
G1 X57.963 Y85.721 E12.42056
G0 F6000 X57.512 Y85.144
G1 F538.1 X57.101 Y85.205 E12.43289
G1 F620.2 X56.61 Y85.205 E12.44553
G1 F628.3 X56.119 Y85.205 E12.45801
G1 F575.5 X55.663 Y85.168 E12.4707
G0 F6000 X58.011 Y86.167
G0 X58.273 Y86.595
G1 F448.6 X58.318 Y86.25 E12.48308
G1 F539.3 X58.363 Y85.905 E12.49338
G1 F600 X58.363 Y84.476 E12.5314
G1 X58.327 Y84.415 E12.53329
G1 X58.176 Y84.415 E12.53731
G1 X57.91 Y84.354 E12.54457
G1 X57.754 Y84.243 E12.54966
G1 F562.1 X57.551 Y83.869 E12.56175
G1 X57.35 Y84.243 E12.57381
G1 F600 X57.193 Y84.354 E12.57892
G1 X57.007 Y84.415 E12.58413
G1 X56.119 Y84.415 E12.60776
G1 X55.927 Y84.384 E12.61294
G1 X55.717 Y84.262 E12.6194
G1 X55.572 Y83.967 E12.62814
G1 X55.426 Y84.262 E12.6369
G1 X55.271 Y84.363 E12.64183
G1 X55.024 Y84.415 E12.64854
G1 X54.872 Y84.415 E12.65259
G1 X54.836 Y84.476 E12.65447
G1 X54.835 Y85.905 E12.69249
G1 F539.3 X54.881 Y86.25 E12.7028
G1 F447.8 X54.927 Y86.595 E12.71521
G1 X55.091 Y86.355 E12.72557
G1 F539.3 X55.256 Y86.115 E12.73419
G1 F600 X55.618 Y85.995 E12.74434
G1 X57.583 Y85.995 E12.79662
G1 X57.944 Y86.114 E12.80674
G1 F539.3 X58.108 Y86.354 E12.81534
G1 F448.6 X58.273 Y86.595 E12.82574
G1 F1500 E6.32574
G0 F6000 X58.493 Y92.711
G1 F1500 E12.82574
G0 F6000 X58.763 Y92.981
;TYPE:WALL-OUTER
G1 F600 X58.763 Y84.369 E13.05489
G1 X58.558 Y84.015 E13.06577
G1 X58.176 Y84.015 E13.07594
G1 X58.035 Y83.958 E13.07998
G1 X57.976 Y83.833 E13.08366
G1 X57.975 Y80.515 E13.17195
G1 X57.127 Y80.515 E13.19451
G1 X57.127 Y83.833 E13.28279
G1 X57.068 Y83.958 E13.28647
G1 X56.962 Y84.013 E13.28965
G1 X56.072 Y84.015 E13.31333
G1 F505.3 X55.845 Y83.839 E13.32241
G1 F437.2 X55.845 Y82.213 E13.38179
G1 F438.8 X55.845 Y80.587 E13.44095
G1 X55.298 Y80.588 E13.46086
G1 X55.298 Y82.214 E13.52002
G1 F437.2 X55.298 Y83.84 E13.5794
G1 F505.3 X55.087 Y84.015 E13.58806
G1 F600 X54.641 Y84.015 E13.59993
G1 X54.436 Y84.369 E13.61082
G1 X54.437 Y92.981 E13.83996
G1 X55.417 Y92.98 E13.86604
G1 X55.418 Y86.595 E14.03593
G1 X55.497 Y86.435 E14.04068
G1 X55.618 Y86.395 E14.04407
G1 X57.583 Y86.395 E14.09636
G1 X57.704 Y86.434 E14.09974
G1 X57.783 Y86.595 E14.10451
G1 X57.784 Y92.98 E14.2744
G1 X58.763 Y92.981 E14.30045
G0 F6000 X58.273 Y92.491
;TYPE:WALL-INNER
G1 F413.8 X58.273 Y86.595 E14.52793
G0 F6000 X57.551 Y84.715
G0 X57.551 Y83.869
G1 F529.8 X57.551 Y82.404 E14.57208
G1 F532.2 X57.551 Y80.939 E14.61603
G0 F6000 X57.355 Y84.243
G0 X56.596 Y84.246
G0 X54.927 Y86.595
G1 F413.1 X54.927 Y89.543 E14.72996
G1 F413.8 X54.927 Y92.491 E14.8437
G1 F1500 E8.3437
G0 F6000 X55.19 Y86.167
G0 X58.011 Y86.167
G0 X58.549 Y92.767
G0 X60.73 Y92.769
G0 X61.883 Y93.37
G0 X66.448 Y93.543
G1 F1500 E14.8437
G1 F600 X66.357 Y93.491 E14.84649
G1 X61.712 Y88.845 E15.0213
G1 X61.711 Y93.542 E15.14628
G1 X66.448 Y93.543 E15.27232
G0 F6000 X67.177 Y93.646
G0 X74.208 Y93.543
G1 F600 X74.208 Y87.619 E15.42995
G1 X71.493 Y90.336 E15.53215
G1 X71.175 Y90.506 E15.54174
G1 X71.003 Y90.827 E15.55143
G1 X68.339 Y93.491 E15.65168
G1 X68.248 Y93.543 E15.65447
G1 X74.208 Y93.543 E15.81305
G0 F6000 X74.338 Y86.68
G0 X74.208 Y85.777
G1 F600 X74.208 Y81.043 E15.93901
G1 X69.512 Y81.045 E16.06397
G1 X74.157 Y85.69 E16.23876
G1 X74.208 Y85.777 E16.24144
G0 F6000 X74.313 Y86.507
G0 X74.608 Y93.943
G1 F600 X74.608 Y87.691 E16.40779
G1 F595.5 X74.605 Y87.385 E16.416
G1 F585.4 X74.601 Y87.079 E16.42434
G1 F574.2 X74.598 Y86.773 E16.43285
G1 F564.7 X74.594 Y86.467 E16.4415
G1 F566 X74.598 Y86.202 E16.44898
G1 F579.7 X74.603 Y85.936 E16.4563
G1 F594.1 X74.607 Y85.67 E16.46345
G1 F600 X74.608 Y80.643 E16.59721
G1 X68.547 Y80.645 E16.75848
G1 X73.874 Y85.973 E16.95896
G1 F591.1 X74.02 Y86.211 E16.9665
G1 F574.2 X74.167 Y86.45 E16.9743
G1 F568.7 X74.167 Y86.91 E16.98721
G1 F578.3 X74.021 Y87.148 E16.99492
G1 F592.6 X73.874 Y87.387 E17.00248
G1 F600 X71.326 Y89.937 E17.0984
G1 X71.072 Y90.121 E17.10674
G1 X70.864 Y90.195 E17.11262
G1 X70.789 Y90.404 E17.11852
G1 X70.605 Y90.659 E17.12689
G1 X68.056 Y93.208 E17.22281
G1 F592.6 X67.816 Y93.354 E17.23038
G1 F575.5 X67.576 Y93.501 E17.23818
G1 F566 X67.119 Y93.501 E17.25107
G1 F572.8 X66.88 Y93.355 E17.25888
G1 F591.1 X66.64 Y93.208 E17.26648
G1 F600 X61.312 Y87.88 E17.46697
G1 X61.311 Y93.942 E17.62827
G1 X66.336 Y93.942 E17.76198
G1 F595.5 X66.642 Y93.939 E17.77018
G1 F583.9 X66.948 Y93.935 E17.77855
G1 F572.8 X67.254 Y93.932 E17.78707
G1 F562.1 X67.56 Y93.928 E17.79577
G1 F564.7 X67.827 Y93.932 E17.80332
G1 F578.3 X68.094 Y93.937 E17.81069
G1 F592.6 X68.361 Y93.942 E17.81788
G1 F600 X74.608 Y93.943 E17.9841
G0 F6000 X75.008 Y94.343
G1 F600 X75.008 Y80.243 E18.35928
G1 X67.852 Y80.245 E18.54969
G1 F594.1 X67.599 Y80.248 E18.55649
G1 F581.1 X67.346 Y80.252 E18.56344
G1 F586.8 X67.773 Y80.436 E18.57609
G1 F600 X73.592 Y86.255 E18.79505
G1 X73.746 Y86.517 E18.80314
G1 X73.746 Y86.843 E18.81181
G1 X73.592 Y87.105 E18.8199
G1 X71.043 Y89.654 E18.91582
G1 X70.747 Y89.816 E18.9248
G1 X70.397 Y89.73 E18.93439
G1 X70.485 Y90.078 E18.94394
G1 X70.322 Y90.376 E18.95298
G1 X67.773 Y92.925 E19.04889
G1 X67.511 Y93.078 E19.05697
G1 F601.5 X67.185 Y93.077 E19.06562
G1 X66.923 Y92.925 E19.07366
