;FLAVOR:Marlin
;TIME:2039
;Filament used: 0.41179m
;Layer height: 0.16
;MINX:124.328
;MINY:64.718
;MINZ:0.16
;MAXX:178.437
;MAXY:102.017
;MAXZ:10.56
;Generated with Cura_SteamEngine main
M82 ;absolute extrusion mode
; Ender 3 Custom Start G-code
G92 E0 ; Reset Extruder
G28 ; Home all axes
M104 S120 ; Start heating up the nozzle most of the way
M190 S68.0 ; Start heating the bed, wait until target temperature reached
M109 S248.0 ; Finish heating the nozzle
G1 Z2.0 F3000 ; Move Z Axis up little to prevent scratching of Heat Bed
G1 X0.1 Y20 Z0.3 F5000.0 ; Move to start position
G1 X0.1 Y200.0 Z0.3 F1500.0 E15 ; Draw the first line
G1 X0.4 Y200.0 Z0.3 F5000.0 ; Move to side a little
G1 X0.4 Y20 Z0.3 F1500.0 E30 ; Draw the second line
G92 E0 ; Reset Extruder
G1 Z2.0 F3000 ; Move Z Axis up little to prevent scratching of Heat Bed
G1 X5 Y20 Z0.3 F5000.0 ; Move over to prevent blob squish
G92 E0
G92 E0
G1 F1500 E-6.5
;LAYER_COUNT:66
;LAYER:0
M107
G0 F6000 X126.615 Y70.87 Z0.16
G0 X125.102 Y75.497
;TYPE:SKIRT
G1 F1500 E0
G1 F600 X125.313 Y74.371 E0.03048
G1 X125.525 Y73.457 E0.05545
G1 X125.814 Y72.565 E0.0804
G1 X126.178 Y71.701 E0.10534
G1 X126.615 Y70.87 E0.13033
G1 X127.12 Y70.08 E0.15527
G1 X127.691 Y69.336 E0.18023
G1 X128.323 Y68.644 E0.20516
G1 X129.012 Y68.007 E0.23013
G1 X129.753 Y67.432 E0.25509
G1 X130.54 Y66.922 E0.28004
G1 X131.367 Y66.48 E0.30499
G1 X132.229 Y66.111 E0.32994
G1 X133.12 Y65.816 E0.35491
G1 X134.032 Y65.599 E0.37986
G1 X135.018 Y65.454 E0.40638
G1 X137.535 Y65.199 E0.47369
G1 X140.447 Y64.821 E0.55183
G1 X141.681 Y64.731 E0.58475
G1 X142.401 Y64.72 E0.60391
G1 X155.555 Y64.718 E0.95391
G1 X156.436 Y64.73 E0.97735
G1 X157.372 Y64.785 E1.0023
G1 X158.3 Y64.919 E1.02725
G1 X159.498 Y65.215 E1.06009
G1 X160.259 Y65.45 E1.08128
G1 X161.787 Y65.945 E1.12402
G1 X164.215 Y66.655 E1.19133
G1 X166.66 Y67.297 E1.25859
G1 X169.522 Y67.957 E1.33674
G1 X170.281 Y68.157 E1.35762
G1 X171.173 Y68.448 E1.38259
G1 X172.037 Y68.814 E1.40756
G1 X172.866 Y69.252 E1.4325
G1 X173.655 Y69.759 E1.45746
G1 X174.398 Y70.332 E1.48242
G1 X175.089 Y70.966 E1.50738
G1 X175.724 Y71.656 E1.53233
G1 X176.297 Y72.398 E1.55727
G1 X176.759 Y73.103 E1.5797
G1 X177.222 Y73.918 E1.60464
G1 X177.614 Y74.77 E1.6296
G1 X177.932 Y75.652 E1.65454
G1 X178.174 Y76.559 E1.67952
G1 X178.337 Y77.482 E1.70446
G1 X178.433 Y78.826 E1.74031
G1 X178.437 Y79.222 E1.75085
G1 X178.407 Y80.159 E1.77579
G1 X178.331 Y80.863 E1.79463
G1 X178.021 Y83.069 E1.85391
G1 X177.737 Y85.549 E1.92033
G1 X177.516 Y88.135 E1.98939
G1 X177.412 Y89.612 E2.02879
G1 X177.306 Y90.544 E2.05374
G1 X177.122 Y91.463 E2.07868
G1 X176.859 Y92.364 E2.10366
G1 X176.521 Y93.238 E2.12859
G1 X176.11 Y94.081 E2.15355
G1 X175.628 Y94.886 E2.17851
G1 X175.08 Y95.647 E2.20346
G1 X174.469 Y96.358 E2.22841
G1 X173.799 Y97.015 E2.25338
G1 X173.076 Y97.612 E2.27832
G1 X172.305 Y98.146 E2.30328
G1 X171.491 Y98.611 E2.32822
G1 X170.64 Y99.006 E2.35319
G1 X169.759 Y99.327 E2.37814
G1 X168.853 Y99.572 E2.40311
G1 X168.316 Y99.679 E2.41768
G1 X166.952 Y99.915 E2.45451
G1 X164.506 Y100.371 E2.52072
G1 X162.034 Y100.903 E2.588
G1 X158.882 Y101.684 E2.6744
G1 X157.963 Y101.871 E2.69936
G1 X157.032 Y101.978 E2.72429
G1 X156.411 Y102.006 E2.74083
G1 X155.715 Y102.017 E2.75935
G1 X142.363 Y102.016 E3.11462
G1 X141.662 Y102.005 E3.13328
G1 X140.726 Y101.95 E3.15823
G1 X139.798 Y101.816 E3.18318
G1 X138.794 Y101.577 E3.21064
G1 X135.839 Y100.727 E3.29245
G1 X133.414 Y100.102 E3.35909
G1 X132.74 Y99.938 E3.37754
G1 X131.839 Y99.678 E3.40249
G1 X130.963 Y99.343 E3.42745
G1 X130.119 Y98.933 E3.45242
G1 X129.313 Y98.454 E3.47736
G1 X128.551 Y97.907 E3.50232
G1 X127.838 Y97.298 E3.52727
G1 X127.18 Y96.63 E3.55222
G1 X126.581 Y95.908 E3.57718
G1 X126.045 Y95.138 E3.60215
G1 X125.578 Y94.326 E3.62707
G1 X125.181 Y93.476 E3.65203
G1 X124.857 Y92.596 E3.67698
G1 X124.61 Y91.691 E3.70195
G1 X124.441 Y90.768 E3.72691
G1 X124.34 Y89.552 E3.75938
G1 X124.328 Y88.96 E3.77514
G1 X124.328 Y80.925 E3.98893
G1 X124.339 Y80.219 E4.00772
G1 X124.394 Y79.282 E4.03269
G1 X124.554 Y78.223 E4.06119
G1 X125.102 Y75.497 E4.13518
G1 F1500 E-2.36482
G0 F6000 X125.128 Y80.937
G1 F1500 E4.13518
G1 F600 X125.139 Y80.231 E4.15396
G1 X125.193 Y79.33 E4.17798
G1 X125.338 Y78.38 E4.20355
G1 X125.903 Y75.57 E4.27982
G1 X126.1 Y74.518 E4.30829
G1 X126.305 Y73.639 E4.33231
G1 X126.588 Y72.781 E4.35635
G1 X126.945 Y71.952 E4.38037
G1 X127.374 Y71.157 E4.4044
G1 X127.872 Y70.404 E4.42843
G1 X128.435 Y69.697 E4.45247
G1 X129.058 Y69.043 E4.47651
G1 X129.736 Y68.447 E4.50053
G1 X130.464 Y67.913 E4.52455
G1 X131.237 Y67.445 E4.54859
G1 X132.048 Y67.048 E4.57262
G1 X132.891 Y66.724 E4.59665
G1 X133.759 Y66.476 E4.62067
G1 X134.646 Y66.306 E4.6447
G1 X135.099 Y66.25 E4.65685
G1 X137.611 Y65.996 E4.72403
G1 X140.55 Y65.614 E4.80289
G1 X141.694 Y65.53 E4.83341
G1 X142.232 Y65.521 E4.84772
G1 X155.555 Y65.518 E5.20222
G1 X156.423 Y65.53 E5.22532
G1 X157.325 Y65.584 E5.24937
G1 X158.218 Y65.718 E5.27339
G1 X159.262 Y65.979 E5.30203
G1 X160.013 Y66.211 E5.32294
G1 X161.568 Y66.715 E5.36644
G1 X163.998 Y67.425 E5.4338
G1 X166.44 Y68.066 E5.50097
G1 X169.343 Y68.736 E5.58025
G1 X170.066 Y68.927 E5.60015
G1 X170.924 Y69.209 E5.62418
G1 X171.754 Y69.565 E5.64821
G1 X172.549 Y69.994 E5.67224
G1 X173.303 Y70.491 E5.69627
G1 X174.01 Y71.053 E5.7203
G1 X174.664 Y71.675 E5.74432
G1 X175.261 Y72.353 E5.76836
G1 X176.018 Y73.416 E5.80308
G1 X176.526 Y74.313 E5.83051
G1 X176.899 Y75.135 E5.85453
G1 X177.198 Y75.987 E5.87855
G1 X177.421 Y76.863 E5.90261
G1 X177.565 Y77.754 E5.92662
G1 X177.633 Y78.834 E5.95542
G1 X177.637 Y79.23 E5.96595
G1 X177.607 Y80.133 E5.98999
G1 X177.539 Y80.752 E6.00656
G1 X177.231 Y82.947 E6.06554
G1 X176.939 Y85.493 E6.13373
G1 X176.718 Y88.077 E6.20273
G1 X176.614 Y89.556 E6.24218
G1 X176.511 Y90.453 E6.26621
G1 X176.329 Y91.337 E6.29022
G1 X176.069 Y92.202 E6.31426
G1 X175.734 Y93.041 E6.33829
G1 X175.326 Y93.847 E6.36233
G1 X174.848 Y94.613 E6.38636
G1 X174.304 Y95.334 E6.41039
G1 X173.699 Y96.004 E6.43441
G1 X173.037 Y96.619 E6.45845
G1 X172.323 Y97.172 E6.48248
G1 X171.563 Y97.659 E6.5065
G1 X170.763 Y98.078 E6.53053
G1 X169.929 Y98.424 E6.55455
G1 X169.067 Y98.696 E6.57861
G1 X168.18 Y98.89 E6.60276
G1 X166.889 Y99.114 E6.63763
G1 X164.299 Y99.596 E6.70773
G1 X161.905 Y100.111 E6.77288
G1 X158.69 Y100.908 E6.86102
G1 X157.805 Y101.086 E6.88504
G1 X156.907 Y101.185 E6.90908
G1 X156.398 Y101.206 E6.92263
G1 X155.702 Y101.217 E6.94115
G1 X142.376 Y101.216 E7.29573
G1 X141.675 Y101.205 E7.31439
G1 X140.773 Y101.151 E7.33843
G1 X139.88 Y101.017 E7.36246
G1 X139.015 Y100.809 E7.38613
G1 X136.007 Y99.944 E7.46941
G1 X133.659 Y99.338 E7.53393
G1 X132.929 Y99.161 E7.55392
G1 X132.062 Y98.909 E7.57795
G1 X131.22 Y98.582 E7.60198
G1 X130.411 Y98.181 E7.626
G1 X129.64 Y97.71 E7.65004
G1 X128.914 Y97.173 E7.67407
G1 X128.238 Y96.574 E7.6981
G1 X127.618 Y95.918 E7.72212
G1 X127.058 Y95.209 E7.74616
G1 X126.564 Y94.453 E7.77019
G1 X126.138 Y93.657 E7.79421
G1 X125.784 Y92.826 E7.81825
G1 X125.505 Y91.967 E7.84228
G1 X125.303 Y91.087 E7.8663
G1 X125.18 Y90.192 E7.89034
G1 X125.14 Y89.53 E7.90799
G1 X125.128 Y88.96 E7.92316
G1 X125.128 Y80.937 E8.13664
G0 F6000 X124.728 Y80.931
G1 F600 X124.739 Y80.225 E8.15542
G1 X124.794 Y79.306 E8.17992
G1 X124.946 Y78.301 E8.20696
G1 X125.52 Y75.445 E8.28448
G1 X125.707 Y74.445 E8.31155
G1 X125.915 Y73.548 E8.33605
G1 X126.201 Y72.673 E8.36054
G1 X126.562 Y71.826 E8.38504
G1 X126.995 Y71.013 E8.40955
G1 X127.496 Y70.241 E8.43404
G1 X128.063 Y69.516 E8.45853
G1 X128.691 Y68.842 E8.48304
G1 X129.374 Y68.225 E8.50753
G1 X130.109 Y67.671 E8.53202
G1 X130.889 Y67.181 E8.55653
G1 X131.709 Y66.762 E8.58103
G1 X132.561 Y66.415 E8.60551
G1 X133.441 Y66.143 E8.63002
G1 X134.341 Y65.949 E8.65452
G1 X135.059 Y65.852 E8.67379
G1 X137.556 Y65.599 E8.74057
G1 X140.499 Y65.217 E8.81954
G1 X141.688 Y65.13 E8.85126
G1 X142.226 Y65.121 E8.86558
G1 X155.555 Y65.118 E9.22024
G1 X156.43 Y65.13 E9.24352
G1 X157.349 Y65.185 E9.26802
G1 X158.26 Y65.318 E9.29252
G1 X159.38 Y65.597 E9.32323
G1 X159.985 Y65.783 E9.34007
G1 X161.666 Y66.326 E9.38707
G1 X164.097 Y67.037 E9.45447
G1 X166.535 Y67.677 E9.52153
G1 X169.433 Y68.346 E9.60067
G1 X170.174 Y68.542 E9.62107
G1 X171.049 Y68.829 E9.64557
G1 X171.895 Y69.19 E9.67004
G1 X172.708 Y69.623 E9.69455
G1 X173.479 Y70.125 E9.71903
G1 X174.205 Y70.693 E9.74356
G1 X174.878 Y71.321 E9.76805
G1 X175.494 Y72.005 E9.79255
G1 X176.048 Y72.74 E9.81704
G1 X176.42 Y73.315 E9.83526
G1 X176.874 Y74.116 E9.85976
G1 X177.257 Y74.953 E9.88425
G1 X177.565 Y75.82 E9.90873
G1 X177.798 Y76.711 E9.93324
G1 X177.952 Y77.619 E9.95774
G1 X178.033 Y78.83 E9.99004
G1 X178.037 Y79.226 E10.00057
G1 X178.007 Y80.146 E10.02507
G1 X177.935 Y80.807 E10.04276
G1 X177.626 Y83.003 E10.10176
G1 X177.336 Y85.54 E10.16971
G1 X177.119 Y88.073 E10.23735
G1 X177.013 Y89.584 E10.27766
G1 X176.908 Y90.498 E10.30214
G1 X176.725 Y91.4 E10.32663
G1 X176.464 Y92.283 E10.35113
G1 X176.128 Y93.14 E10.37562
G1 X175.718 Y93.965 E10.40013
G1 X175.238 Y94.751 E10.42464
G1 X174.692 Y95.492 E10.44913
G1 X174.084 Y96.183 E10.47362
G1 X173.418 Y96.819 E10.49812
G1 X172.699 Y97.394 E10.52262
G1 X171.933 Y97.905 E10.54712
G1 X171.126 Y98.347 E10.5716
G1 X170.283 Y98.718 E10.59611
G1 X169.412 Y99.015 E10.6206
G1 X168.248 Y99.284 E10.65238
G1 X166.966 Y99.506 E10.687
G1 X164.378 Y99.988 E10.75705
G1 X161.988 Y100.503 E10.8221
G1 X158.786 Y101.296 E10.90988
G1 X157.884 Y101.478 E10.93436
G1 X156.969 Y101.582 E10.95886
G1 X156.405 Y101.606 E10.97388
G1 X155.709 Y101.617 E10.9924
G1 X142.37 Y101.616 E11.34733
G1 X141.669 Y101.605 E11.36598
G1 X140.75 Y101.55 E11.39048
G1 X139.839 Y101.416 E11.41498
G1 X138.905 Y101.193 E11.44053
G1 X135.911 Y100.332 E11.52343
G1 X133.595 Y99.734 E11.58707
G1 X132.835 Y99.55 E11.60788
G1 X131.95 Y99.294 E11.63239
G1 X131.091 Y98.962 E11.6569
G1 X130.265 Y98.557 E11.68137
G1 X129.476 Y98.082 E11.70588
G1 X128.732 Y97.54 E11.73037
G1 X128.037 Y96.936 E11.75487
G1 X127.398 Y96.273 E11.77937
G1 X126.818 Y95.558 E11.80387
G1 X126.303 Y94.795 E11.82836
G1 X125.856 Y93.99 E11.85286
G1 X125.48 Y93.15 E11.87735
G1 X125.179 Y92.28 E11.90185
G1 X124.954 Y91.387 E11.92635
G1 X124.808 Y90.478 E11.95085
G1 X124.74 Y89.541 E11.97584
G1 X124.728 Y88.96 E11.99131
G1 X124.728 Y80.931 E12.20494
G1 F1500 E5.70494
;MESH:void_switch-v11.2.stl
G0 F6000 X134.662 Y80.931
G0 X135.747 Y80.931
G0 X136.325 Y81.769
G1 F1500 E12.20494
G0 F6000 X136.325 Y81.797
;TYPE:WALL-INNER
G1 F600 X136.708 Y81.669 E12.21569
G1 X138.674 Y81.669 E12.268
G1 X139.054 Y81.795 E12.27865
G1 X139.054 Y80.84 E12.30406
G1 X138.824 Y80.787 E12.31034
G1 X138.643 Y80.658 E12.31626
G1 X138.461 Y80.787 E12.32219
G1 X138.148 Y80.889 E12.33095
G1 X137.21 Y80.889 E12.35591
G1 X136.89 Y80.838 E12.36453
G1 X136.663 Y80.713 E12.37143
G1 X136.526 Y80.802 E12.37577
G1 X136.328 Y80.844 E12.38116
G1 X136.325 Y81.797 E12.40652
G0 F6000 X136.754 Y81.242
G1 F575.5 X137.21 Y81.279 E12.41921
G1 F628.3 X137.701 Y81.279 E12.43169
G1 F620.2 X138.192 Y81.279 E12.44433
G1 F538.1 X138.603 Y81.218 E12.45665
G0 F6000 X136.28 Y82.241
G0 X136.018 Y82.669
G1 F448.6 X136.182 Y82.429 E12.467
G1 F539.3 X136.346 Y82.189 E12.4756
G1 F600 X136.708 Y82.069 E12.48575
G1 X138.674 Y82.069 E12.53806
G1 X139.035 Y82.188 E12.54818
G1 F539.3 X139.199 Y82.428 E12.55678
G1 F448.6 X139.364 Y82.669 E12.56717
G1 X139.409 Y82.324 E12.57956
G1 F539.3 X139.454 Y81.979 E12.58986
G1 F600 X139.454 Y80.55 E12.62788
G1 X139.418 Y80.489 E12.62976
G1 X139.267 Y80.489 E12.63378
G1 X139.001 Y80.428 E12.64104
G1 X138.845 Y80.317 E12.64614
G1 F562.1 X138.642 Y79.943 E12.65822
G1 X138.441 Y80.317 E12.67028
G1 F600 X138.284 Y80.428 E12.6754
G1 X138.098 Y80.489 E12.68061
G1 X137.21 Y80.489 E12.70424
G1 X137.018 Y80.458 E12.70941
G1 X136.808 Y80.336 E12.71587
G1 X136.663 Y80.041 E12.72462
G1 X136.517 Y80.336 E12.73338
G1 X136.362 Y80.437 E12.7383
G1 X136.115 Y80.489 E12.74502
G1 X135.963 Y80.489 E12.74906
G1 X135.927 Y80.55 E12.75095
G1 X135.925 Y81.979 E12.78897
G1 F539.3 X135.971 Y82.324 E12.79927
G1 F448.6 X136.018 Y82.669 E12.81166
G1 F1500 E6.31166
G0 F6000 X135.797 Y88.786
G1 F1500 E12.81166
G0 F6000 X135.528 Y89.055
;TYPE:WALL-OUTER
G1 F600 X136.508 Y89.055 E12.83774
G1 X136.508 Y82.669 E13.00766
G1 X136.587 Y82.509 E13.01241
G1 X136.708 Y82.469 E13.0158
G1 X138.674 Y82.469 E13.06811
G1 X138.795 Y82.508 E13.07149
G1 X138.874 Y82.669 E13.07626
G1 X138.875 Y89.055 E13.24618
G1 X139.854 Y89.055 E13.27223
G1 X139.854 Y80.443 E13.50138
G1 X139.649 Y80.089 E13.51227
G1 X139.267 Y80.089 E13.52243
G1 X139.126 Y80.032 E13.52648
G1 X139.067 Y79.907 E13.53015
G1 X139.066 Y76.589 E13.61844
G1 X138.218 Y76.589 E13.641
G1 X138.218 Y79.907 E13.72929
G1 X138.159 Y80.032 E13.73297
G1 X138.053 Y80.087 E13.73615
G1 X137.163 Y80.089 E13.75983
G1 F505.3 X136.936 Y79.913 E13.7689
G1 F437.2 X136.936 Y78.287 E13.82828
G1 F438.8 X136.936 Y76.661 E13.88745
G1 X136.389 Y76.662 E13.90735
G1 X136.389 Y78.288 E13.96652
G1 F437.2 X136.389 Y79.914 E14.0259
G1 F505.3 X136.178 Y80.089 E14.03456
G1 F600 X135.732 Y80.089 E14.04643
G1 X135.527 Y80.443 E14.05731
G1 X135.528 Y89.055 E14.28646
G0 F6000 X136.018 Y88.565
;TYPE:WALL-INNER
G1 F413.8 X136.018 Y82.669 E14.51394
G0 F6000 X136.28 Y82.241
G0 X139.102 Y82.241
G0 X139.364 Y82.669
G1 F413.8 X139.364 Y88.565 E14.74142
G0 F6000 X139.102 Y82.241
G0 X138.642 Y80.789
G0 X138.642 Y79.943
G1 F529.8 X138.642 Y78.478 E14.78556
G1 F532.2 X138.642 Y77.013 E14.82951
G1 F1500 E8.32951
G0 F6000 X138.866 Y77.743
G0 X139.931 Y77.742
G0 X140.736 Y77.745
G0 X141.821 Y77.745
G0 X142.48 Y77.742
G1 F1500 E14.82951
G1 F433.2 X143.424 Y76.798 E14.87871
G1 X142.479 Y76.797 E14.91354
G1 X142.48 Y77.742 E14.94836
G0 F6000 X142.098 Y82.783
G0 X142.239 Y83.503
G0 X142.052 Y82.783
G1 F461.5 X142.135 Y82.541 E14.95721
G1 F434.8 X142.219 Y82.299 E14.96662
G1 F422.5 X142.773 Y81.743 E14.99627
G1 F434.8 X142.512 Y81.482 E15.00983
G1 F522.9 X142.369 Y81.055 E15.02358
G1 F631.6 X142.367 Y79.924 E15.05216
G1 F638.3 X142.365 Y78.793 E15.08045
G1 F620.2 X142.527 Y78.369 E15.09214
G1 F600 X144.053 Y76.843 E15.14956
G1 F615.4 X144.376 Y76.686 E15.15888
G1 F634.9 X145.506 Y76.684 E15.18729
G1 F640 X146.636 Y76.681 E15.21548
G1 F579.7 X146.898 Y76.751 E15.22295
G1 F483.9 X147.16 Y76.822 E15.2319
G1 F434.8 X147.428 Y77.09 E15.24582
G1 F422.5 X147.983 Y76.536 E15.27545
G1 F445.3 X148.354 Y76.374 E15.28996
G1 X147.928 Y76.403 E15.30527
G1 F422.5 X147.428 Y76.405 E15.32417
G1 F446.9 X147.277 Y76.372 E15.32969
G1 F507.4 X146.957 Y76.34 E15.33981
G1 F589.7 X146.636 Y76.307 E15.34854
G1 F641.7 X144.478 Y76.307 E15.40223
G1 F631.6 X144.157 Y76.314 E15.41035
G1 F610.7 X143.836 Y76.321 E15.41874
G1 F600 X142.002 Y76.32 E15.46754
G1 X142.003 Y78.152 E15.51629
G1 F610.7 X141.996 Y78.473 E15.52468
G1 F629.9 X141.989 Y78.794 E15.53282
G1 F638.3 X141.989 Y79.558 E15.55193
G1 F634.9 X141.99 Y80.322 E15.57114
G1 F631.6 X141.99 Y81.086 E15.59045
G1 F581.1 X142.023 Y81.34 E15.59748
G1 F505.3 X142.055 Y81.593 E15.60554
G1 F446.9 X142.088 Y81.743 E15.61103
G1 F422.5 X142.086 Y82.244 E15.62996
G1 F434.8 X142.069 Y82.513 E15.63986
G1 F461.5 X142.052 Y82.783 E15.64921
G0 F6000 X142.239 Y83.503
G0 X142.801 Y89.617
G1 F600 X147.617 Y89.618 E15.77736
G1 X147.476 Y89.537 E15.78169
G1 X142.801 Y84.861 E15.95762
G1 X142.801 Y89.617 E16.08417
G0 F6000 X148.467 Y89.717
G0 X149.32 Y89.617
G1 F600 X155.299 Y89.618 E16.24326
G1 X155.299 Y83.641 E16.4023
G1 X155.221 Y83.774 E16.4064
G1 X152.6 Y86.393 E16.50499
G1 X152.253 Y86.569 E16.51534
G1 X152.074 Y86.922 E16.52587
G1 X149.457 Y89.537 E16.62431
G1 X149.32 Y89.617 E16.62853
G0 F6000 X155.401 Y82.783
G0 X155.299 Y81.925
G1 F600 X155.299 Y77.119 E16.75641
G1 X150.547 Y77.119 E16.88285
G1 X155.221 Y81.792 E17.05871
G1 X155.299 Y81.925 E17.06282
G0 F6000 X155.401 Y82.783
G0 X148.467 Y89.717
G0 X142.401 Y90.017
G1 F600 X147.443 Y90.017 E17.19698
G1 F589.7 X147.713 Y90.01 E17.20429
G1 F568.7 X147.983 Y90.003 E17.21187
G1 F549.2 X148.253 Y89.995 E17.21972
G1 F539.3 X148.682 Y89.995 E17.23242
G1 F549.2 X148.951 Y90.002 E17.24024
