;FLAVOR:Marlin
;TIME:1445
;Filament used: 0.417433m
;Layer height: 0.16
;MINX:83.095
;MINY:24.894
;MINZ:0.16
;MAXX:137.205
;MAXY:62.19
;MAXZ:10.4
;Generated with Cura_SteamEngine main
M82 ;absolute extrusion mode
; Ender 3 Custom Start G-code
G92 E0 ; Reset Extruder
G28 ; Home all axes
M104 S120 ; Start heating up the nozzle most of the way
M190 S68.0 ; Start heating the bed, wait until target temperature reached
M109 S252.0 ; Finish heating the nozzle
G1 Z2.0 F3000 ; Move Z Axis up little to prevent scratching of Heat Bed
G1 X0.1 Y20 Z0.3 F5000.0 ; Move to start position
G1 X0.1 Y200.0 Z0.3 F1500.0 E15 ; Draw the first line
G1 X0.4 Y200.0 Z0.3 F5000.0 ; Move to side a little
G1 X0.4 Y20 Z0.3 F1500.0 E30 ; Draw the second line
G92 E0 ; Reset Extruder
G1 Z2.0 F3000 ; Move Z Axis up little to prevent scratching of Heat Bed
G1 X5 Y20 Z0.3 F5000.0 ; Move over to prevent blob squish
G92 E0
G92 E0
G1 F1500 E-4
;LAYER_COUNT:65
;LAYER:0
M106 S25.5
G0 F7500 X84.581 Y32.74 Z0.16
G0 X83.095 Y41.1
;TYPE:SKIRT
G1 F1500 E0
G1 X83.106 Y40.394 E0.01879
G1 X83.161 Y39.457 E0.04376
G1 X83.321 Y38.398 E0.07226
G1 X83.869 Y35.672 E0.14624
G1 X84.08 Y34.546 E0.17673
G1 X84.292 Y33.632 E0.20169
G1 X84.581 Y32.74 E0.22664
G1 X84.945 Y31.876 E0.25159
G1 X85.382 Y31.045 E0.27657
G1 X85.887 Y30.255 E0.30152
G1 X86.458 Y29.511 E0.32647
G1 X87.09 Y28.819 E0.35141
G1 X87.779 Y28.182 E0.37638
G1 X88.52 Y27.607 E0.40133
G1 X89.307 Y27.097 E0.42629
G1 X90.134 Y26.655 E0.45124
G1 X90.996 Y26.286 E0.47619
G1 X91.887 Y25.991 E0.50116
G1 X92.799 Y25.774 E0.5261
G1 X93.776 Y25.63 E0.55238
G1 X96.087 Y25.394 E0.61419
G1 X97.751 Y25.168 E0.65887
G1 X98.222 Y25.125 E0.67146
G1 X99.154 Y25.002 E0.69647
G1 X100.403 Y24.91 E0.7298
G1 X101.419 Y24.894 E0.75683
G1 X114.334 Y24.896 E1.10048
G1 X115.303 Y24.915 E1.12627
G1 X116.239 Y24.975 E1.15122
G1 X117.166 Y25.115 E1.17617
G1 X118.491 Y25.46 E1.2126
G1 X119.504 Y25.792 E1.24096
G1 X121.969 Y26.567 E1.30972
G1 X124.425 Y27.263 E1.37764
G1 X126.834 Y27.872 E1.44376
G1 X128.073 Y28.153 E1.47756
G1 X128.746 Y28.318 E1.496
G1 X129.646 Y28.582 E1.52095
G1 X130.52 Y28.922 E1.54591
G1 X131.362 Y29.335 E1.57086
G1 X132.166 Y29.819 E1.59583
G1 X132.925 Y30.369 E1.62077
G1 X133.635 Y30.981 E1.64571
G1 X134.291 Y31.652 E1.67068
G1 X134.886 Y32.377 E1.69564
G1 X135.418 Y33.149 E1.72058
G1 X135.976 Y34.137 E1.75078
G1 X136.412 Y35.103 E1.77898
G1 X136.725 Y35.987 E1.80393
G1 X136.961 Y36.895 E1.82889
G1 X137.118 Y37.819 E1.85383
G1 X137.197 Y38.754 E1.8788
G1 X137.205 Y39.557 E1.90016
G1 X137.162 Y40.494 E1.92512
G1 X137.098 Y41.052 E1.94007
G1 X136.775 Y43.353 E2.00189
G1 X136.489 Y45.869 E2.06927
G1 X136.266 Y48.501 E2.13955
G1 X136.18 Y49.714 E2.17191
G1 X136.074 Y50.646 E2.19687
G1 X135.888 Y51.566 E2.22184
G1 X135.625 Y52.466 E2.24679
G1 X135.286 Y53.34 E2.27174
G1 X134.874 Y54.183 E2.2967
G1 X134.392 Y54.987 E2.32164
G1 X133.843 Y55.748 E2.34661
G1 X133.231 Y56.458 E2.37155
G1 X132.561 Y57.114 E2.3965
G1 X131.837 Y57.711 E2.42147
G1 X131.065 Y58.244 E2.44643
G1 X130.251 Y58.709 E2.47138
G1 X129.4 Y59.103 E2.49633
G1 X128.518 Y59.423 E2.5213
G1 X127.613 Y59.667 E2.54624
G1 X127.073 Y59.774 E2.56088
G1 X126.568 Y59.861 E2.57452
G1 X124.076 Y60.327 E2.64198
G1 X121.634 Y60.855 E2.70845
G1 X118.595 Y61.613 E2.79179
G1 X117.805 Y61.82 E2.81352
G1 X116.888 Y62.019 E2.83849
G1 X115.958 Y62.139 E2.86344
G1 X115.22 Y62.178 E2.88311
G1 X114.479 Y62.19 E2.90283
G1 X101.131 Y62.187 E3.25799
G1 X100.43 Y62.176 E3.27665
G1 X99.218 Y62.09 E3.30898
G1 X97.509 Y61.866 E3.35484
G1 X94.978 Y61.581 E3.42261
G1 X93.997 Y61.498 E3.4488
G1 X93.019 Y61.402 E3.47495
G1 X92.09 Y61.27 E3.49992
G1 X91.176 Y61.059 E3.52488
G1 X90.284 Y60.771 E3.54982
G1 X89.419 Y60.408 E3.57478
G1 X88.588 Y59.973 E3.59974
G1 X87.798 Y59.469 E3.62467
G1 X87.053 Y58.899 E3.64963
G1 X86.359 Y58.267 E3.67461
G1 X85.722 Y57.579 E3.69955
G1 X85.146 Y56.839 E3.72451
G1 X84.634 Y56.053 E3.74947
G1 X84.192 Y55.226 E3.77442
G1 X83.822 Y54.364 E3.79938
G1 X83.526 Y53.474 E3.82433
G1 X83.308 Y52.562 E3.84928
G1 X83.167 Y51.635 E3.87423
G1 X83.109 Y50.773 E3.89722
G1 X83.095 Y50.145 E3.91394
G1 X83.095 Y41.1 E4.15461
G0 F7500 X83.495 Y41.106
G1 F1500 X83.506 Y40.4 E4.17339
G1 X83.561 Y39.481 E4.19789
G1 X83.713 Y38.476 E4.22493
G1 X84.287 Y35.62 E4.30245
G1 X84.474 Y34.62 E4.32952
G1 X84.682 Y33.723 E4.35402
G1 X84.968 Y32.848 E4.37851
G1 X85.329 Y32.001 E4.40301
G1 X85.762 Y31.188 E4.42752
G1 X86.263 Y30.416 E4.45201
G1 X86.83 Y29.691 E4.4765
G1 X87.458 Y29.017 E4.50101
G1 X88.141 Y28.4 E4.5255
G1 X88.876 Y27.846 E4.54999
G1 X89.656 Y27.356 E4.5745
G1 X90.476 Y26.937 E4.599
G1 X91.328 Y26.59 E4.62348
G1 X92.208 Y26.318 E4.64799
G1 X93.108 Y26.124 E4.67249
G1 X93.816 Y26.028 E4.6915
G1 X96.153 Y25.79 E4.754
G1 X97.805 Y25.565 E4.79836
G1 X98.277 Y25.521 E4.81098
G1 X99.206 Y25.399 E4.83591
G1 X100.41 Y25.31 E4.86803
G1 X101.419 Y25.294 E4.89488
G1 X114.334 Y25.296 E5.23853
G1 X115.294 Y25.315 E5.26408
G1 X116.213 Y25.375 E5.28858
G1 X117.123 Y25.514 E5.31307
G1 X118.366 Y25.84 E5.34727
G1 X119.41 Y26.183 E5.37651
G1 X121.845 Y26.948 E5.44442
G1 X124.324 Y27.65 E5.51297
G1 X126.734 Y28.26 E5.57912
G1 X127.984 Y28.543 E5.61322
G1 X128.65 Y28.706 E5.63147
G1 X129.533 Y28.966 E5.65596
G1 X130.39 Y29.302 E5.68045
G1 X131.215 Y29.711 E5.70496
G1 X132.001 Y30.19 E5.72945
G1 X132.743 Y30.735 E5.75394
G1 X133.435 Y31.343 E5.77845
G1 X134.071 Y32.008 E5.80294
G1 X134.647 Y32.726 E5.82743
G1 X135.159 Y33.491 E5.85192
G1 X135.623 Y34.327 E5.87736
G1 X136.048 Y35.268 E5.90484
G1 X136.352 Y36.136 E5.92931
G1 X136.58 Y37.028 E5.95381
G1 X136.73 Y37.937 E5.97832
G1 X136.806 Y39.238 E6.013
G1 X136.805 Y39.555 E6.02143
G1 X136.762 Y40.475 E6.04594
G1 X136.702 Y40.996 E6.05989
G1 X136.375 Y43.325 E6.12247
G1 X136.091 Y45.826 E6.18945
G1 X135.872 Y48.407 E6.25837
G1 X135.781 Y49.686 E6.29249
G1 X135.676 Y50.601 E6.31699
G1 X135.492 Y51.503 E6.34149
G1 X135.23 Y52.385 E6.36597
G1 X134.893 Y53.242 E6.39047
G1 X134.482 Y54.066 E6.41497
G1 X134.002 Y54.851 E6.43945
G1 X133.455 Y55.592 E6.46396
G1 X132.846 Y56.283 E6.48847
G1 X132.18 Y56.918 E6.51295
G1 X131.461 Y57.493 E6.53745
G1 X130.694 Y58.003 E6.56196
G1 X129.886 Y58.445 E6.58647
G1 X129.044 Y58.815 E6.61094
G1 X128.172 Y59.11 E6.63543
G1 X127.005 Y59.38 E6.6673
G1 X126.505 Y59.466 E6.6808
G1 X123.99 Y59.936 E6.74888
G1 X121.542 Y60.466 E6.81553
G1 X118.474 Y61.231 E6.89966
G1 X117.703 Y61.433 E6.92087
G1 X116.803 Y61.628 E6.94537
G1 X115.89 Y61.744 E6.96986
G1 X115.213 Y61.778 E6.98789
G1 X114.479 Y61.79 E7.00743
G1 X101.138 Y61.787 E7.36241
G1 X100.437 Y61.776 E7.38106
G1 X99.269 Y61.693 E7.41222
G1 X98.071 Y61.541 E7.44435
G1 X97.539 Y61.466 E7.45864
G1 X95.055 Y61.186 E7.52516
G1 X94.031 Y61.1 E7.5525
G1 X93.058 Y61.004 E7.57852
G1 X92.147 Y60.874 E7.603
G1 X91.25 Y60.665 E7.62751
G1 X90.375 Y60.379 E7.652
G1 X89.528 Y60.018 E7.6765
G1 X88.716 Y59.584 E7.701
G1 X87.944 Y59.082 E7.7255
G1 X87.219 Y58.515 E7.74999
G1 X86.545 Y57.888 E7.77449
G1 X85.929 Y57.204 E7.79898
G1 X85.374 Y56.469 E7.82348
G1 X84.886 Y55.689 E7.84797
G1 X84.466 Y54.869 E7.87248
G1 X84.12 Y54.016 E7.89697
G1 X83.848 Y53.136 E7.92148
G1 X83.655 Y52.236 E7.94597
G1 X83.54 Y51.323 E7.97046
G1 X83.508 Y50.762 E7.98541
G1 X83.495 Y50.145 E8.00183
G1 X83.495 Y41.106 E8.24234
G0 F7500 X83.895 Y41.112
G1 F1500 X83.906 Y40.406 E8.26113
G1 X83.96 Y39.505 E8.28515
G1 X84.105 Y38.555 E8.31072
G1 X84.67 Y35.745 E8.38698
G1 X84.867 Y34.693 E8.41546
G1 X85.072 Y33.814 E8.43948
G1 X85.355 Y32.956 E8.46351
G1 X85.712 Y32.127 E8.48753
G1 X86.141 Y31.332 E8.51157
G1 X86.639 Y30.579 E8.53559
G1 X87.202 Y29.872 E8.55964
G1 X87.825 Y29.218 E8.58367
G1 X88.503 Y28.622 E8.60769
G1 X89.231 Y28.088 E8.63171
G1 X90.004 Y27.62 E8.65576
G1 X90.815 Y27.223 E8.67978
G1 X91.658 Y26.899 E8.70381
G1 X92.526 Y26.651 E8.72783
G1 X93.857 Y26.426 E8.76375
G1 X96.188 Y26.188 E8.8261
G1 X97.859 Y25.961 E8.87097
G1 X98.31 Y25.92 E8.88302
G1 X99.259 Y25.795 E8.90849
G1 X100.417 Y25.709 E8.93938
G1 X101.245 Y25.695 E8.96142
G1 X114.556 Y25.698 E9.3156
G1 X115.286 Y25.714 E9.33503
G1 X116.187 Y25.774 E9.35906
G1 X117.079 Y25.913 E9.38308
G1 X118.241 Y26.22 E9.41506
G1 X119.244 Y26.549 E9.44314
G1 X121.754 Y27.338 E9.51315
G1 X124.189 Y28.028 E9.58049
G1 X126.703 Y28.663 E9.64949
G1 X127.896 Y28.934 E9.68204
G1 X128.554 Y29.095 E9.70006
G1 X129.42 Y29.35 E9.72408
G1 X130.26 Y29.682 E9.74812
G1 X131.067 Y30.086 E9.77213
G1 X131.836 Y30.561 E9.79618
G1 X132.559 Y31.101 E9.82019
G1 X133.232 Y31.703 E9.84422
G1 X133.849 Y32.363 E9.86826
G1 X134.406 Y33.074 E9.89229
G1 X134.897 Y33.832 E9.91632
G1 X135.272 Y34.519 E9.93715
G1 X135.683 Y35.432 E9.96379
G1 X135.979 Y36.285 E9.98781
G1 X136.199 Y37.161 E10.01184
G1 X136.341 Y38.053 E10.03588
G1 X136.406 Y39.237 E10.06743
G1 X136.405 Y39.554 E10.07586
G1 X136.362 Y40.456 E10.09989
G1 X136.306 Y40.94 E10.11286
G1 X135.98 Y43.26 E10.17519
G1 X135.69 Y45.819 E10.24372
G1 X135.476 Y48.342 E10.31109
G1 X135.382 Y49.658 E10.3462
G1 X135.278 Y50.555 E10.37023
G1 X135.095 Y51.439 E10.39425
G1 X134.835 Y52.304 E10.41828
G1 X134.499 Y53.142 E10.4423
G1 X134.09 Y53.947 E10.46633
G1 X133.612 Y54.713 E10.49035
G1 X133.068 Y55.434 E10.51439
G1 X132.462 Y56.104 E10.53842
G1 X131.799 Y56.717 E10.56245
G1 X131.085 Y57.27 E10.58648
G1 X130.324 Y57.757 E10.61052
G1 X129.524 Y58.175 E10.63454
G1 X128.689 Y58.521 E10.65859
G1 X127.828 Y58.791 E10.6826
G1 X126.937 Y58.985 E10.70686
G1 X126.495 Y59.061 E10.71879
G1 X123.937 Y59.539 E10.78803
G1 X121.427 Y60.082 E10.85637
G1 X118.373 Y60.844 E10.94012
G1 X117.602 Y61.046 E10.96132
G1 X116.719 Y61.237 E10.98536
G1 X115.823 Y61.348 E11.00939
G1 X115.205 Y61.378 E11.02585
G1 X114.479 Y61.39 E11.04517
G1 X101.144 Y61.387 E11.39999
G1 X100.443 Y61.376 E11.41864
G1 X99.319 Y61.296 E11.44863
G1 X97.603 Y61.072 E11.49467
G1 X95.066 Y60.785 E11.56261
G1 X94.064 Y60.701 E11.58936
G1 X93.098 Y60.606 E11.61519
G1 X92.204 Y60.477 E11.63922
G1 X91.325 Y60.27 E11.66325
G1 X90.468 Y59.986 E11.68728
G1 X89.639 Y59.627 E11.71131
G1 X88.845 Y59.196 E11.73535
G1 X88.093 Y58.696 E11.75938
G1 X87.387 Y58.132 E11.78342
G1 X86.735 Y57.508 E11.80744
G1 X86.14 Y56.829 E11.83146
G1 X85.607 Y56.099 E11.85551
G1 X85.142 Y55.326 E11.87951
G1 X84.746 Y54.514 E11.90355
G1 X84.424 Y53.67 E11.92759
G1 X84.177 Y52.801 E11.95163
G1 X84.009 Y51.914 E11.97565
G1 X83.908 Y50.75 E12.00673
G1 X83.895 Y50.145 E12.02284
G1 X83.895 Y41.112 E12.26319
G1 F1500 E8.26319
;MESH:void_switch-v36.stl
G0 F7500 X93.441 Y51.118
G0 X96.128 Y51.117
G0 X96.787 Y44.157
G0 X97.355 Y42.038
;TYPE:WALL-INNER
G1 F1500 E12.26319
G1 F1125.7 X97.355 Y41.406 E12.2856
G1 X97.042 Y41.509 E12.29728
G1 F1140.7 X96.785 Y41.524 E12.30629
G1 F1151.6 X95.842 Y41.52 E12.33897
G1 F1147.2 X95.556 Y41.444 E12.34926
G1 X95.556 Y42.042 E12.37007
G1 F1145 X96.156 Y42.041 E12.39098
G1 F1136.4 X96.756 Y42.04 E12.41206
G1 F1129.9 X97.356 Y42.038 E12.43325
G0 F7500 X97.821 Y42.629
G1 F1500 X97.821 Y41.015 E12.47619
G1 X97.591 Y40.962 E12.48247
G1 X97.41 Y40.833 E12.48839
G1 X97.228 Y40.962 E12.49432
G1 X96.912 Y41.065 E12.50317
G1 X95.884 Y41.06 E12.53052
G1 X95.567 Y40.977 E12.53924
G1 X95.43 Y40.888 E12.54359
G1 X95.293 Y40.977 E12.54793
G1 X95.095 Y41.019 E12.55332
G1 X95.092 Y42.632 E12.59624
G1 X95.475 Y42.504 E12.60698
G1 X97.44 Y42.504 E12.65927
G1 X97.821 Y42.629 E12.66994
G0 F7500 X98.13 Y43.504
G1 F1119.4 X98.175 Y43.159 E12.68234
G1 F1348.3 X98.221 Y42.814 E12.69265
G1 F1500 X98.221 Y40.725 E12.74823
G1 X98.185 Y40.664 E12.75012
G1 X98.034 Y40.664 E12.75413
G1 X97.768 Y40.603 E12.76139
G1 X97.612 Y40.492 E12.76649
G1 F1405.2 X97.409 Y40.118 E12.77858
G1 X97.208 Y40.492 E12.79064
G1 F1500 X97.051 Y40.603 E12.79575
G1 X96.862 Y40.664 E12.80104
G1 X95.921 Y40.662 E12.82607
G1 X95.731 Y40.612 E12.8313
G1 X95.575 Y40.511 E12.83625
G1 X95.43 Y40.216 E12.84499
G1 X95.284 Y40.511 E12.85375
G1 X95.129 Y40.612 E12.85867
G1 X94.882 Y40.664 E12.86539
G1 X94.73 Y40.664 E12.86944
G1 X94.694 Y40.725 E12.87132
G1 X94.692 Y42.814 E12.9269
G1 F1348.3 X94.738 Y43.159 E12.93721
G1 F1121.5 X94.785 Y43.504 E12.9496
G1 X94.949 Y43.264 E12.95994
G1 F1348.3 X95.113 Y43.024 E12.96855
G1 F1500 X95.475 Y42.904 E12.9787
G1 X97.44 Y42.904 E13.03098
G1 X97.803 Y43.023 E13.04115
G1 F1348.3 X97.966 Y43.263 E13.04973
G1 F1119.4 X98.13 Y43.504 E13.06013
G1 F1500 E9.06013
G0 F7500 X96.787 Y44.157
G0 X96.776 Y50.265
G0 X97.641 Y50.264
;TYPE:WALL-OUTER
G1 F1500 E13.06013
G1 X98.621 Y50.264 E13.0862
G1 X98.621 Y40.618 E13.34286
G1 X98.416 Y40.264 E13.35375
G1 X98.034 Y40.264 E13.36391
G1 X97.893 Y40.207 E13.36796
G1 X97.834 Y40.082 E13.37164
G1 X97.833 Y36.764 E13.45992
G1 X96.985 Y36.764 E13.48249
G1 X96.985 Y40.082 E13.57077
G1 X96.926 Y40.207 E13.57445
G1 X96.82 Y40.261 E13.57762
G1 X95.916 Y40.264 E13.60167
G1 F1263.2 X95.703 Y40.088 E13.6104
G1 F1092.9 X95.703 Y38.462 E13.66978
G1 F1096.9 X95.703 Y36.836 E13.72895
G1 X95.156 Y36.837 E13.74885
G1 X95.156 Y38.463 E13.80801
G1 F1092.9 X95.156 Y40.089 E13.8674
G1 F1263.2 X94.945 Y40.264 E13.87606
G1 F1500 X94.499 Y40.264 E13.88792
G1 X94.294 Y40.618 E13.89881
G1 X94.295 Y50.264 E14.15547
G1 X95.275 Y50.264 E14.18155
G1 X95.275 Y43.504 E14.36142
G1 X95.354 Y43.344 E14.36617
G1 X95.475 Y43.304 E14.36956
G1 X97.44 Y43.304 E14.42184
G1 X97.561 Y43.343 E14.42522
G1 X97.64 Y43.504 E14.43
G1 X97.641 Y50.264 E14.60987
G0 F7500 X98.131 Y49.774
;TYPE:WALL-INNER
G1 F1034.5 X98.131 Y46.639 E14.73082
G1 F1032.7 X98.13 Y43.504 E14.85198
G1 F1500 E10.85198
G0 F7500 X96.787 Y44.157
G0 X96.128 Y44.157
G0 X94.785 Y43.504
G1 F1500 E14.85198
G1 F1034.5 X94.785 Y49.774 E15.09389
G1 F1500 E11.09389
G0 F7500 X96.14 Y49.774
G0 X96.788 Y51.117
G0 X99.474 Y51.117
G0 X99.484 Y40.387
G0 X98.914 Y39.405
G0 X97.409 Y40.118
G1 F1500 E15.09389
G1 F1324.5 X97.409 Y38.653 E15.13804
G1 F1330.4 X97.409 Y37.188 E15.18199
G1 F1500 E11.18199
G0 F7500 X98.698 Y37.187
G0 X99.503 Y37.924
G0 X101.248 Y37.924
G1 F1500 E15.18199
G1 F1077.2 X102.2 Y36.973 E15.23184
G1 X101.248 Y36.973 E15.26712
G1 X101.248 Y37.924 E15.30235
G1 F1500 E11.30235
G0 F7500 X100.819 Y42.958
G1 F1500 E15.30235
G1 F1176.5 X100.909 Y42.723 E15.31089
G1 F1149.4 X101 Y42.488 E15.31964
G1 F1134.2 X101.472 Y42.017 E15.34311
G1 F1158.3 X101.241 Y41.786 E15.35436
G1 F1376.1 X101.109 Y41.388 E15.36652
G1 F1657.5 X101.108 Y40.597 E15.38557
G1 F1666.7 X101.107 Y39.806 E15.40451
G1 F1676 X101.105 Y39.015 E15.42335
G1 F1587.3 X101.258 Y38.59 E15.43471
G1 F1500 X102.866 Y36.982 E15.49522
G1 F1574.8 X103.191 Y36.834 E15.50427
G1 F1662 X103.982 Y36.833 E15.52326
G1 F1671.3 X104.773 Y36.831 E15.54215
G1 F1680.7 X105.564 Y36.829 E15.56094
G1 F1526.7 X105.811 Y36.895 E15.56762
G1 F1282.1 X106.059 Y36.962 E15.57562
G1 F1162.8 X106.293 Y37.196 E15.58698
G1 F1138.5 X106.765 Y36.725 E15.61035
G1 F1156.1 X107.121 Y36.548 E15.62408
G1 F1165 X106.707 Y36.553 E15.63826
G1 F1147.2 X106.293 Y36.559 E15.65267
G1 F1185.8 X106.19 Y36.538 E15.65621
G1 F1324.5 X105.877 Y36.506 E15.66569
G1 F1546.4 X105.564 Y36.473 E15.67381
G1 F1680.7 X104.763 Y36.473 E15.69283
G1 F1671.3 X103.962 Y36.473 E15.71196
G1 F1662 X103.161 Y36.473 E15.7312
G1 F1574.8 X102.664 Y36.495 E15.7438
G1 F1500 X100.77 Y36.495 E15.7942
G1 X100.77 Y38.388 E15.84457
G1 F1542.4 X100.759 Y38.702 E15.8527
G1 F1634.9 X100.747 Y39.016 E15.86037
G1 F1676 X100.747 Y39.816 E15.87942
G1 F1666.7 X100.748 Y40.617 E15.8986
G1 F1657.5 X100.748 Y41.418 E15.91789
G1 F1411.8 X100.812 Y41.915 E15.93206
G1 F1181.1 X100.833 Y42.017 E15.93558
G1 F1134.2 X100.833 Y42.419 E15.94972
G1 F1149.4 X100.826 Y42.689 E15.9591
G1 F1176.5 X100.819 Y42.959 E15.96826
G1 F1500 E11.96826
G0 F7500 X102.395 Y42.958
G0 X107.234 Y47.797
G0 X106.375 Y49.788
G1 F1500 E15.96826
G1 X106.243 Y49.712 E15.97232
G1 X101.568 Y45.036 E16.14825
G1 X101.568 Y49.788 E16.2747
G1 X106.375 Y49.788 E16.4026
G0 F7500 X108.091 Y49.789
G1 F1500 X114.066 Y49.789 E16.56159
G1 X114.066 Y43.816 E16.72052
G1 X113.988 Y43.949 E16.72462
G1 X111.368 Y46.567 E16.82317
G1 X111.02 Y46.744 E16.83356
G1 X110.842 Y47.094 E16.84401
G1 X108.225 Y49.711 E16.94248
G1 X108.091 Y49.789 E16.94661
