;FLAVOR:Marlin
;TIME:2299
;Filament used: 0.497016m
;Layer height: 0.16
;MINX:76.556
;MINY:91.352
;MINZ:0.16
;MAXX:139.403
;MAXY:128.648
;MAXZ:10.56
;Generated with Cura_SteamEngine main
M82 ;absolute extrusion mode
; Ender 3 Custom Start G-code
G92 E0 ; Reset Extruder
G28 ; Home all axes
M104 S120 ; Start heating up the nozzle most of the way
M190 S68.0 ; Start heating the bed, wait until target temperature reached
M109 S248.0 ; Finish heating the nozzle
G1 Z2.0 F3000 ; Move Z Axis up little to prevent scratching of Heat Bed
G1 X0.1 Y20 Z0.3 F5000.0 ; Move to start position
G1 X0.1 Y200.0 Z0.3 F1500.0 E15 ; Draw the first line
G1 X0.4 Y200.0 Z0.3 F5000.0 ; Move to side a little
G1 X0.4 Y20 Z0.3 F1500.0 E30 ; Draw the second line
G92 E0 ; Reset Extruder
G1 Z2.0 F3000 ; Move Z Axis up little to prevent scratching of Heat Bed
G1 X5 Y20 Z0.3 F5000.0 ; Move over to prevent blob squish
G92 E0
G92 E0
G1 F1500 E-3.5
;LAYER_COUNT:66
;LAYER:0
M107
G0 F6000 X81.252 Y94.509 Z0.16
G0 X77.469 Y101.265
;TYPE:SKIRT
G1 F1500 E0
G1 F600 X77.544 Y100.868 E0.01075
G1 X77.757 Y99.955 E0.0357
G1 X78.048 Y99.063 E0.06066
G1 X78.413 Y98.199 E0.08562
G1 X78.85 Y97.369 E0.11058
G1 X79.357 Y96.58 E0.13553
G1 X79.929 Y95.837 E0.16048
G1 X80.562 Y95.145 E0.18544
G1 X81.252 Y94.509 E0.2104
G1 X81.993 Y93.935 E0.23534
G1 X82.781 Y93.426 E0.26031
G1 X83.609 Y92.986 E0.28525
G1 X84.471 Y92.618 E0.31019
G1 X85.362 Y92.324 E0.33516
G1 X86.275 Y92.108 E0.36012
G1 X87.203 Y91.97 E0.38509
G1 X88.025 Y91.915 E0.40701
G1 X88.692 Y91.9 E0.42476
G1 X93.586 Y91.902 E0.55498
G1 X96.141 Y91.83 E0.62299
G1 X98.6 Y91.69 E0.68853
G1 X101.821 Y91.408 E0.77456
G1 X102.597 Y91.368 E0.79523
G1 X103.619 Y91.352 E0.82243
G1 X116.705 Y91.355 E1.17062
G1 X117.405 Y91.366 E1.18925
G1 X118.341 Y91.421 E1.2142
G1 X119.269 Y91.555 E1.23915
G1 X120.337 Y91.812 E1.26838
G1 X121.484 Y92.151 E1.3002
G1 X122.311 Y92.409 E1.32325
G1 X124.729 Y93.091 E1.3901
G1 X127.191 Y93.712 E1.45766
G1 X130.654 Y94.475 E1.55202
G1 X131.56 Y94.715 E1.57695
G1 X132.443 Y95.032 E1.60192
G1 X133.295 Y95.423 E1.62686
G1 X134.112 Y95.886 E1.65185
G1 X134.885 Y96.416 E1.67679
G1 X135.611 Y97.01 E1.70175
G1 X136.283 Y97.663 E1.72668
G1 X136.898 Y98.372 E1.75165
G1 X137.45 Y99.13 E1.7766
G1 X137.937 Y99.927 E1.80145
G1 X138.41 Y100.857 E1.82922
G1 X138.762 Y101.726 E1.85416
G1 X139.038 Y102.622 E1.87911
G1 X139.238 Y103.539 E1.90408
G1 X139.358 Y104.469 E1.92903
G1 X139.397 Y105.218 E1.94899
G1 X139.403 Y105.551 E1.95785
G1 X139.38 Y106.488 E1.98279
G1 X139.316 Y107.143 E2.0003
G1 X139.231 Y107.802 E2.01798
G1 X139.004 Y109.398 E2.06088
G1 X138.717 Y111.919 E2.12839
G1 X138.505 Y114.41 E2.19491
G1 X138.44 Y115.551 E2.22532
G1 X138.378 Y116.412 E2.24829
G1 X138.27 Y117.344 E2.27325
G1 X138.084 Y118.263 E2.2982
G1 X137.82 Y119.163 E2.32316
G1 X137.481 Y120.037 E2.3481
G1 X137.068 Y120.879 E2.37305
G1 X136.585 Y121.683 E2.39801
G1 X136.036 Y122.443 E2.42296
G1 X135.423 Y123.154 E2.44794
G1 X134.752 Y123.809 E2.47289
G1 X134.028 Y124.405 E2.49784
G1 X133.256 Y124.937 E2.52278
G1 X132.441 Y125.402 E2.54775
G1 X131.59 Y125.795 E2.57269
G1 X130.708 Y126.115 E2.59766
G1 X129.802 Y126.358 E2.62262
G1 X129.127 Y126.487 E2.6409
G1 X126.654 Y126.879 E2.70753
G1 X124.242 Y127.33 E2.77282
G1 X121.747 Y127.869 E2.84074
G1 X121.239 Y127.996 E2.85467
G1 X121.032 Y128.038 E2.86029
G1 X119.719 Y128.347 E2.89618
G1 X118.798 Y128.523 E2.92113
G1 X117.865 Y128.619 E2.94609
G1 X117.389 Y128.637 E2.95876
G1 X116.671 Y128.648 E2.97787
G1 X103.331 Y128.645 E3.33282
G1 X102.63 Y128.634 E3.35147
G1 X101.418 Y128.547 E3.38381
G1 X100.349 Y128.411 E3.41248
G1 X97.777 Y128.118 E3.48136
G1 X95.224 Y127.902 E3.54953
G1 X92.76 Y127.762 E3.6152
G1 X90.173 Y127.689 E3.68406
G1 X87.491 Y127.671 E3.75543
G1 X86.554 Y127.624 E3.78039
G1 X85.624 Y127.498 E3.80536
G1 X84.709 Y127.294 E3.83031
G1 X83.815 Y127.012 E3.85525
G1 X82.947 Y126.655 E3.88022
G1 X82.114 Y126.225 E3.90516
G1 X81.32 Y125.726 E3.93012
G1 X80.571 Y125.161 E3.95508
G1 X79.873 Y124.535 E3.98003
G1 X79.231 Y123.851 E4.00499
G1 X78.65 Y123.115 E4.02994
G1 X78.134 Y122.332 E4.05489
G1 X77.686 Y121.508 E4.07985
G1 X77.309 Y120.649 E4.10481
G1 X77.008 Y119.761 E4.12976
G1 X76.783 Y118.85 E4.15472
G1 X76.637 Y117.924 E4.17967
G1 X76.57 Y117.01 E4.20405
G1 X76.556 Y116.38 E4.22082
G1 X76.556 Y107.736 E4.45082
G1 X76.567 Y107.03 E4.46961
G1 X76.622 Y106.093 E4.49458
G1 X76.751 Y105.192 E4.5188
G1 X76.936 Y104.201 E4.54563
G1 X77.126 Y103.256 E4.57127
G1 X77.469 Y101.265 E4.62503
G1 F1500 E1.12503
G0 F6000 X77.356 Y107.748
G1 F1500 E4.62503
G1 F600 X77.367 Y107.042 E4.64382
G1 X77.421 Y106.141 E4.66784
G1 X77.538 Y105.338 E4.68943
G1 X77.721 Y104.359 E4.71593
G1 X77.905 Y103.446 E4.74071
G1 X78.255 Y101.414 E4.79557
G1 X78.33 Y101.017 E4.80632
G1 X78.537 Y100.137 E4.83038
G1 X78.821 Y99.28 E4.8544
G1 X79.179 Y98.451 E4.87843
G1 X79.61 Y97.657 E4.90247
G1 X80.108 Y96.904 E4.92649
G1 X80.672 Y96.199 E4.95051
G1 X81.296 Y95.546 E4.97454
G1 X81.975 Y94.95 E4.99858
G1 X82.704 Y94.417 E5.02261
G1 X83.477 Y93.951 E5.04663
G1 X84.289 Y93.555 E5.07067
G1 X85.132 Y93.232 E5.09469
G1 X86.001 Y92.985 E5.11873
G1 X86.888 Y92.816 E5.14275
G1 X88.049 Y92.715 E5.17376
G1 X88.692 Y92.7 E5.19087
G1 X93.607 Y92.702 E5.32165
G1 X96.139 Y92.63 E5.38905
G1 X98.681 Y92.486 E5.4568
G1 X101.89 Y92.205 E5.54251
G1 X102.61 Y92.167 E5.56169
G1 X103.446 Y92.153 E5.58394
G1 X116.692 Y92.155 E5.93639
G1 X117.392 Y92.166 E5.95502
G1 X118.294 Y92.22 E5.97906
G1 X119.187 Y92.354 E6.00309
G1 X120.111 Y92.58 E6.0284
G1 X121.245 Y92.915 E6.05986
G1 X122.065 Y93.171 E6.08272
G1 X124.527 Y93.866 E6.15079
G1 X126.994 Y94.487 E6.21848
G1 X130.482 Y95.256 E6.31352
G1 X131.354 Y95.489 E6.33754
G1 X132.203 Y95.799 E6.36158
G1 X133.02 Y96.182 E6.38559
G1 X133.801 Y96.636 E6.40963
G1 X134.538 Y97.157 E6.43365
G1 X135.227 Y97.742 E6.4577
G1 X135.861 Y98.385 E6.48172
G1 X136.436 Y99.082 E6.50576
G1 X137.226 Y100.29 E6.54417
G1 X137.696 Y101.219 E6.57187
G1 X138.03 Y102.058 E6.5959
G1 X138.29 Y102.923 E6.61993
G1 X138.471 Y103.808 E6.64397
G1 X138.574 Y104.705 E6.66799
G1 X138.597 Y105.232 E6.68203
G1 X138.603 Y105.565 E6.69089
G1 X138.58 Y106.468 E6.71493
G1 X138.523 Y107.041 E6.73025
G1 X138.439 Y107.689 E6.74763
G1 X138.21 Y109.298 E6.79088
G1 X137.922 Y111.833 E6.85876
G1 X137.709 Y114.333 E6.92553
G1 X137.652 Y115.339 E6.95234
G1 X137.58 Y116.355 E6.97944
G1 X137.475 Y117.252 E7.00347
G1 X137.291 Y118.136 E7.02749
G1 X137.03 Y119 E7.05151
G1 X136.694 Y119.838 E7.07553
G1 X136.284 Y120.643 E7.09957
G1 X135.805 Y121.409 E7.12361
G1 X135.261 Y122.129 E7.14762
G1 X134.654 Y122.799 E7.17168
G1 X133.991 Y123.412 E7.1957
G1 X133.276 Y123.964 E7.21974
G1 X132.515 Y124.45 E7.24376
G1 X131.714 Y124.867 E7.26779
G1 X130.88 Y125.212 E7.29181
G1 X130.018 Y125.482 E7.31584
G1 X129.002 Y125.696 E7.34347
G1 X126.56 Y126.083 E7.40926
G1 X124.069 Y126.549 E7.47669
G1 X121.571 Y127.089 E7.54469
G1 X121.045 Y127.22 E7.55911
G1 X120.832 Y127.263 E7.56489
G1 X119.536 Y127.568 E7.60032
G1 X118.649 Y127.736 E7.62434
G1 X117.376 Y127.838 E7.65832
G1 X116.847 Y127.847 E7.6724
G1 X103.344 Y127.845 E8.03169
G1 X102.643 Y127.834 E8.05034
G1 X101.518 Y127.754 E8.08035
G1 X100.374 Y127.609 E8.11104
G1 X97.866 Y127.323 E8.1782
G1 X95.301 Y127.106 E8.2467
G1 X92.759 Y126.962 E8.31444
G1 X90.202 Y126.889 E8.38251
G1 X87.496 Y126.871 E8.45451
G1 X86.594 Y126.825 E8.47854
G1 X85.7 Y126.699 E8.50256
G1 X84.82 Y126.495 E8.5266
G1 X83.962 Y126.213 E8.55063
G1 X83.132 Y125.857 E8.57466
G1 X82.337 Y125.429 E8.59869
G1 X81.583 Y124.932 E8.62271
G1 X80.875 Y124.371 E8.64675
G1 X80.22 Y123.749 E8.67078
G1 X79.623 Y123.072 E8.6948
G1 X79.088 Y122.344 E8.71884
G1 X78.62 Y121.572 E8.74286
G1 X78.221 Y120.761 E8.76691
G1 X77.896 Y119.919 E8.79093
G1 X77.647 Y119.051 E8.81495
G1 X77.475 Y118.164 E8.83899
G1 X77.37 Y116.985 E8.87049
G1 X77.356 Y116.38 E8.88659
G1 X77.356 Y107.748 E9.11627
G0 F6000 X76.956 Y107.742
G1 F600 X76.967 Y107.036 E9.13506
G1 X77.022 Y106.117 E9.15956
G1 X77.144 Y105.265 E9.18246
G1 X77.328 Y104.28 E9.20912
G1 X77.518 Y103.337 E9.23472
G1 X77.862 Y101.339 E9.28866
G1 X77.937 Y100.942 E9.29941
G1 X78.147 Y100.046 E9.3239
G1 X78.434 Y99.171 E9.3484
G1 X78.796 Y98.325 E9.37289
G1 X79.23 Y97.513 E9.39738
G1 X79.733 Y96.741 E9.4219
G1 X80.301 Y96.017 E9.44639
G1 X80.929 Y95.344 E9.47088
G1 X81.614 Y94.728 E9.49539
G1 X82.349 Y94.174 E9.51988
G1 X83.13 Y93.686 E9.54439
G1 X83.95 Y93.268 E9.56888
G1 X84.803 Y92.922 E9.59337
G1 X85.683 Y92.652 E9.61786
G1 X86.583 Y92.459 E9.64235
G1 X87.497 Y92.345 E9.66686
G1 X88.037 Y92.315 E9.68125
G1 X88.692 Y92.3 E9.69869
G1 X93.597 Y92.302 E9.8292
G1 X96.139 Y92.23 E9.89686
G1 X98.624 Y92.089 E9.96309
G1 X101.855 Y91.806 E10.04939
G1 X102.604 Y91.767 E10.06935
G1 X103.44 Y91.753 E10.09159
G1 X116.699 Y91.755 E10.44439
G1 X117.399 Y91.766 E10.46302
G1 X118.318 Y91.821 E10.48752
G1 X119.228 Y91.955 E10.51199
G1 X120.224 Y92.196 E10.53926
G1 X121.365 Y92.533 E10.57091
G1 X122.198 Y92.793 E10.59413
G1 X124.627 Y93.479 E10.66129
G1 X127.073 Y94.095 E10.72841
G1 X130.568 Y94.865 E10.82363
G1 X131.457 Y95.102 E10.84811
G1 X132.323 Y95.416 E10.87262
G1 X133.158 Y95.803 E10.89711
G1 X133.957 Y96.261 E10.92162
G1 X134.713 Y96.787 E10.94612
G1 X135.42 Y97.376 E10.97061
G1 X136.073 Y98.025 E10.9951
G1 X136.668 Y98.727 E11.01959
G1 X137.2 Y99.479 E11.0441
G1 X137.636 Y100.217 E11.06691
G1 X138.053 Y101.038 E11.09141
G1 X138.396 Y101.892 E11.1159
G1 X138.664 Y102.773 E11.1404
G1 X138.855 Y103.674 E11.16491
G1 X138.967 Y104.588 E11.18941
G1 X138.997 Y105.225 E11.20638
G1 X139.003 Y105.558 E11.21524
G1 X138.98 Y106.478 E11.23972
G1 X138.92 Y107.092 E11.25614
G1 X138.856 Y107.593 E11.26958
G1 X138.604 Y109.368 E11.31728
G1 X138.323 Y111.841 E11.38351
G1 X138.106 Y114.389 E11.45155
G1 X138.041 Y115.522 E11.48175
G1 X137.979 Y116.383 E11.50472
G1 X137.873 Y117.298 E11.52922
G1 X137.688 Y118.2 E11.55373
G1 X137.425 Y119.082 E11.57821
G1 X137.087 Y119.939 E11.60273
G1 X136.676 Y120.762 E11.6272
G1 X136.195 Y121.547 E11.6517
G1 X135.648 Y122.288 E11.67621
G1 X135.038 Y122.978 E11.70071
G1 X134.371 Y123.612 E11.7252
G1 X133.652 Y124.186 E11.74968
G1 X132.885 Y124.696 E11.77419
G1 X132.077 Y125.137 E11.79868
G1 X131.234 Y125.507 E11.82318
G1 X130.362 Y125.802 E11.84767
G1 X129.065 Y126.091 E11.88303
G1 X126.625 Y126.478 E11.94876
G1 X124.156 Y126.939 E12.01559
G1 X121.656 Y127.48 E12.08365
G1 X121.142 Y127.608 E12.09775
G1 X119.628 Y127.958 E12.1391
G1 X118.723 Y128.129 E12.1636
G1 X117.382 Y128.237 E12.1994
G1 X116.671 Y128.248 E12.21832
G1 X103.338 Y128.245 E12.57309
G1 X102.637 Y128.234 E12.59174
G1 X101.468 Y128.151 E12.62292
G1 X100.357 Y128.01 E12.65272
G1 X97.789 Y127.718 E12.72149
G1 X95.28 Y127.505 E12.78849
G1 X92.76 Y127.362 E12.85565
G1 X90.187 Y127.289 E12.92414
G1 X87.493 Y127.271 E12.99583
G1 X86.574 Y127.225 E13.02031
G1 X85.662 Y127.099 E13.04481
G1 X84.764 Y126.894 E13.06932
G1 X83.888 Y126.613 E13.09379
G1 X83.039 Y126.256 E13.1183
G1 X82.224 Y125.827 E13.14281
G1 X81.45 Y125.329 E13.1673
G1 X80.722 Y124.766 E13.19178
G1 X80.045 Y124.142 E13.21628
G1 X79.425 Y123.461 E13.24079
G1 X78.867 Y122.729 E13.26528
G1 X78.374 Y121.951 E13.28978
G1 X77.95 Y121.134 E13.31428
G1 X77.599 Y120.283 E13.33877
G1 X77.323 Y119.404 E13.36328
G1 X77.125 Y118.505 E13.38778
G1 X77.005 Y117.593 E13.41225
G1 X76.97 Y116.998 E13.42811
G1 X76.956 Y116.38 E13.44456
G1 X76.956 Y107.742 E13.6744
G1 F1500 E10.1744
;MESH:void_switch-v51-stem.stl(1)
G0 F6000 X90.882 Y108.66
;TYPE:WALL-INNER
G1 F1500 E13.6744
G1 F600 X90.882 Y107.65 E13.70128
G1 X90.376 Y107.8 E13.71532
G1 X89.397 Y107.8 E13.74137
G1 X88.955 Y107.699 E13.75343
G1 X88.955 Y108.66 E13.779
G1 X90.882 Y108.66 E13.83028
G0 F6000 X91.282 Y109.186
G1 F600 X91.282 Y107.471 E13.87591
G1 X91.212 Y107.351 E13.87961
G1 X91.052 Y107.298 E13.88409
G1 X90.871 Y107.169 E13.89001
G1 X90.689 Y107.298 E13.89594
G1 X90.356 Y107.395 E13.90517
G1 X89.408 Y107.4 E13.93039
G1 X89.027 Y107.313 E13.94079
G1 X88.89 Y107.224 E13.94514
G1 X88.626 Y107.351 E13.95294
G1 X88.556 Y107.471 E13.95663
G1 X88.553 Y109.188 E14.00232
G1 X88.936 Y109.06 E14.01306
G1 X90.902 Y109.06 E14.06537
G1 X91.282 Y109.186 E14.07603
G0 F6000 X91.592 Y110.06
G1 F448.6 X91.637 Y109.715 E14.08841
G1 F539.3 X91.682 Y109.37 E14.09871
G1 F600 X91.682 Y107.364 E14.15208
G1 X91.468 Y106.996 E14.16341
G1 X91.229 Y106.939 E14.16995
G1 X91.073 Y106.828 E14.17504
G1 F562.1 X90.87 Y106.454 E14.18713
G1 X90.669 Y106.828 E14.19919
G1 F600 X90.512 Y106.939 E14.20431
G1 X90.312 Y106.997 E14.20985
G1 X89.419 Y107 E14.23361
G1 X89.191 Y106.948 E14.23983
G1 X89.035 Y106.847 E14.24478
G1 X88.89 Y106.554 E14.25347
G1 X88.745 Y106.847 E14.26217
G1 X88.548 Y106.965 E14.26828
G1 X88.369 Y106.996 E14.27312
G1 X88.156 Y107.364 E14.28443
G1 X88.153 Y109.37 E14.33781
G1 F539.3 X88.199 Y109.715 E14.34811
G1 F448.6 X88.246 Y110.06 E14.3605
G1 X88.41 Y109.82 E14.37085
G1 F539.3 X88.574 Y109.58 E14.37945
G1 F600 X88.936 Y109.46 E14.3896
G1 X90.902 Y109.46 E14.44191
G1 X91.263 Y109.579 E14.45202
G1 F539.3 X91.427 Y109.819 E14.46063
G1 F448.6 X91.592 Y110.06 E14.47102
G1 F1500 E10.97102
G0 F6000 X92.082 Y116.48
;TYPE:WALL-OUTER
G1 F1500 E14.47102
G1 F600 X92.082 Y107.256 E14.71646
G1 X91.701 Y106.6 E14.73664
G1 X91.406 Y106.58 E14.74451
G1 X91.295 Y106.418 E14.74973
G1 X91.294 Y103.1 E14.83802
G1 X90.446 Y103.1 E14.86058
G1 X90.446 Y106.418 E14.94887
G1 X90.387 Y106.543 E14.95255
G1 X90.268 Y106.599 E14.95605
G1 X89.376 Y106.6 E14.97978
G1 F506.3 X89.163 Y106.424 E14.98849
G1 F438 X89.163 Y103.173 E15.107
G1 F438.8 X88.617 Y103.173 E15.12687
G1 F438 X88.617 Y106.424 E15.24538
G1 F506.3 X88.412 Y106.589 E15.25368
G1 F600 X88.136 Y106.6 E15.26102
G1 X87.756 Y107.256 E15.2812
G1 X87.756 Y116.48 E15.52663
G1 X88.736 Y116.48 E15.55271
G1 X88.736 Y110.06 E15.72353
G1 X88.815 Y109.9 E15.72828
G1 X88.936 Y109.86 E15.73167
G1 X90.902 Y109.86 E15.78398
G1 X91.023 Y109.899 E15.78736
G1 X91.102 Y110.06 E15.79214
G1 X91.102 Y116.48 E15.96296
G1 X92.082 Y116.48 E15.98904
G0 F6000 X91.592 Y115.99
;TYPE:WALL-INNER
G1 F413.8 X91.592 Y110.06 E16.21782
G1 F1500 E12.71782
G0 F6000 X88.246 Y110.06
G1 F1500 E16.21782
G1 F413.8 X88.246 Y115.99 E16.44661
G1 F1500 E12.94661
G0 F6000 X90.87 Y106.454
G1 F1500 E16.44661
G1 F529.8 X90.87 Y104.989 E16.49076
G1 F532.2 X90.87 Y103.524 E16.53471
G1 F1500 E13.03471
G0 F6000 X90.449 Y108.227
;TYPE:SKIN
G1 F1500 E16.53471
G1 F442 X89.385 Y108.23 E16.57314
G1 F1500 E13.07314
;MESH:void_switch-v51-stem.stl
G0 F6000 X97.782 Y108.66
;TYPE:WALL-INNER
G1 F1500 E16.57314
G1 F600 X97.782 Y107.65 E16.60002
G1 X97.276 Y107.8 E16.61406
G1 X96.297 Y107.8 E16.64011
G1 X95.855 Y107.699 E16.65217
G1 X95.855 Y108.66 E16.67774
G1 X97.782 Y108.66 E16.72902
G0 F6000 X98.182 Y109.186
G1 F600 X98.182 Y107.471 E16.77465
G1 X98.112 Y107.351 E16.77835
G1 X97.952 Y107.298 E16.78283
G1 X97.771 Y107.169 E16.78875
G1 X97.589 Y107.298 E16.79468
G1 X97.256 Y107.395 E16.80391
G1 X96.308 Y107.4 E16.82914
G1 X95.927 Y107.313 E16.83953
G1 X95.79 Y107.224 E16.84388
G1 X95.526 Y107.351 E16.85168
G1 X95.456 Y107.471 E16.85537
G1 X95.453 Y109.188 E16.90106
G1 X95.836 Y109.06 E16.9118
G1 X97.802 Y109.06 E16.96412
G1 X98.182 Y109.186 E16.97477
G0 F6000 X98.492 Y110.06
G1 F448.6 X98.537 Y109.715 E16.98715
G1 F539.3 X98.582 Y109.37 E16.99745
G1 F600 X98.582 Y107.364 E17.05083
G1 X98.368 Y106.996 E17.06215
G1 X98.129 Y106.939 E17.06869
G1 X97.973 Y106.828 E17.07378
G1 F562.1 X97.77 Y106.454 E17.08587
G1 X97.569 Y106.828 E17.09793
G1 F600 X97.412 Y106.939 E17.10305
G1 X97.212 Y106.997 E17.10859
G1 X96.319 Y107 E17.13235
G1 X96.091 Y106.948 E17.13857
G1 X95.935 Y106.847 E17.14352
G1 X95.79 Y106.554 E17.15222
G1 X95.645 Y106.847 E17.16091
G1 X95.448 Y106.965 E17.16702
G1 X95.269 Y106.996 E17.17186
G1 X95.056 Y107.364 E17.18317
G1 X95.053 Y109.37 E17.23655
G1 F539.3 X95.099 Y109.715 E17.24685
G1 F448.6 X95.146 Y110.06 E17.25924
G1 X95.31 Y109.82 E17.26959
G1 F539.3 X95.474 Y109.58 E17.27819
G1 F600 X95.836 Y109.46 E17.28834
G1 X97.802 Y109.46 E17.34065
G1 X98.163 Y109.579 E17.35076
