;FLAVOR:Marlin
;TIME:1539
;Filament used: 0.403076m
;Layer height: 0.16
;MINX:83.095
;MINY:91.353
;MINZ:0.16
;MAXX:137.206
;MAXY:128.648
;MAXZ:9.92
;Generated with Cura_SteamEngine main
M82 ;absolute extrusion mode
; Ender 3 Custom Start G-code
G92 E0 ; Reset Extruder
G28 ; Home all axes
M104 S120 ; Start heating up the nozzle most of the way
M190 S68.0 ; Start heating the bed, wait until target temperature reached
M109 S250.0 ; Finish heating the nozzle
G1 Z2.0 F3000 ; Move Z Axis up little to prevent scratching of Heat Bed
G1 X0.1 Y20 Z0.3 F5000.0 ; Move to start position
G1 X0.1 Y200.0 Z0.3 F1500.0 E15 ; Draw the first line
G1 X0.4 Y200.0 Z0.3 F5000.0 ; Move to side a little
G1 X0.4 Y20 Z0.3 F1500.0 E30 ; Draw the second line
G92 E0 ; Reset Extruder
G1 Z2.0 F3000 ; Move Z Axis up little to prevent scratching of Heat Bed
G1 X5 Y20 Z0.3 F5000.0 ; Move over to prevent blob squish
G92 E0
G92 E0
G1 F1500 E-6.5
;LAYER_COUNT:62
;LAYER:0
M107
G0 F6000 X87.78 Y95.092 Z0.16
G0 X83.878 Y102.535
;TYPE:SKIRT
G1 F1500 E0
G1 F900 X84.081 Y101.455 E0.02924
G1 X84.293 Y100.542 E0.05418
G1 X84.582 Y99.649 E0.07915
G1 X84.946 Y98.785 E0.1041
G1 X85.383 Y97.955 E0.12906
G1 X85.888 Y97.165 E0.15401
G1 X86.459 Y96.421 E0.17896
G1 X87.091 Y95.728 E0.20392
G1 X87.78 Y95.092 E0.22887
G1 X88.521 Y94.517 E0.25382
G1 X89.308 Y94.007 E0.27878
G1 X90.136 Y93.565 E0.30375
G1 X90.998 Y93.196 E0.3287
G1 X91.888 Y92.902 E0.35364
G1 X93.009 Y92.646 E0.38424
G1 X93.627 Y92.539 E0.40092
G1 X96.139 Y92.07 E0.46892
G1 X98.318 Y91.606 E0.5282
G1 X99.243 Y91.45 E0.55316
G1 X100.431 Y91.366 E0.58485
G1 X101.24 Y91.353 E0.60638
G1 X114.512 Y91.355 E0.95952
G1 X115.246 Y91.367 E0.97905
G1 X116.182 Y91.423 E1.004
G1 X117.11 Y91.558 E1.02895
G1 X118.023 Y91.771 E1.0539
G1 X118.805 Y92.021 E1.07574
G1 X119.804 Y92.383 E1.10402
G1 X120.867 Y92.784 E1.13425
G1 X123.271 Y93.614 E1.20192
G1 X125.646 Y94.36 E1.26816
G1 X127.203 Y94.801 E1.31121
G1 X127.376 Y94.858 E1.31606
G1 X129.028 Y95.32 E1.3617
G1 X129.92 Y95.611 E1.38667
G1 X130.783 Y95.976 E1.4116
G1 X131.613 Y96.414 E1.43657
G1 X132.402 Y96.921 E1.46153
G1 X133.145 Y97.494 E1.48649
G1 X134.192 Y98.491 E1.52496
G1 X134.878 Y99.298 E1.55315
G1 X135.423 Y100.062 E1.57812
G1 X135.901 Y100.869 E1.60307
G1 X136.309 Y101.713 E1.62802
G1 X136.643 Y102.59 E1.65299
G1 X136.901 Y103.491 E1.67792
G1 X137.081 Y104.412 E1.70289
G1 X137.182 Y105.344 E1.72784
G1 X137.206 Y106.094 E1.7478
G1 X137.205 Y106.468 E1.75776
G1 X137.162 Y107.405 E1.78271
G1 X137.071 Y108.149 E1.80266
G1 X136.654 Y111.048 E1.88059
G1 X136.37 Y113.542 E1.94738
G1 X136.165 Y115.888 E2.01004
G1 X136.044 Y116.818 E2.03499
G1 X135.844 Y117.734 E2.05994
G1 X135.567 Y118.63 E2.08489
G1 X135.214 Y119.499 E2.10985
G1 X134.789 Y120.335 E2.13481
G1 X134.294 Y121.131 E2.15975
G1 X133.733 Y121.883 E2.18471
G1 X133.109 Y122.584 E2.20968
G1 X132.429 Y123.229 E2.23462
G1 X131.696 Y123.814 E2.25957
G1 X130.916 Y124.335 E2.28453
G1 X130.094 Y124.787 E2.30949
G1 X129.237 Y125.167 E2.33444
G1 X128.35 Y125.473 E2.3594
G1 X127.683 Y125.65 E2.37777
G1 X126.891 Y125.833 E2.39939
G1 X125.754 Y126.08 E2.43035
G1 X123.319 Y126.68 E2.49708
G1 X120.867 Y127.358 E2.56477
G1 X118.974 Y127.944 E2.6175
G1 X118.165 Y128.184 E2.63995
G1 X117.255 Y128.412 E2.66492
G1 X116.329 Y128.562 E2.68988
G1 X115.234 Y128.636 E2.71908
G1 X114.479 Y128.648 E2.73917
G1 X101.131 Y128.645 E3.09434
G1 X100.431 Y128.634 E3.11296
G1 X99.495 Y128.579 E3.13791
G1 X98.599 Y128.451 E3.16199
G1 X97.488 Y128.245 E3.19206
G1 X96.723 Y128.093 E3.21281
G1 X94.244 Y127.67 E3.27973
G1 X93.344 Y127.542 E3.30392
G1 X92.396 Y127.393 E3.32945
G1 X91.477 Y127.208 E3.35439
G1 X90.576 Y126.945 E3.37937
G1 X89.702 Y126.607 E3.4043
G1 X88.859 Y126.195 E3.42927
G1 X88.054 Y125.713 E3.45423
G1 X87.294 Y125.164 E3.47918
G1 X86.583 Y124.553 E3.50412
G1 X85.926 Y123.883 E3.52909
G1 X85.329 Y123.16 E3.55404
G1 X84.796 Y122.388 E3.579
G1 X84.331 Y121.574 E3.60395
G1 X83.936 Y120.723 E3.62891
G1 X83.616 Y119.842 E3.65385
G1 X83.371 Y118.936 E3.67882
G1 X83.205 Y118.013 E3.70378
G1 X83.109 Y116.843 E3.73501
G1 X83.095 Y116.215 E3.75173
G1 X83.095 Y108.01 E3.97005
G1 X83.106 Y107.304 E3.98883
G1 X83.161 Y106.367 E4.01381
G1 X83.321 Y105.308 E4.04231
G1 X83.878 Y102.535 E4.11756
G1 F1500 E-2.38244
G0 F6000 X83.895 Y108.022
G1 F1500 E4.11756
G1 F900 X83.906 Y107.316 E4.13635
G1 X83.96 Y106.415 E4.16037
G1 X84.105 Y105.465 E4.18594
G1 X84.667 Y102.668 E4.26185
G1 X84.867 Y101.603 E4.29068
G1 X85.073 Y100.723 E4.31473
G1 X85.355 Y99.866 E4.33874
G1 X85.713 Y99.036 E4.36279
G1 X86.142 Y98.242 E4.3868
G1 X86.64 Y97.488 E4.41085
G1 X87.203 Y96.782 E4.43487
G1 X87.826 Y96.128 E4.45891
G1 X88.504 Y95.532 E4.48293
G1 X89.233 Y94.998 E4.50697
G1 X90.005 Y94.531 E4.53098
G1 X90.817 Y94.134 E4.55503
G1 X91.66 Y93.81 E4.57906
G1 X92.528 Y93.562 E4.60308
G1 X93.146 Y93.435 E4.61987
G1 X93.676 Y93.343 E4.63418
G1 X96.326 Y92.848 E4.70591
G1 X98.484 Y92.389 E4.76461
G1 X99.375 Y92.24 E4.78865
G1 X100.444 Y92.166 E4.81716
G1 X101.419 Y92.152 E4.84311
G1 X114.499 Y92.155 E5.19114
G1 X115.233 Y92.167 E5.21068
G1 X116.134 Y92.222 E5.23469
G1 X117.027 Y92.356 E5.25872
G1 X117.905 Y92.569 E5.28276
G1 X118.533 Y92.773 E5.30033
G1 X119.388 Y93.082 E5.32452
G1 X120.597 Y93.538 E5.3589
G1 X122.981 Y94.361 E5.42601
G1 X125.408 Y95.124 E5.4937
G1 X126.985 Y95.57 E5.53731
G1 X127.153 Y95.626 E5.54202
G1 X128.813 Y96.09 E5.58788
G1 X129.671 Y96.372 E5.61192
G1 X130.501 Y96.728 E5.63595
G1 X131.296 Y97.156 E5.65997
G1 X132.05 Y97.653 E5.684
G1 X132.757 Y98.215 E5.70803
G1 X133.611 Y99.042 E5.73966
G1 X134.268 Y99.817 E5.7667
G1 X134.789 Y100.554 E5.79071
G1 X135.243 Y101.335 E5.81475
G1 X135.626 Y102.153 E5.83878
G1 X135.935 Y103.002 E5.86282
G1 X136.168 Y103.874 E5.88684
G1 X136.323 Y104.764 E5.91088
G1 X136.406 Y106.092 E5.94628
G1 X136.405 Y106.466 E5.95623
G1 X136.363 Y107.368 E5.98026
G1 X136.281 Y108.025 E5.99788
G1 X135.865 Y110.913 E6.07551
G1 X135.57 Y113.499 E6.14477
G1 X135.368 Y115.818 E6.20671
G1 X135.25 Y116.714 E6.23075
G1 X135.053 Y117.595 E6.25477
G1 X134.779 Y118.455 E6.27879
G1 X134.43 Y119.288 E6.30282
G1 X134.008 Y120.087 E6.32686
G1 X133.518 Y120.845 E6.35088
G1 X132.962 Y121.557 E6.37492
G1 X132.346 Y122.217 E6.39894
G1 X131.674 Y122.82 E6.42296
G1 X130.95 Y123.361 E6.44701
G1 X130.182 Y123.836 E6.47104
G1 X129.375 Y124.241 E6.49506
G1 X128.535 Y124.574 E6.51911
G1 X127.503 Y124.87 E6.54767
G1 X126.575 Y125.084 E6.57301
G1 X125.544 Y125.307 E6.60108
G1 X123.125 Y125.904 E6.66738
G1 X120.641 Y126.591 E6.73595
G1 X118.746 Y127.177 E6.78873
G1 X117.937 Y127.417 E6.81118
G1 X117.061 Y127.635 E6.8352
G1 X116.168 Y127.775 E6.85926
G1 X115.22 Y127.836 E6.88453
G1 X114.479 Y127.848 E6.90425
G1 X101.144 Y127.845 E7.25907
G1 X100.444 Y127.834 E7.2777
G1 X99.542 Y127.78 E7.30174
G1 X98.744 Y127.664 E7.3232
G1 X97.633 Y127.458 E7.35326
G1 X96.912 Y127.315 E7.37282
G1 X94.347 Y126.877 E7.44206
G1 X93.468 Y126.751 E7.46569
G1 X92.52 Y126.602 E7.49122
G1 X91.635 Y126.423 E7.51525
G1 X90.769 Y126.166 E7.53928
G1 X89.93 Y125.833 E7.5633
G1 X89.123 Y125.427 E7.58734
G1 X88.355 Y124.952 E7.61137
G1 X87.633 Y124.41 E7.63539
G1 X86.96 Y123.807 E7.65943
G1 X86.344 Y123.146 E7.68347
G1 X85.789 Y122.434 E7.70749
G1 X85.299 Y121.675 E7.73153
G1 X84.878 Y120.877 E7.75554
G1 X84.53 Y120.043 E7.77958
G1 X84.256 Y119.183 E7.8036
G1 X84.06 Y118.301 E7.82764
G1 X83.942 Y117.406 E7.85166
G1 X83.908 Y116.82 E7.86728
G1 X83.895 Y116.215 E7.88338
G1 X83.895 Y108.022 E8.10138
G0 F6000 X83.495 Y108.016
G1 F900 X83.506 Y107.31 E8.12017
G1 X83.561 Y106.391 E8.14467
G1 X83.713 Y105.386 E8.17171
G1 X84.274 Y102.594 E8.24749
G1 X84.474 Y101.529 E8.27632
G1 X84.683 Y100.632 E8.30083
G1 X84.969 Y99.757 E8.32532
G1 X85.33 Y98.91 E8.34982
G1 X85.763 Y98.098 E8.3743
G1 X86.264 Y97.326 E8.39879
G1 X86.831 Y96.6 E8.4233
G1 X87.459 Y95.927 E8.4478
G1 X88.143 Y95.31 E8.47231
G1 X88.877 Y94.756 E8.49677
G1 X89.658 Y94.267 E8.52129
G1 X90.477 Y93.847 E8.54578
G1 X91.33 Y93.5 E8.57029
G1 X92.21 Y93.229 E8.59479
G1 X93.077 Y93.041 E8.61839
G1 X93.612 Y92.948 E8.63284
G1 X96.217 Y92.462 E8.70335
G1 X98.401 Y91.997 E8.76277
G1 X99.309 Y91.845 E8.78726
G1 X100.438 Y91.766 E8.81738
G1 X101.247 Y91.753 E8.8389
G1 X114.505 Y91.755 E9.19167
G1 X115.239 Y91.767 E9.21121
G1 X116.158 Y91.822 E9.2357
G1 X117.069 Y91.957 E9.26021
G1 X117.965 Y92.17 E9.28471
G1 X118.669 Y92.397 E9.3044
G1 X119.663 Y92.757 E9.33253
G1 X120.764 Y93.172 E9.36383
G1 X123.095 Y93.977 E9.42945
G1 X125.532 Y94.743 E9.49742
G1 X127.094 Y95.185 E9.54062
G1 X127.275 Y95.245 E9.54569
G1 X128.92 Y95.705 E9.59114
G1 X129.795 Y95.991 E9.61563
G1 X130.642 Y96.352 E9.64013
G1 X131.455 Y96.785 E9.66464
G1 X132.226 Y97.288 E9.68914
G1 X132.952 Y97.855 E9.71365
G1 X133.901 Y98.766 E9.74865
G1 X134.573 Y99.558 E9.77629
G1 X135.107 Y100.308 E9.80079
G1 X135.573 Y101.102 E9.82528
G1 X135.968 Y101.934 E9.84979
G1 X136.289 Y102.796 E9.87426
G1 X136.535 Y103.684 E9.89878
G1 X136.703 Y104.589 E9.92327
G1 X136.791 Y105.505 E9.94776
G1 X136.806 Y106.093 E9.96341
G1 X136.805 Y106.467 E9.97336
G1 X136.763 Y107.387 E9.99786
G1 X136.676 Y108.087 E10.01663
G1 X136.259 Y110.978 E10.09435
G1 X135.972 Y113.502 E10.16195
G1 X135.767 Y115.853 E10.22474
G1 X135.647 Y116.766 E10.24924
G1 X135.449 Y117.665 E10.27373
G1 X135.173 Y118.543 E10.29822
G1 X134.822 Y119.394 E10.32272
G1 X134.398 Y120.212 E10.34723
G1 X133.906 Y120.989 E10.3717
G1 X133.347 Y121.721 E10.39621
G1 X132.727 Y122.402 E10.42072
G1 X132.051 Y123.027 E10.44521
G1 X131.323 Y123.59 E10.4697
G1 X130.548 Y124.088 E10.49421
G1 X129.734 Y124.517 E10.51869
G1 X128.885 Y124.873 E10.54319
G1 X127.593 Y125.26 E10.57908
G1 X126.66 Y125.475 E10.60455
G1 X125.645 Y125.695 E10.63219
G1 X123.188 Y126.301 E10.69952
G1 X120.778 Y126.967 E10.76605
G1 X118.98 Y127.524 E10.81614
G1 X118.051 Y127.8 E10.84192
G1 X117.158 Y128.024 E10.86642
G1 X116.248 Y128.168 E10.89094
G1 X115.227 Y128.236 E10.91816
G1 X114.479 Y128.248 E10.93807
G1 X101.137 Y128.245 E11.29307
G1 X100.437 Y128.234 E11.3117
G1 X99.518 Y128.179 E11.3362
G1 X98.672 Y128.057 E11.35894
G1 X97.417 Y127.824 E11.3929
G1 X96.804 Y127.702 E11.40954
G1 X94.296 Y127.273 E11.47724
G1 X93.566 Y127.17 E11.49685
G1 X92.458 Y126.997 E11.52669
G1 X91.556 Y126.815 E11.55118
G1 X90.673 Y126.555 E11.57567
G1 X89.815 Y126.22 E11.60018
G1 X88.99 Y125.811 E11.62468
G1 X88.204 Y125.332 E11.64917
G1 X87.462 Y124.787 E11.67367
G1 X86.77 Y124.18 E11.69816
G1 X86.134 Y123.514 E11.72266
G1 X85.557 Y122.796 E11.74717
G1 X85.046 Y122.031 E11.77165
G1 X84.602 Y121.224 E11.79616
G1 X84.23 Y120.382 E11.82065
G1 X83.933 Y119.511 E11.84514
G1 X83.712 Y118.617 E11.86964
G1 X83.57 Y117.707 E11.89415
G1 X83.508 Y116.832 E11.91749
G1 X83.495 Y116.215 E11.93391
G1 X83.495 Y108.016 E12.15207
G1 F1500 E5.65207
;MESH:void_switch-v22.stl
G0 F6000 X97.408 Y108.761
;TYPE:WALL-INNER
G1 F1500 E12.15207
G1 F845.1 X97.408 Y108.243 E12.16675
G1 X97.142 Y108.342 E12.17479
G1 F871.7 X96.785 Y108.374 E12.18464
G1 F895.5 X95.786 Y108.374 E12.21135
G1 F884.5 X95.501 Y108.287 E12.21942
G1 F878 X95.5 Y108.768 E12.23254
G1 F884.5 X96.143 Y108.771 E12.24995
G1 F895.5 X96.786 Y108.774 E12.26714
G1 F886.7 X97.097 Y108.768 E12.27554
G1 F859.2 X97.409 Y108.761 E12.28424
G0 F6000 X97.821 Y109.3
G1 F900 X97.821 Y107.925 E12.32083
G1 X97.591 Y107.872 E12.32711
G1 X97.41 Y107.743 E12.33302
G1 X97.228 Y107.872 E12.33896
G1 X97.038 Y107.943 E12.34435
G1 X96.785 Y107.974 E12.35114
G1 X95.85 Y107.974 E12.37602
G1 X95.567 Y107.887 E12.38389
G1 X95.43 Y107.798 E12.38824
G1 X95.293 Y107.887 E12.39259
G1 X95.095 Y107.929 E12.39797
G1 X95.092 Y109.302 E12.43451
G1 X95.475 Y109.174 E12.44525
G1 X97.441 Y109.174 E12.49756
G1 X97.821 Y109.3 E12.50821
G0 F6000 X98.131 Y110.174
G1 F672.9 X98.176 Y109.829 E12.5206
G1 F809 X98.221 Y109.484 E12.5309
G1 F900 X98.221 Y107.638 E12.58001
G1 X98.184 Y107.574 E12.58198
G1 X98.034 Y107.574 E12.58597
G1 X97.768 Y107.513 E12.59323
G1 X97.612 Y107.402 E12.59833
G1 F843.1 X97.409 Y107.028 E12.61042
G1 X97.208 Y107.402 E12.62248
G1 F900 X97.051 Y107.513 E12.62759
G1 X96.865 Y107.574 E12.6328
G1 X95.902 Y107.574 E12.65842
G1 X95.731 Y107.522 E12.66318
G1 X95.575 Y107.421 E12.66812
G1 X95.43 Y107.126 E12.67687
G1 X95.284 Y107.421 E12.68563
G1 X95.129 Y107.522 E12.69055
G1 X94.882 Y107.574 E12.69727
G1 X94.731 Y107.574 E12.70129
G1 X94.694 Y107.638 E12.70325
G1 X94.692 Y109.484 E12.75237
G1 F809 X94.738 Y109.829 E12.76267
G1 F672.9 X94.785 Y110.174 E12.77507
G1 X94.949 Y109.934 E12.78541
G1 F809 X95.113 Y109.694 E12.79402
G1 F900 X95.475 Y109.574 E12.80416
G1 X97.441 Y109.574 E12.85647
G1 X97.802 Y109.693 E12.86659
G1 F809 X97.966 Y109.933 E12.87519
G1 F672.9 X98.131 Y110.174 E12.88559
G1 F1500 E6.38559
G0 F6000 X97.641 Y116.334
;TYPE:WALL-OUTER
G1 F1500 E12.88559
G1 F900 X98.621 Y116.334 E12.91166
G1 X98.621 Y107.53 E13.14592
G1 X98.414 Y107.174 E13.15688
G1 X98.034 Y107.174 E13.16699
G1 X97.893 Y107.117 E13.17104
G1 X97.834 Y106.992 E13.17471
G1 X97.833 Y103.674 E13.263
G1 X96.985 Y103.674 E13.28556
G1 X96.985 Y106.992 E13.37385
G1 X96.926 Y107.117 E13.37753
G1 X96.82 Y107.172 E13.3807
G1 X95.913 Y107.172 E13.40484
G1 F757.9 X95.703 Y106.998 E13.41346
G1 F655.7 X95.703 Y105.372 E13.47284
G1 F658.1 X95.703 Y103.746 E13.532
G1 X95.156 Y103.747 E13.5519
G1 X95.156 Y105.373 E13.61107
G1 F655.7 X95.156 Y106.999 E13.67045
G1 F757.9 X94.945 Y107.174 E13.67911
G1 F900 X94.501 Y107.174 E13.69093
G1 X94.294 Y107.53 E13.70188
G1 X94.295 Y116.334 E13.93614
G1 X95.275 Y116.334 E13.96222
G1 X95.275 Y110.174 E14.12612
G1 X95.354 Y110.014 E14.13087
G1 X95.475 Y109.974 E14.13426
G1 X97.441 Y109.974 E14.18657
G1 X97.562 Y110.013 E14.18996
G1 X97.641 Y110.174 E14.19473
G1 X97.641 Y116.334 E14.35863
G0 F6000 X98.131 Y115.844
;TYPE:WALL-INNER
G1 F620.7 X98.131 Y110.174 E14.57739
G1 F1500 E8.07739
G0 F6000 X97.409 Y107.028
G1 F1500 E14.57739
G1 F794.7 X97.409 Y105.563 E14.62154
G1 F798.2 X97.409 Y104.098 E14.66549
G1 F1500 E8.16549
G0 F6000 X94.785 Y110.174
G1 F1500 E14.66549
G1 F620.7 X94.785 Y115.844 E14.88425
G1 F1500 E8.38425
G0 F6000 X109.73 Y112.223
;TYPE:WALL-OUTER
G1 F1500 E14.88425
G1 F722.9 X110.041 Y111.912 E14.89882
G1 F1500 E8.39882
G0 F6000 X108.045 Y116.246
;TYPE:WALL-INNER
G1 F1500 E14.89882
G1 F900 X114.066 Y116.248 E15.05902
G1 X114.066 Y110.224 E15.21931
G1 X114.012 Y110.317 E15.22217
G1 X108.136 Y116.194 E15.4433
G1 X108.045 Y116.246 E15.44609
G1 F1500 E8.94609
G0 F6000 X106.245 Y116.246
G1 F1500 E15.44609
G1 F900 X106.154 Y116.194 E15.44888
G1 X101.569 Y111.608 E15.62143
G1 X101.568 Y116.246 E15.74484
G1 X106.245 Y116.246 E15.86929
G1 F1500 E9.36929
G0 F6000 X100.815 Y108.866
G1 F1500 E15.86929
G1 F730.2 X101.411 Y108.271 E15.8969
G1 F751.6 X101.198 Y108.04 E15.90692
G1 F880.2 X101.115 Y107.815 E15.91344
G1 F853.1 X101.01 Y107.703 E15.91775
G1 F615.4 X100.908 Y107.49 E15.92694
G1 F699 X100.77 Y107.883 E15.94121
G1 F880.2 X100.802 Y108.204 E15.94999
G1 F751.6 X100.815 Y108.271 E15.95216
G1 F730.2 X100.815 Y108.866 E15.97167
G1 F1500 E9.47167
G0 F6000 X101.23 Y104.304
G1 F1500 E15.97167
G1 F691 X102.121 Y103.413 E16.01534
G1 X101.23 Y103.413 E16.04622
G1 X101.23 Y104.304 E16.0771
G0 F6000 X100.908 Y105.387
G1 F592.1 X101.065 Y105.175 E16.08777
G1 F767.6 X101.222 Y104.962 E16.09603
G1 F900 X102.78 Y103.404 E16.15465
G1 F660.6 X103.077 Y103.095 E16.17019
G1 F583.5 X102.835 Y103.024 E16.18054
G1 F762.7 X102.593 Y102.953 E16.18846
G1 F900 X100.77 Y102.953 E16.23697
G1 X100.77 Y104.775 E16.28545
G1 F767.6 X100.839 Y105.081 E16.29523
G1 F592.1 X100.908 Y105.387 E16.30792
G1 F1500 E9.80792
G0 F6000 X106.089 Y103.593
G1 F1500 E16.30792
G1 F731.7 X106.682 Y102.999 E16.33539
G1 X106.021 Y102.999 E16.35702
G1 F669.1 X105.716 Y103.045 E16.36806
G1 F571.4 X105.41 Y103.091 E16.38103
G1 X105.638 Y103.231 E16.39224
G1 F669.1 X105.867 Y103.371 E16.40185
G1 F731.7 X106.089 Y103.593 E16.41212
G1 F1500 E9.91212
G0 F6000 X114.066 Y108.43
G1 F1500 E16.41212
G1 F900 X114.066 Y103.754 E16.53654
G1 X109.429 Y103.754 E16.65993
G1 X114.012 Y108.337 E16.83238
G1 X114.066 Y108.43 E16.83524
