;FLAVOR:Marlin
;TIME:1972
;Filament used: 0.4216m
;Layer height: 0.16
;MINX:83.095
;MINY:91.275
;MINZ:0.16
;MAXX:137.202
;MAXY:128.575
;MAXZ:10.56
;Generated with Cura_SteamEngine main
M82 ;absolute extrusion mode
; Ender 3 Custom Start G-code
G92 E0 ; Reset Extruder
G28 ; Home all axes
M104 S120 ; Start heating up the nozzle most of the way
M190 S68.0 ; Start heating the bed, wait until target temperature reached
M109 S248.0 ; Finish heating the nozzle
G1 Z2.0 F3000 ; Move Z Axis up little to prevent scratching of Heat Bed
G1 X0.1 Y20 Z0.3 F5000.0 ; Move to start position
G1 X0.1 Y200.0 Z0.3 F1500.0 E15 ; Draw the first line
G1 X0.4 Y200.0 Z0.3 F5000.0 ; Move to side a little
G1 X0.4 Y20 Z0.3 F1500.0 E30 ; Draw the second line
G92 E0 ; Reset Extruder
G1 Z2.0 F3000 ; Move Z Axis up little to prevent scratching of Heat Bed
G1 X5 Y20 Z0.3 F5000.0 ; Move over to prevent blob squish
G92 E0
G92 E0
G1 F1500 E-3.5
;LAYER_COUNT:66
;LAYER:0
M107
G0 F6000 X87.78 Y94.983 Z0.16
G0 X83.878 Y102.426
;TYPE:SKIRT
G1 F1500 E0
G1 F600 X84.081 Y101.346 E0.02924
G1 X84.293 Y100.433 E0.05418
G1 X84.582 Y99.54 E0.07915
G1 X84.946 Y98.676 E0.1041
G1 X85.383 Y97.846 E0.12906
G1 X85.888 Y97.056 E0.15401
G1 X86.459 Y96.312 E0.17896
G1 X87.091 Y95.619 E0.20392
G1 X87.78 Y94.983 E0.22887
G1 X88.521 Y94.408 E0.25382
G1 X89.308 Y93.898 E0.27878
G1 X90.136 Y93.456 E0.30375
G1 X90.998 Y93.087 E0.3287
G1 X91.888 Y92.793 E0.35364
G1 X93.02 Y92.536 E0.38453
G1 X94.038 Y92.36 E0.41202
G1 X97.984 Y91.595 E0.51897
G1 X98.316 Y91.525 E0.52799
G1 X99.241 Y91.37 E0.55295
G1 X100.436 Y91.287 E0.58482
G1 X101.343 Y91.275 E0.60896
G1 X114.528 Y91.277 E0.95979
G1 X115.231 Y91.287 E0.97849
G1 X116.168 Y91.34 E1.00347
G1 X117.096 Y91.473 E1.02841
G1 X118.321 Y91.776 E1.06199
G1 X119.505 Y92.142 E1.09496
G1 X121.956 Y92.86 E1.16292
G1 X124.405 Y93.503 E1.23029
G1 X127.172 Y94.143 E1.30586
G1 X128.379 Y94.402 E1.33871
G1 X129.287 Y94.638 E1.36367
G1 X130.171 Y94.95 E1.38861
G1 X131.026 Y95.336 E1.41357
G1 X131.845 Y95.794 E1.43854
G1 X132.621 Y96.32 E1.46349
G1 X133.35 Y96.91 E1.48844
G1 X134.026 Y97.56 E1.51339
G1 X134.62 Y98.232 E1.53726
G1 X135.192 Y98.975 E1.56221
G1 X135.699 Y99.764 E1.58716
G1 X136.136 Y100.594 E1.61212
G1 X136.501 Y101.458 E1.63708
G1 X136.792 Y102.349 E1.66202
G1 X137.005 Y103.263 E1.68699
G1 X137.14 Y104.191 E1.71194
G1 X137.195 Y105.11 E1.73644
G1 X137.202 Y105.501 E1.74684
G1 X137.179 Y106.439 E1.77181
G1 X137.117 Y107.077 E1.78887
G1 X137.035 Y107.718 E1.80606
G1 X136.807 Y109.309 E1.84883
G1 X136.524 Y111.788 E1.91522
G1 X136.306 Y114.329 E1.98308
G1 X136.246 Y115.362 E2.01061
G1 X136.179 Y116.306 E2.03579
G1 X136.073 Y117.238 E2.06075
G1 X135.888 Y118.157 E2.08569
G1 X135.625 Y119.057 E2.11064
G1 X135.287 Y119.932 E2.1356
G1 X134.875 Y120.774 E2.16054
G1 X134.393 Y121.579 E2.18551
G1 X133.844 Y122.339 E2.21045
G1 X133.232 Y123.05 E2.23542
G1 X132.562 Y123.707 E2.26038
G1 X131.838 Y124.303 E2.28534
G1 X131.067 Y124.836 E2.31028
G1 X130.252 Y125.302 E2.33526
G1 X129.401 Y125.696 E2.36021
G1 X128.52 Y126.016 E2.38515
G1 X127.614 Y126.26 E2.41011
G1 X126.938 Y126.39 E2.42843
G1 X124.545 Y126.771 E2.49291
G1 X122.095 Y127.23 E2.55923
G1 X119.648 Y127.759 E2.62584
G1 X117.624 Y128.25 E2.68126
G1 X116.704 Y128.432 E2.70622
G1 X115.772 Y128.535 E2.73117
G1 X115.205 Y128.559 E2.74627
G1 X114.387 Y128.572 E2.76803
G1 X101.278 Y128.575 E3.11684
G1 X100.411 Y128.564 E3.13991
G1 X99.931 Y128.547 E3.15269
G1 X96.948 Y128.374 E3.2322
G1 X93.952 Y128.295 E3.31194
G1 X93.016 Y128.242 E3.33689
G1 X92.087 Y128.11 E3.36185
G1 X91.173 Y127.898 E3.38682
G1 X90.281 Y127.61 E3.41176
G1 X89.416 Y127.247 E3.43672
G1 X88.585 Y126.812 E3.46168
G1 X87.795 Y126.307 E3.48663
G1 X87.05 Y125.737 E3.51159
G1 X86.357 Y125.105 E3.53654
G1 X85.72 Y124.417 E3.56149
G1 X85.144 Y123.677 E3.58644
G1 X84.633 Y122.89 E3.61141
G1 X84.191 Y122.063 E3.63636
G1 X83.821 Y121.201 E3.66132
G1 X83.525 Y120.311 E3.68628
G1 X83.307 Y119.399 E3.71123
G1 X83.167 Y118.472 E3.73617
G1 X83.109 Y117.635 E3.7585
G1 X83.095 Y117.005 E3.77526
G1 X83.095 Y107.901 E4.0175
G1 X83.106 Y107.195 E4.03629
G1 X83.161 Y106.258 E4.06127
G1 X83.321 Y105.199 E4.08976
G1 X83.878 Y102.426 E4.16502
G1 F1500 E0.66502
G0 F6000 X83.895 Y107.913
G1 F1500 E4.16502
G1 F600 X83.906 Y107.207 E4.18381
G1 X83.96 Y106.306 E4.20783
G1 X84.105 Y105.356 E4.2334
G1 X84.667 Y102.559 E4.30931
G1 X84.867 Y101.494 E4.33814
G1 X85.073 Y100.614 E4.36219
G1 X85.355 Y99.757 E4.38619
G1 X85.713 Y98.927 E4.41025
G1 X86.142 Y98.133 E4.43426
G1 X86.64 Y97.379 E4.4583
G1 X87.203 Y96.673 E4.48233
G1 X87.826 Y96.019 E4.50636
G1 X88.504 Y95.423 E4.53038
G1 X89.233 Y94.889 E4.55443
G1 X90.005 Y94.422 E4.57844
G1 X90.817 Y94.025 E4.60248
G1 X91.66 Y93.701 E4.62652
G1 X92.528 Y93.453 E4.65054
G1 X93.156 Y93.324 E4.66759
G1 X94.178 Y93.147 E4.69519
G1 X98.482 Y92.308 E4.81187
G1 X99.373 Y92.16 E4.8359
G1 X100.448 Y92.087 E4.86457
G1 X101.343 Y92.075 E4.88839
G1 X114.517 Y92.077 E5.23892
G1 X115.22 Y92.087 E5.25763
G1 X116.122 Y92.14 E5.28167
G1 X117.015 Y92.272 E5.30569
G1 X118.085 Y92.54 E5.33504
G1 X119.255 Y92.901 E5.36762
G1 X121.772 Y93.639 E5.43741
G1 X124.199 Y94.276 E5.50418
G1 X127.004 Y94.925 E5.58079
G1 X128.211 Y95.184 E5.61363
G1 X129.085 Y95.412 E5.63767
G1 X129.935 Y95.717 E5.6617
G1 X130.755 Y96.096 E5.68573
G1 X131.538 Y96.546 E5.70976
G1 X132.278 Y97.063 E5.73378
G1 X132.97 Y97.644 E5.75782
G1 X133.936 Y98.654 E5.79501
G1 X134.557 Y99.463 E5.82215
G1 X135.041 Y100.225 E5.84617
G1 X135.456 Y101.028 E5.87022
G1 X135.798 Y101.863 E5.89423
G1 X136.065 Y102.726 E5.91826
G1 X136.255 Y103.609 E5.9423
G1 X136.365 Y104.505 E5.96632
G1 X136.395 Y105.124 E5.98281
G1 X136.402 Y105.515 E5.99321
G1 X136.379 Y106.418 E6.01725
G1 X136.324 Y106.977 E6.03219
G1 X136.266 Y107.436 E6.0445
G1 X136.014 Y109.204 E6.09202
G1 X135.728 Y111.705 E6.159
G1 X135.509 Y114.25 E6.22697
G1 X135.458 Y115.159 E6.25119
G1 X135.381 Y116.249 E6.28027
G1 X135.278 Y117.146 E6.30429
G1 X135.095 Y118.031 E6.32834
G1 X134.835 Y118.895 E6.35235
G1 X134.499 Y119.734 E6.3764
G1 X134.091 Y120.539 E6.40041
G1 X133.612 Y121.305 E6.42445
G1 X133.068 Y122.026 E6.44848
G1 X132.463 Y122.696 E6.4725
G1 X131.8 Y123.31 E6.49654
G1 X131.086 Y123.862 E6.52056
G1 X130.325 Y124.35 E6.54461
G1 X129.525 Y124.768 E6.56863
G1 X128.691 Y125.114 E6.59266
G1 X127.829 Y125.384 E6.61669
G1 X126.812 Y125.6 E6.64435
G1 X124.421 Y125.981 E6.70878
G1 X121.922 Y126.448 E6.77642
G1 X119.447 Y126.984 E6.8438
G1 X117.435 Y127.472 E6.89889
G1 X116.549 Y127.646 E6.92292
G1 X115.651 Y127.741 E6.94694
G1 X115.192 Y127.759 E6.95917
G1 X114.374 Y127.772 E6.98093
G1 X101.278 Y127.775 E7.32939
G1 X100.422 Y127.764 E7.35217
G1 X99.977 Y127.748 E7.36402
G1 X96.983 Y127.575 E7.44382
G1 X93.963 Y127.495 E7.5242
G1 X93.061 Y127.443 E7.54824
G1 X92.168 Y127.311 E7.57226
G1 X91.29 Y127.1 E7.59629
G1 X90.434 Y126.813 E7.62031
G1 X89.606 Y126.451 E7.64436
G1 X88.814 Y126.017 E7.66839
G1 X88.063 Y125.515 E7.69242
G1 X87.36 Y124.948 E7.71645
G1 X86.71 Y124.322 E7.74047
G1 X86.117 Y123.64 E7.76451
G1 X85.587 Y122.909 E7.78854
G1 X85.124 Y122.134 E7.81256
G1 X84.731 Y121.32 E7.83661
G1 X84.412 Y120.476 E7.86062
G1 X84.169 Y119.606 E7.88465
G1 X84.004 Y118.718 E7.90869
G1 X83.909 Y117.61 E7.93828
G1 X83.895 Y117.005 E7.95438
G1 X83.895 Y107.913 E8.1963
G0 F6000 X83.495 Y107.907
G1 F600 X83.506 Y107.201 E8.21509
G1 X83.561 Y106.282 E8.23958
G1 X83.713 Y105.277 E8.26663
G1 X84.274 Y102.485 E8.3424
G1 X84.474 Y101.42 E8.37124
G1 X84.683 Y100.523 E8.39574
G1 X84.969 Y99.648 E8.42024
G1 X85.33 Y98.801 E8.44474
G1 X85.763 Y97.989 E8.46922
G1 X86.264 Y97.217 E8.49371
G1 X86.831 Y96.491 E8.51822
G1 X87.459 Y95.818 E8.54271
G1 X88.143 Y95.201 E8.56722
G1 X88.877 Y94.647 E8.59169
G1 X89.658 Y94.158 E8.61621
G1 X90.477 Y93.738 E8.6407
G1 X91.33 Y93.391 E8.6652
G1 X92.21 Y93.12 E8.6897
G1 X93.088 Y92.93 E8.71361
G1 X94.132 Y92.75 E8.7418
G1 X98.399 Y91.917 E8.85748
G1 X99.308 Y91.765 E8.882
G1 X100.442 Y91.687 E8.91224
G1 X101.343 Y91.675 E8.93622
G1 X114.523 Y91.677 E9.28691
G1 X115.226 Y91.687 E9.30562
G1 X116.145 Y91.74 E9.33012
G1 X117.056 Y91.873 E9.35461
G1 X118.203 Y92.158 E9.38606
G1 X119.34 Y92.509 E9.41772
G1 X121.89 Y93.256 E9.48842
G1 X124.31 Y93.892 E9.555
G1 X127.065 Y94.529 E9.63024
G1 X128.295 Y94.793 E9.66371
G1 X129.186 Y95.025 E9.68821
G1 X130.054 Y95.334 E9.71273
G1 X130.891 Y95.716 E9.73721
G1 X131.692 Y96.17 E9.76171
G1 X132.451 Y96.692 E9.78622
G1 X133.161 Y97.277 E9.8107
G1 X133.818 Y97.922 E9.83519
G1 X134.313 Y98.489 E9.85522
G1 X134.874 Y99.219 E9.87972
G1 X135.37 Y99.995 E9.90422
G1 X135.796 Y100.811 E9.92872
G1 X136.15 Y101.661 E9.95322
G1 X136.429 Y102.538 E9.97771
G1 X136.631 Y103.437 E10.00222
G1 X136.754 Y104.349 E10.02671
G1 X136.795 Y105.117 E10.04717
G1 X136.802 Y105.508 E10.05758
G1 X136.779 Y106.429 E10.08209
G1 X136.72 Y107.027 E10.09808
G1 X136.639 Y107.661 E10.11509
G1 X136.413 Y109.239 E10.1575
G1 X136.122 Y111.781 E10.22558
G1 X135.908 Y114.274 E10.29216
G1 X135.857 Y115.182 E10.31636
G1 X135.78 Y116.277 E10.34557
G1 X135.675 Y117.192 E10.37007
G1 X135.491 Y118.094 E10.39457
G1 X135.23 Y118.977 E10.41907
G1 X134.893 Y119.834 E10.44357
G1 X134.483 Y120.658 E10.46806
G1 X134.002 Y121.443 E10.49256
G1 X133.456 Y122.184 E10.51705
G1 X132.847 Y122.875 E10.54156
G1 X132.181 Y123.51 E10.56604
G1 X131.462 Y124.085 E10.59054
G1 X130.695 Y124.595 E10.61505
G1 X129.888 Y125.038 E10.63954
G1 X129.045 Y125.408 E10.66404
G1 X128.173 Y125.704 E10.68854
G1 X126.875 Y125.995 E10.72393
G1 X124.486 Y126.376 E10.7883
G1 X122.001 Y126.84 E10.85557
G1 X119.547 Y127.371 E10.92238
G1 X117.529 Y127.861 E10.97763
G1 X116.626 Y128.039 E11.00212
G1 X115.711 Y128.138 E11.02661
G1 X115.198 Y128.159 E11.04027
G1 X114.38 Y128.172 E11.06204
G1 X101.278 Y128.175 E11.41066
G1 X100.417 Y128.164 E11.43357
G1 X99.954 Y128.147 E11.4459
G1 X96.982 Y127.975 E11.52511
G1 X93.957 Y127.895 E11.60563
G1 X93.038 Y127.842 E11.63012
G1 X92.127 Y127.71 E11.65461
G1 X91.231 Y127.499 E11.67911
G1 X90.357 Y127.211 E11.70359
G1 X89.51 Y126.849 E11.7281
G1 X88.699 Y126.414 E11.75259
G1 X87.928 Y125.911 E11.77708
G1 X87.204 Y125.342 E11.80158
G1 X86.531 Y124.713 E11.82609
G1 X85.916 Y124.028 E11.85059
G1 X85.363 Y123.292 E11.87508
G1 X84.876 Y122.511 E11.89957
G1 X84.458 Y121.691 E11.92406
G1 X84.113 Y120.837 E11.94857
G1 X83.843 Y119.957 E11.97306
G1 X83.651 Y119.057 E11.99755
G1 X83.538 Y118.143 E12.02206
G1 X83.509 Y117.623 E12.03591
G1 X83.495 Y117.005 E12.05236
G1 X83.495 Y107.907 E12.29444
G1 F1500 E8.79444
;MESH:void_switch-v45.stl
G0 F6000 X97.421 Y109.365
;TYPE:WALL-INNER
G1 F1500 E12.29444
G1 F600 X97.421 Y108.115 E12.3277
G1 X96.846 Y108.264 E12.34351
G1 X95.977 Y108.265 E12.36663
G1 X95.495 Y108.162 E12.37974
G1 X95.494 Y109.365 E12.41175
G1 X97.421 Y109.365 E12.46303
G0 F6000 X97.821 Y109.891
G1 F600 X97.821 Y107.816 E12.51824
G1 X97.591 Y107.763 E12.52452
G1 X97.41 Y107.634 E12.53043
G1 X97.228 Y107.763 E12.53637
G1 X96.829 Y107.864 E12.54732
G1 X95.977 Y107.865 E12.56999
G1 X95.567 Y107.778 E12.58114
G1 X95.43 Y107.689 E12.58549
G1 X95.293 Y107.778 E12.58984
G1 X95.095 Y107.82 E12.59522
G1 X95.092 Y109.893 E12.65038
G1 X95.475 Y109.765 E12.66113
G1 X97.441 Y109.765 E12.71344
G1 X97.821 Y109.891 E12.72409
G0 F6000 X98.131 Y110.765
G1 F448.6 X98.176 Y110.42 E12.73647
G1 F539.3 X98.221 Y110.075 E12.74677
G1 F600 X98.221 Y107.526 E12.8146
G1 X98.185 Y107.465 E12.81648
G1 X98.034 Y107.465 E12.8205
G1 X97.768 Y107.404 E12.82776
G1 X97.612 Y107.293 E12.83285
G1 F562.1 X97.409 Y106.919 E12.84494
G1 X97.208 Y107.293 E12.857
G1 F600 X97.051 Y107.404 E12.86212
G1 X96.812 Y107.465 E12.86868
G1 X95.977 Y107.465 E12.8909
G1 X95.731 Y107.413 E12.89759
G1 X95.575 Y107.312 E12.90253
G1 X95.43 Y107.017 E12.91128
G1 X95.284 Y107.312 E12.92004
G1 X95.129 Y107.413 E12.92496
G1 X94.882 Y107.465 E12.93168
G1 X94.73 Y107.465 E12.93572
G1 X94.694 Y107.526 E12.93761
G1 X94.692 Y110.075 E13.00543
G1 F539.3 X94.738 Y110.42 E13.01573
G1 F448.6 X94.785 Y110.765 E13.02812
G1 X94.949 Y110.525 E13.03847
G1 F539.3 X95.113 Y110.285 E13.04707
G1 F600 X95.475 Y110.165 E13.05722
G1 X97.441 Y110.165 E13.10953
G1 X97.802 Y110.284 E13.11965
G1 F539.3 X97.966 Y110.524 E13.12825
G1 F448.6 X98.131 Y110.765 E13.13865
G1 F1500 E9.63865
G0 F6000 X97.641 Y117.105
;TYPE:WALL-OUTER
G1 F1500 E13.13865
G1 F600 X98.621 Y117.105 E13.16472
G1 X98.621 Y107.419 E13.42245
G1 X98.416 Y107.065 E13.43333
G1 X98.034 Y107.065 E13.4435
G1 X97.893 Y107.008 E13.44754
G1 X97.834 Y106.883 E13.45122
G1 X97.833 Y103.565 E13.53951
G1 X96.985 Y103.565 E13.56207
G1 X96.985 Y106.883 E13.65036
G1 X96.926 Y107.008 E13.65403
G1 X96.794 Y107.065 E13.65786
G1 X95.916 Y107.065 E13.68122
G1 F505.3 X95.703 Y106.889 E13.68995
G1 F437.2 X95.703 Y105.263 E13.74933
G1 F438.8 X95.703 Y103.637 E13.8085
G1 X95.156 Y103.638 E13.8284
G1 X95.156 Y105.264 E13.88757
G1 F437.2 X95.156 Y106.89 E13.94695
G1 F505.3 X94.945 Y107.065 E13.95561
G1 F600 X94.499 Y107.065 E13.96748
G1 X94.294 Y107.419 E13.97836
G1 X94.295 Y117.105 E14.23609
G1 X95.275 Y117.105 E14.26216
G1 X95.275 Y110.765 E14.43086
G1 X95.354 Y110.605 E14.43561
G1 X95.475 Y110.565 E14.439
G1 X97.441 Y110.565 E14.49131
G1 X97.562 Y110.604 E14.49469
G1 X97.641 Y110.765 E14.49946
G1 X97.641 Y117.105 E14.66816
G0 F6000 X98.131 Y116.615
;TYPE:WALL-INNER
G1 F413.8 X98.131 Y110.765 E14.89386
G1 F1500 E11.39386
G0 F6000 X94.785 Y110.765
G1 F1500 E14.89386
G1 F413.8 X94.785 Y116.615 E15.11957
G1 F1500 E11.61957
G0 F6000 X97.409 Y106.919
G1 F1500 E15.11957
G1 F529.8 X97.409 Y105.454 E15.16371
G1 F532.2 X97.409 Y103.989 E15.20766
G1 F1500 E11.70766
G0 F6000 X97.066 Y109.01
;TYPE:SKIN
G1 F1500 E15.20766
G1 F613.8 X97.066 Y108.571 E15.21908
G1 X96.86 Y108.619 E15.22458
G1 X95.851 Y108.617 E15.25083
G1 X95.849 Y109.01 E15.26105
G1 X97.066 Y109.01 E15.2927
G1 F1500 E11.7927
G0 F6000 X101.241 Y104.272
;TYPE:WALL-INNER
G1 F1500 E15.2927
G1 F442.8 X102.165 Y103.347 E15.33984
G1 X101.241 Y103.347 E15.37315
G1 X101.241 Y104.272 E15.4065
G1 F1500 E11.9065
G0 F6000 X100.798 Y109.285
G1 F1500 E15.4065
G1 F490.8 X100.962 Y108.819 E15.42257
G1 F464.2 X101.451 Y108.331 E15.44633
G1 F474.3 X101.227 Y108.106 E15.45702
G1 F564.7 X101.096 Y107.713 E15.46873
G1 F679.9 X101.095 Y106.93 E15.48712
G1 F683.8 X101.093 Y106.147 E15.5054
G1 F687.7 X101.092 Y105.364 E15.52358
G1 F641.7 X101.24 Y104.938 E15.53479
G1 F600 X102.831 Y103.347 E15.59466
G1 F636.6 X103.156 Y103.203 E15.60358
G1 F679.9 X103.939 Y103.202 E15.62196
G1 F683.8 X104.722 Y103.2 E15.64025
G1 F687.7 X105.505 Y103.199 E15.65842
G1 F623.4 X105.751 Y103.264 E15.66494
G1 F522.9 X105.997 Y103.331 E15.67273
G1 F474.3 X106.224 Y103.558 E15.68353
G1 F464.2 X106.711 Y103.07 E15.70724
G1 F485.8 X107.068 Y102.909 E15.72011
G1 X106.655 Y102.934 E15.73371
G1 F464.2 X106.224 Y102.934 E15.74853
G1 F483.9 X106.125 Y102.914 E15.75186
G1 F540.5 X105.816 Y102.882 E15.76104
G1 F631.6 X105.506 Y102.85 E15.76891
G1 F687.7 X104.713 Y102.85 E15.78732
G1 F683.8 X103.92 Y102.85 E15.80584
G1 F679.9 X103.127 Y102.85 E15.82446
G1 F636.6 X102.636 Y102.876 E15.83679
G1 F600 X100.77 Y102.876 E15.88644
G1 X100.769 Y104.743 E15.93612
G1 F620.2 X100.756 Y105.053 E15.94411
G1 F664.8 X100.743 Y105.363 E15.95156
G1 F687.7 X100.743 Y106.156 E15.96997
G1 F683.8 X100.743 Y106.949 E15.98848
G1 F679.9 X100.743 Y107.742 E16.0071
G1 F578.3 X100.807 Y108.232 E16.02075
G1 F483.9 X100.827 Y108.331 E16.02408
G1 F464.2 X100.828 Y108.764 E16.03897
G1 F477.1 X100.813 Y109.025 E16.04772
G1 F505.3 X100.798 Y109.286 E16.05598
G1 F1500 E12.55598
G0 F6000 X106.447 Y116.175
G1 F1500 E16.05598
G1 F600 X106.186 Y116.024 E16.064
G1 X101.569 Y111.405 E16.23777
G1 X101.568 Y116.174 E16.36467
G1 X106.447 Y116.175 E16.49449
G0 F6000 X107.909 Y116.174
G1 F600 X114.066 Y116.173 E16.65831
G1 X114.066 Y110.019 E16.82206
G1 X113.916 Y110.275 E16.82996
G1 X111.313 Y112.88 E16.92794
G1 X110.953 Y113.06 E16.93865
G1 X110.774 Y113.418 E16.9493
G1 X108.167 Y116.024 E17.04738
G1 X107.909 Y116.174 E17.05533
G1 F1500 E13.55533
G0 F6000 X114.066 Y108.55
G1 F1500 E17.05533
