;FLAVOR:Marlin
;TIME:1561
;Filament used: 0.419829m
;Layer height: 0.16
;MINX:83.095
;MINY:46.705
;MINZ:0.16
;MAXX:137.204
;MAXY:84.004
;MAXZ:10.56
;Generated with Cura_SteamEngine main
M82 ;absolute extrusion mode
; Ender 3 Custom Start G-code
G92 E0 ; Reset Extruder
G28 ; Home all axes
M104 S120 ; Start heating up the nozzle most of the way
M190 S68.0 ; Start heating the bed, wait until target temperature reached
M109 S250.0 ; Finish heating the nozzle
G1 Z2.0 F3000 ; Move Z Axis up little to prevent scratching of Heat Bed
G1 X0.1 Y20 Z0.3 F5000.0 ; Move to start position
G1 X0.1 Y200.0 Z0.3 F1500.0 E15 ; Draw the first line
G1 X0.4 Y200.0 Z0.3 F5000.0 ; Move to side a little
G1 X0.4 Y20 Z0.3 F1500.0 E30 ; Draw the second line
G92 E0 ; Reset Extruder
G1 Z2.0 F3000 ; Move Z Axis up little to prevent scratching of Heat Bed
G1 X5 Y20 Z0.3 F5000.0 ; Move over to prevent blob squish
G92 E0
G92 E0
G1 F1500 E-6.5
;LAYER_COUNT:66
;LAYER:0
M107
G0 F6000 X85.383 Y53.309 Z0.16
G0 X83.878 Y57.889
;TYPE:SKIRT
G1 F1500 E0
G1 F900 X84.081 Y56.809 E0.02924
G1 X84.293 Y55.896 E0.05418
G1 X84.582 Y55.003 E0.07915
G1 X84.946 Y54.139 E0.1041
G1 X85.383 Y53.309 E0.12906
G1 X85.888 Y52.519 E0.15401
G1 X86.459 Y51.775 E0.17896
G1 X87.091 Y51.082 E0.20392
G1 X87.78 Y50.446 E0.22887
G1 X88.521 Y49.871 E0.25382
G1 X89.308 Y49.361 E0.27878
G1 X90.136 Y48.919 E0.30375
G1 X90.998 Y48.55 E0.3287
G1 X91.888 Y48.256 E0.35364
G1 X92.891 Y48.022 E0.38104
G1 X95.906 Y47.464 E0.46263
G1 X98.225 Y46.968 E0.52573
G1 X99.149 Y46.811 E0.55067
G1 X100.321 Y46.727 E0.58193
G1 X101.491 Y46.707 E0.61307
G1 X114.359 Y46.705 E0.95546
G1 X115.227 Y46.716 E0.97856
G1 X116.164 Y46.769 E1.00353
G1 X117.092 Y46.902 E1.02848
G1 X118.006 Y47.113 E1.05344
G1 X118.625 Y47.304 E1.07067
G1 X120.121 Y47.814 E1.11273
G1 X122.561 Y48.598 E1.18092
G1 X124.975 Y49.299 E1.24781
G1 X127.43 Y49.937 E1.3153
G1 X128.698 Y50.248 E1.35004
G1 X129.598 Y50.51 E1.37498
G1 X130.473 Y50.848 E1.39994
G1 X131.316 Y51.259 E1.42489
G1 X132.121 Y51.741 E1.44986
G1 X132.882 Y52.289 E1.47481
G1 X133.593 Y52.9 E1.49975
G1 X134.25 Y53.569 E1.5247
G1 X134.848 Y54.292 E1.54967
G1 X135.375 Y55.044 E1.5741
G1 X135.904 Y55.94 E1.60179
G1 X136.31 Y56.785 E1.62673
G1 X136.642 Y57.662 E1.65168
G1 X136.899 Y58.564 E1.67664
G1 X137.078 Y59.485 E1.70161
G1 X137.178 Y60.418 E1.72657
G1 X137.199 Y60.98 E1.74154
G1 X137.204 Y61.372 E1.75197
G1 X137.176 Y62.309 E1.77691
G1 X137.098 Y63.045 E1.7966
G1 X136.764 Y65.42 E1.86042
G1 X136.481 Y67.906 E1.927
G1 X136.263 Y70.459 E1.99517
G1 X136.179 Y71.641 E2.0267
G1 X136.072 Y72.573 E2.05166
G1 X135.887 Y73.492 E2.07661
G1 X135.624 Y74.392 E2.10156
G1 X135.285 Y75.266 E2.1265
G1 X134.872 Y76.109 E2.15148
G1 X134.39 Y76.913 E2.17642
G1 X133.841 Y77.673 E2.20137
G1 X133.229 Y78.384 E2.22633
G1 X132.558 Y79.04 E2.2513
G1 X131.834 Y79.636 E2.27625
G1 X131.062 Y80.169 E2.30121
G1 X130.248 Y80.634 E2.32616
G1 X129.397 Y81.028 E2.35111
G1 X128.515 Y81.348 E2.37607
G1 X127.61 Y81.591 E2.40101
G1 X127.046 Y81.702 E2.4163
G1 X125.662 Y81.937 E2.45365
G1 X123.112 Y82.412 E2.52267
G1 X120.652 Y82.943 E2.58964
G1 X117.672 Y83.675 E2.67128
G1 X116.752 Y83.86 E2.69625
G1 X115.82 Y83.966 E2.72121
G1 X115.213 Y83.992 E2.73738
G1 X114.417 Y84.004 E2.75856
G1 X101.095 Y84.003 E3.11303
G1 X100.385 Y83.992 E3.13193
G1 X99.318 Y83.923 E3.16038
G1 X96.763 Y83.634 E3.2288
G1 X94.056 Y83.404 E3.30108
G1 X93.316 Y83.351 E3.32082
G1 X92.384 Y83.244 E3.34579
G1 X91.465 Y83.058 E3.37073
G1 X90.565 Y82.794 E3.39569
G1 X89.69 Y82.455 E3.42066
G1 X88.848 Y82.042 E3.44561
G1 X88.044 Y81.559 E3.47057
G1 X87.284 Y81.01 E3.49552
G1 X86.574 Y80.397 E3.52047
G1 X85.918 Y79.727 E3.54542
G1 X85.322 Y79.003 E3.57038
G1 X84.789 Y78.23 E3.59536
G1 X84.325 Y77.416 E3.62029
G1 X83.931 Y76.564 E3.64527
G1 X83.612 Y75.683 E3.6702
G1 X83.369 Y74.777 E3.69516
G1 X83.203 Y73.854 E3.72011
G1 X83.109 Y72.719 E3.75041
G1 X83.095 Y72.089 E3.76718
G1 X83.095 Y63.364 E3.99934
G1 X83.106 Y62.658 E4.01813
G1 X83.161 Y61.721 E4.0431
G1 X83.321 Y60.662 E4.0716
G1 X83.878 Y57.889 E4.14686
G1 F1500 E-2.35314
G0 F6000 X83.895 Y63.376
G1 F1500 E4.14686
G1 F900 X83.906 Y62.67 E4.16564
G1 X83.96 Y61.769 E4.18966
G1 X84.105 Y60.819 E4.21523
G1 X84.67 Y58.009 E4.2915
G1 X84.867 Y56.957 E4.31997
G1 X85.073 Y56.077 E4.34402
G1 X85.355 Y55.22 E4.36803
G1 X85.713 Y54.39 E4.39208
G1 X86.142 Y53.596 E4.41609
G1 X86.64 Y52.842 E4.44014
G1 X87.203 Y52.136 E4.46416
G1 X87.826 Y51.482 E4.4882
G1 X88.504 Y50.886 E4.51222
G1 X89.233 Y50.352 E4.53626
G1 X90.005 Y49.885 E4.56027
G1 X90.817 Y49.488 E4.58432
G1 X91.66 Y49.164 E4.60835
G1 X92.528 Y48.916 E4.63237
G1 X93.036 Y48.808 E4.64619
G1 X96.11 Y48.239 E4.72937
G1 X98.392 Y47.751 E4.79146
G1 X99.283 Y47.601 E4.8155
G1 X100.336 Y47.527 E4.84359
G1 X101.491 Y47.507 E4.87433
G1 X114.359 Y47.505 E5.21672
G1 X115.216 Y47.516 E5.23953
G1 X116.118 Y47.569 E5.26357
G1 X117.011 Y47.701 E5.28759
G1 X117.889 Y47.912 E5.31162
G1 X118.366 Y48.061 E5.32491
G1 X119.887 Y48.58 E5.36767
G1 X122.304 Y49.356 E5.43522
G1 X124.761 Y50.069 E5.50329
G1 X127.266 Y50.721 E5.57217
G1 X128.507 Y51.025 E5.60616
G1 X129.374 Y51.279 E5.6302
G1 X130.215 Y51.608 E5.65423
G1 X131.023 Y52.011 E5.67826
G1 X131.793 Y52.483 E5.70229
G1 X132.518 Y53.022 E5.72633
G1 X133.192 Y53.623 E5.75035
G1 X133.811 Y54.28 E5.77437
G1 X134.369 Y54.991 E5.79842
G1 X134.756 Y55.568 E5.81691
G1 X135.214 Y56.346 E5.84093
G1 X135.601 Y57.162 E5.86496
G1 X135.914 Y58.009 E5.88899
G1 X136.151 Y58.881 E5.91303
G1 X136.31 Y59.77 E5.93706
G1 X136.399 Y60.99 E5.96961
G1 X136.404 Y61.382 E5.98004
G1 X136.376 Y62.285 E6.00408
G1 X136.305 Y62.934 E6.02145
G1 X135.972 Y65.298 E6.08497
G1 X135.685 Y67.817 E6.15243
G1 X135.465 Y70.406 E6.22157
G1 X135.381 Y71.584 E6.25299
G1 X135.277 Y72.481 E6.27702
G1 X135.094 Y73.365 E6.30104
G1 X134.833 Y74.23 E6.32508
G1 X134.497 Y75.068 E6.3491
G1 X134.088 Y75.873 E6.37313
G1 X133.61 Y76.639 E6.39715
G1 X133.065 Y77.36 E6.4212
G1 X132.459 Y78.029 E6.44522
G1 X131.796 Y78.643 E6.46927
G1 X131.082 Y79.195 E6.49328
G1 X130.321 Y79.682 E6.51732
G1 X129.521 Y80.1 E6.54134
G1 X128.686 Y80.445 E6.56538
G1 X127.825 Y80.715 E6.58939
G1 X126.913 Y80.913 E6.61422
G1 X125.563 Y81.142 E6.65065
G1 X122.933 Y81.632 E6.72183
G1 X120.47 Y82.164 E6.78888
G1 X117.481 Y82.898 E6.87078
G1 X116.595 Y83.075 E6.89482
G1 X115.697 Y83.172 E6.91885
G1 X115.201 Y83.192 E6.93206
G1 X114.405 Y83.204 E6.95324
G1 X101.107 Y83.203 E7.30708
G1 X100.397 Y83.192 E7.32597
G1 X99.408 Y83.128 E7.35234
G1 X96.813 Y82.834 E7.42183
G1 X94.185 Y82.611 E7.49201
G1 X93.373 Y82.553 E7.51367
G1 X92.476 Y82.448 E7.5377
G1 X91.592 Y82.265 E7.56172
G1 X90.727 Y82.004 E7.58576
G1 X89.889 Y81.667 E7.60979
G1 X89.084 Y81.258 E7.63382
G1 X88.318 Y80.779 E7.65786
G1 X87.598 Y80.235 E7.68187
G1 X86.928 Y79.628 E7.70592
G1 X86.315 Y78.965 E7.72995
G1 X85.763 Y78.25 E7.75398
G1 X85.277 Y77.49 E7.77799
G1 X84.859 Y76.689 E7.80203
G1 X84.514 Y75.854 E7.82607
G1 X84.244 Y74.992 E7.8501
G1 X84.052 Y74.11 E7.87412
G1 X83.938 Y73.214 E7.89815
G1 X83.909 Y72.694 E7.91201
G1 X83.895 Y72.089 E7.92811
G1 X83.895 Y63.376 E8.15995
G0 F6000 X83.495 Y63.37
G1 F900 X83.506 Y62.664 E8.17874
G1 X83.561 Y61.745 E8.20324
G1 X83.713 Y60.74 E8.23028
G1 X84.274 Y57.948 E8.30605
G1 X84.474 Y56.883 E8.33489
G1 X84.683 Y55.986 E8.35939
G1 X84.969 Y55.111 E8.38389
G1 X85.33 Y54.264 E8.40839
G1 X85.763 Y53.452 E8.43287
G1 X86.264 Y52.68 E8.45736
G1 X86.831 Y51.954 E8.48187
G1 X87.459 Y51.281 E8.50636
G1 X88.143 Y50.664 E8.53088
G1 X88.877 Y50.11 E8.55534
G1 X89.658 Y49.621 E8.57986
G1 X90.477 Y49.201 E8.60435
G1 X91.33 Y48.854 E8.62886
G1 X92.21 Y48.583 E8.65336
G1 X92.963 Y48.415 E8.67388
G1 X96.025 Y47.849 E8.75674
G1 X98.308 Y47.36 E8.81886
G1 X99.216 Y47.206 E8.84337
G1 X100.329 Y47.127 E8.87306
G1 X101.491 Y47.107 E8.90398
G1 X114.359 Y47.105 E9.24637
G1 X115.222 Y47.116 E9.26934
G1 X116.141 Y47.169 E9.29383
G1 X117.052 Y47.301 E9.31832
G1 X117.948 Y47.512 E9.34282
G1 X118.496 Y47.683 E9.35809
G1 X119.98 Y48.189 E9.39981
G1 X122.433 Y48.977 E9.46837
G1 X124.868 Y49.684 E9.53583
G1 X127.398 Y50.342 E9.60539
G1 X128.602 Y50.637 E9.63837
G1 X129.486 Y50.895 E9.66288
G1 X130.344 Y51.228 E9.68737
G1 X131.17 Y51.635 E9.71187
G1 X131.958 Y52.112 E9.73638
G1 X132.701 Y52.656 E9.76088
G1 X133.394 Y53.261 E9.78536
G1 X134.032 Y53.925 E9.80986
G1 X134.61 Y54.642 E9.83436
G1 X135.092 Y55.35 E9.85715
G1 X135.559 Y56.143 E9.88164
G1 X135.956 Y56.974 E9.90615
G1 X136.278 Y57.836 E9.93063
G1 X136.525 Y58.723 E9.95513
G1 X136.694 Y59.628 E9.97963
G1 X136.799 Y60.985 E10.01584
G1 X136.804 Y61.377 E10.02627
G1 X136.776 Y62.297 E10.05076
G1 X136.702 Y62.989 E10.06928
G1 X136.369 Y65.359 E10.13296
G1 X136.084 Y67.86 E10.19994
G1 X135.861 Y70.472 E10.26969
G1 X135.78 Y71.612 E10.3001
G1 X135.675 Y72.527 E10.32461
G1 X135.49 Y73.429 E10.34911
G1 X135.228 Y74.311 E10.37359
G1 X134.891 Y75.168 E10.39809
G1 X134.48 Y75.992 E10.42259
G1 X134 Y76.777 E10.44708
G1 X133.453 Y77.518 E10.47158
G1 X132.844 Y78.208 E10.49607
G1 X132.177 Y78.843 E10.52058
G1 X131.458 Y79.418 E10.54507
G1 X130.691 Y79.928 E10.56958
G1 X129.884 Y80.37 E10.59406
G1 X129.04 Y80.74 E10.61858
G1 X128.168 Y81.035 E10.64308
G1 X126.979 Y81.308 E10.67554
G1 X125.588 Y81.544 E10.71308
G1 X123.019 Y82.022 E10.78261
G1 X120.577 Y82.55 E10.84909
G1 X117.576 Y83.287 E10.93131
G1 X116.673 Y83.467 E10.95581
G1 X115.758 Y83.569 E10.98031
G1 X115.207 Y83.592 E10.99498
G1 X114.411 Y83.604 E11.01616
G1 X101.101 Y83.603 E11.37032
G1 X100.391 Y83.592 E11.38921
G1 X99.363 Y83.526 E11.41662
G1 X96.77 Y83.233 E11.48605
G1 X94.124 Y83.008 E11.55671
G1 X93.344 Y82.952 E11.57752
G1 X92.43 Y82.846 E11.602
G1 X91.528 Y82.661 E11.6265
G1 X90.645 Y82.399 E11.65101
G1 X89.789 Y82.061 E11.6755
G1 X88.965 Y81.65 E11.7
G1 X88.18 Y81.169 E11.7245
G1 X87.44 Y80.622 E11.74898
G1 X86.749 Y80.012 E11.77351
G1 X86.115 Y79.346 E11.79798
G1 X85.54 Y78.626 E11.82249
G1 X85.031 Y77.859 E11.84699
G1 X84.589 Y77.051 E11.87149
G1 X84.22 Y76.208 E11.89598
G1 X83.925 Y75.336 E11.92047
G1 X83.707 Y74.442 E11.94496
G1 X83.567 Y73.532 E11.96945
G1 X83.509 Y72.707 E11.99146
G1 X83.495 Y72.089 E12.00791
G1 X83.495 Y63.37 E12.2399
G1 F1500 E5.7399
;MESH:void_switch-v25.stl
G0 F6000 X97.421 Y64.578
;TYPE:WALL-INNER
G1 F1500 E12.2399
G1 F900 X97.421 Y63.578 E12.26651
G1 X96.911 Y63.728 E12.28066
G1 X95.932 Y63.728 E12.30671
G1 X95.495 Y63.627 E12.31864
G1 X95.494 Y64.578 E12.34395
G1 X97.421 Y64.578 E12.39522
G0 F6000 X97.821 Y65.104
G1 F900 X97.821 Y63.279 E12.44378
G1 X97.591 Y63.226 E12.45006
G1 X97.41 Y63.097 E12.45597
G1 X97.228 Y63.226 E12.46191
G1 X96.876 Y63.328 E12.47166
G1 X95.945 Y63.328 E12.49643
G1 X95.567 Y63.241 E12.50675
G1 X95.43 Y63.152 E12.5111
G1 X95.293 Y63.241 E12.51545
G1 X95.095 Y63.283 E12.52083
G1 X95.092 Y65.106 E12.56934
G1 X95.475 Y64.978 E12.58008
G1 X97.441 Y64.978 E12.6324
G1 X97.821 Y65.104 E12.64305
G0 F6000 X98.131 Y65.978
G1 F672.9 X98.176 Y65.633 E12.65543
G1 F809 X98.221 Y65.288 E12.66573
G1 F900 X98.221 Y62.992 E12.72682
G1 X98.184 Y62.928 E12.72879
G1 X98.034 Y62.928 E12.73278
G1 X97.768 Y62.867 E12.74004
G1 X97.612 Y62.756 E12.74514
G1 F843.1 X97.409 Y62.382 E12.75722
G1 X97.208 Y62.756 E12.76928
G1 F900 X97.051 Y62.867 E12.7744
G1 X96.853 Y62.925 E12.77989
G1 X95.957 Y62.928 E12.80373
G1 X95.731 Y62.876 E12.8099
G1 X95.575 Y62.775 E12.81485
G1 X95.43 Y62.48 E12.82359
G1 X95.284 Y62.775 E12.83235
G1 X95.129 Y62.876 E12.83727
G1 X94.882 Y62.928 E12.84399
G1 X94.731 Y62.928 E12.84801
G1 X94.694 Y62.992 E12.84997
G1 X94.692 Y65.288 E12.91107
G1 F809 X94.738 Y65.633 E12.92137
G1 F672.9 X94.785 Y65.978 E12.93376
G1 X94.949 Y65.738 E12.9441
G1 F809 X95.113 Y65.498 E12.95271
G1 F900 X95.475 Y65.378 E12.96286
G1 X97.441 Y65.378 E13.01517
G1 X97.802 Y65.497 E13.02528
G1 F809 X97.966 Y65.737 E13.03389
G1 F672.9 X98.131 Y65.978 E13.04428
G1 F1500 E6.54428
G0 F6000 X97.641 Y72.189
;TYPE:WALL-OUTER
G1 F1500 E13.04428
G1 F900 X98.621 Y72.189 E13.07036
G1 X98.621 Y62.884 E13.31795
G1 X98.414 Y62.528 E13.3289
G1 X98.034 Y62.528 E13.33901
G1 X97.893 Y62.471 E13.34306
G1 X97.834 Y62.346 E13.34674
G1 X97.833 Y59.028 E13.43502
G1 X96.985 Y59.028 E13.45759
G1 X96.985 Y62.346 E13.54587
G1 X96.926 Y62.471 E13.54955
G1 X96.808 Y62.527 E13.55303
G1 X95.916 Y62.528 E13.57676
G1 F757.9 X95.703 Y62.352 E13.58549
G1 F655.7 X95.703 Y60.726 E13.64487
G1 F658.1 X95.703 Y59.1 E13.70404
G1 X95.156 Y59.101 E13.72394
G1 X95.156 Y60.727 E13.78311
G1 F655.7 X95.156 Y62.353 E13.84249
G1 F757.9 X94.945 Y62.528 E13.85115
G1 F900 X94.501 Y62.528 E13.86296
G1 X94.294 Y62.884 E13.87392
G1 X94.295 Y72.189 E14.12151
G1 X95.275 Y72.189 E14.14758
G1 X95.275 Y65.978 E14.31285
G1 X95.354 Y65.818 E14.3176
G1 X95.475 Y65.778 E14.32099
G1 X97.441 Y65.778 E14.3733
G1 X97.562 Y65.817 E14.37668
G1 X97.641 Y65.978 E14.38145
G1 X97.641 Y72.189 E14.54672
G0 F6000 X98.131 Y71.699
;TYPE:WALL-INNER
G1 F620.7 X98.131 Y65.978 E14.76744
G1 F1500 E8.26744
G0 F6000 X94.785 Y65.978
G1 F1500 E14.76744
G1 F620.7 X94.785 Y71.699 E14.98817
G1 F1500 E8.48817
G0 F6000 X97.409 Y62.382
G1 F1500 E14.98817
G1 F794.7 X97.409 Y60.917 E15.03231
G1 F798.2 X97.409 Y59.452 E15.07626
G1 F1500 E8.57626
G0 F6000 X96.992 Y64.149
;TYPE:SKIN
G1 F1500 E15.07626
G1 F671.6 X96.456 Y64.151 E15.09538
G1 F676.7 X95.92 Y64.153 E15.11434
G1 F1500 E8.61434
G0 F6000 X101.169 Y59.973
;TYPE:WALL-INNER
G1 F1500 E15.11434
G1 F900 X102.434 Y58.707 E15.16196
G1 X101.169 Y58.707 E15.19562
G1 X101.169 Y59.973 E15.22931
G0 F6000 X101.582 Y59.078
G1 F1052.6 X101.519 Y59.114 E15.23096
G1 X101.498 Y59.078 E15.23191
G1 X101.56 Y59.042 E15.23354
G1 F1500 E8.73354
G0 F6000 X100.846 Y64.767
G1 F1500 E15.23354
G1 F647.5 X101.044 Y64.287 E15.25274
G1 X101.516 Y63.814 E15.27746
G1 F661.8 X101.275 Y63.573 E15.28979
G1 F786 X101.139 Y63.163 E15.30295
G1 F942.4 X101.138 Y62.387 E15.32267
G1 F947.4 X101.137 Y61.611 E15.34229
G1 F952.4 X101.136 Y60.835 E15.3618
G1 F927.8 X101.298 Y60.41 E15.37354
G1 F900 X102.872 Y58.834 E15.4328
G1 F920.7 X103.194 Y58.676 E15.44213
G1 F947.4 X104.36 Y58.674 E15.47161
G1 F954.9 X105.526 Y58.671 E15.50085
G1 F867.5 X105.779 Y58.739 E15.50808
G1 F730.2 X106.034 Y58.808 E15.51674
G1 F663 X106.278 Y59.054 E15.52926
G1 F648.6 X106.751 Y58.581 E15.55395
G1 F644 X107.113 Y58.388 E15.56921
G1 X106.278 Y58.383 E15.60026
G1 F676.7 X106.168 Y58.361 E15.60423
G1 F757.9 X105.847 Y58.328 E15.61442
G1 F880.2 X105.525 Y58.295 E15.62323
G1 F957.4 X103.297 Y58.295 E15.67896
G1 F942.4 X102.975 Y58.301 E15.68714
G1 F913.7 X102.653 Y58.307 E15.69558
G1 F900 X100.769 Y58.307 E15.74571
G1 X100.769 Y60.191 E15.79584
G1 F913.7 X100.763 Y60.513 E15.80428
G1 F942.4 X100.757 Y60.835 E15.81246
G1 F952.4 X100.757 Y61.621 E15.83223
G1 F947.4 X100.758 Y62.408 E15.85212
G1 F942.4 X100.758 Y63.195 E15.87212
G1 F867.5 X100.791 Y63.45 E15.87922
G1 F753.1 X100.824 Y63.704 E15.88736
G1 F675.4 X100.847 Y63.814 E15.89135
G1 F647.5 X100.846 Y64.767 E15.92659
G1 F1500 E9.42659
G0 F6000 X106.481 Y71.605
G1 F1500 E15.92659
G1 F900 X106.239 Y71.464 E15.93405
G1 X101.57 Y66.794 E16.10976
G1 X101.569 Y71.603 E16.23772
G1 X106.481 Y71.605 E16.36842
G0 F6000 X107.978 Y71.605
G1 F900 X114.066 Y71.605 E16.53041
G1 X114.066 Y65.522 E16.69226
G1 X113.928 Y65.758 E16.69954
G1 X111.492 Y68.194 E16.7912
G1 X111.289 Y68.36 E16.79818
G1 X110.975 Y68.513 E16.80747
G1 X110.822 Y68.827 E16.81677
G1 X110.657 Y69.028 E16.82369
G1 X108.221 Y71.464 E16.91535
G1 X107.978 Y71.605 E16.92283
G1 F1500 E10.42283
G0 F6000 X114.066 Y64.011
G1 F1500 E16.92283
G1 F900 X114.066 Y59.105 E17.05337
G1 X109.257 Y59.106 E17.18133
G1 X113.928 Y63.776 E17.35707
G1 X114.066 Y64.011 E17.36433
G1 F1500 E10.86433
G0 F6000 X106.181 Y72.004
G1 F1500 E17.36433
G1 F873.8 X106.531 Y71.992 E17.37392
G1 F821.9 X106.881 Y71.979 E17.38413
G1 F777.5 X107.01 Y71.967 E17.38812
G1 F756.3 X107.45 Y71.967 E17.40205
G1 F777.5 X107.579 Y71.979 E17.40604
G1 F821.9 X107.929 Y71.991 E17.41624
G1 F873.8 X108.279 Y72.004 E17.42584
G1 F900 X114.466 Y72.005 E17.59047
G1 X114.466 Y65.815 E17.75517
G1 F873.8 X114.454 Y65.465 E17.76477
