;FLAVOR:Marlin
;TIME:2052
;Filament used: 0.415833m
;Layer height: 0.16
;MINX:28.249
;MINY:91.352
;MINZ:0.16
;MAXX:82.362
;MAXY:128.648
;MAXZ:10.88
;Generated with Cura_SteamEngine main
M82 ;absolute extrusion mode
; Ender 3 Custom Start G-code
G92 E0 ; Reset Extruder
G28 ; Home all axes
M104 S120 ; Start heating up the nozzle most of the way
M190 S72.0 ; Start heating the bed, wait until target temperature reached
M109 S250.0 ; Finish heating the nozzle
G1 Z2.0 F3000 ; Move Z Axis up little to prevent scratching of Heat Bed
G1 X0.1 Y20 Z0.3 F5000.0 ; Move to start position
G1 X0.1 Y200.0 Z0.3 F1500.0 E15 ; Draw the first line
G1 X0.4 Y200.0 Z0.3 F5000.0 ; Move to side a little
G1 X0.4 Y20 Z0.3 F1500.0 E30 ; Draw the second line
G92 E0 ; Reset Extruder
G1 Z2.0 F3000 ; Move Z Axis up little to prevent scratching of Heat Bed
G1 X5 Y20 Z0.3 F5000.0 ; Move over to prevent blob squish
G92 E0
G92 E0
G1 F1500 E-6.5
;LAYER_COUNT:68
;LAYER:0
M107
G0 F6000 X36.151 Y92.744 Z0.16
G0 X29.024 Y102.13
;TYPE:SKIRT
G1 F1500 E0
G1 F600 X29.235 Y101.004 E0.03048
G1 X29.447 Y100.09 E0.05545
G1 X29.736 Y99.198 E0.0804
G1 X30.1 Y98.334 E0.10534
G1 X30.537 Y97.503 E0.13033
G1 X31.042 Y96.713 E0.15527
G1 X31.613 Y95.969 E0.18023
G1 X32.245 Y95.277 E0.20516
G1 X32.934 Y94.64 E0.23013
G1 X33.675 Y94.065 E0.25509
G1 X34.462 Y93.555 E0.28004
G1 X35.289 Y93.113 E0.30499
G1 X36.151 Y92.744 E0.32994
G1 X37.042 Y92.449 E0.35491
G1 X37.954 Y92.232 E0.37986
G1 X38.937 Y92.087 E0.4063
G1 X41.441 Y91.833 E0.47327
G1 X43.903 Y91.508 E0.53934
G1 X44.458 Y91.441 E0.55422
G1 X45.57 Y91.364 E0.58388
G1 X46.312 Y91.352 E0.60362
G1 X59.66 Y91.355 E0.95879
G1 X60.36 Y91.366 E0.97742
G1 X61.296 Y91.421 E1.00236
G1 X62.224 Y91.555 E1.02731
G1 X63.266 Y91.805 E1.05583
G1 X64.055 Y92.037 E1.07771
G1 X65.688 Y92.547 E1.12323
G1 X68.151 Y93.241 E1.19132
G1 X70.553 Y93.845 E1.25722
G1 X72.421 Y94.267 E1.30818
G1 X73.27 Y94.449 E1.33128
G1 X73.939 Y94.614 E1.34961
G1 X74.192 Y94.685 E1.35661
G1 X75.084 Y94.977 E1.38158
G1 X75.947 Y95.343 E1.40652
G1 X76.776 Y95.782 E1.43148
G1 X77.564 Y96.29 E1.45643
G1 X78.307 Y96.863 E1.48139
G1 X78.939 Y97.433 E1.50404
G1 X79.644 Y98.174 E1.53125
G1 X80.231 Y98.906 E1.55622
G1 X80.753 Y99.685 E1.58117
G1 X81.206 Y100.506 E1.60612
G1 X81.588 Y101.362 E1.63106
G1 X81.896 Y102.248 E1.65602
G1 X82.127 Y103.157 E1.68098
G1 X82.28 Y104.083 E1.70595
G1 X82.361 Y105.385 E1.74066
G1 X82.362 Y105.792 E1.75149
G1 X82.324 Y106.729 E1.77644
G1 X82.258 Y107.331 E1.79256
G1 X81.923 Y109.745 E1.8574
G1 X81.648 Y112.217 E1.92359
G1 X81.438 Y114.741 E1.99098
G1 X81.397 Y115.47 E2.0104
G1 X81.334 Y116.354 E2.03399
G1 X81.228 Y117.286 E2.05894
G1 X81.042 Y118.205 E2.08389
G1 X80.779 Y119.105 E2.10884
G1 X80.44 Y119.98 E2.13381
G1 X80.028 Y120.822 E2.15875
G1 X79.546 Y121.627 E2.18372
G1 X78.997 Y122.387 E2.20866
G1 X78.385 Y123.098 E2.23363
G1 X77.715 Y123.754 E2.25858
G1 X76.991 Y124.35 E2.28353
G1 X76.219 Y124.883 E2.30849
G1 X75.405 Y125.348 E2.33343
G1 X74.553 Y125.742 E2.35841
G1 X73.672 Y126.062 E2.38335
G1 X72.766 Y126.306 E2.40832
G1 X72.232 Y126.412 E2.4228
G1 X71.512 Y126.535 E2.44224
G1 X70.003 Y126.774 E2.48289
G1 X67.529 Y127.237 E2.54986
G1 X65.054 Y127.773 E2.61724
G1 X63.979 Y128.041 E2.64672
G1 X62.672 Y128.348 E2.68244
G1 X61.751 Y128.523 E2.70739
G1 X60.818 Y128.619 E2.73235
G1 X60.344 Y128.637 E2.74497
G1 X59.626 Y128.648 E2.76407
G1 X46.286 Y128.645 E3.11903
G1 X45.586 Y128.634 E3.13765
G1 X44.65 Y128.579 E3.1626
G1 X43.722 Y128.445 E3.18755
G1 X42.735 Y128.211 E3.21454
G1 X39.548 Y127.3 E3.30274
G1 X37.416 Y126.754 E3.3613
G1 X36.662 Y126.571 E3.38194
G1 X35.761 Y126.311 E3.40689
G1 X34.885 Y125.975 E3.43186
G1 X34.041 Y125.566 E3.45681
G1 X33.235 Y125.086 E3.48177
G1 X32.473 Y124.54 E3.50672
G1 X31.76 Y123.93 E3.53168
G1 X31.102 Y123.262 E3.55663
G1 X30.503 Y122.54 E3.5816
G1 X29.968 Y121.77 E3.60654
G1 X29.5 Y120.958 E3.63148
G1 X29.103 Y120.108 E3.65644
G1 X28.78 Y119.227 E3.68141
G1 X28.533 Y118.323 E3.70635
G1 X28.364 Y117.4 E3.73131
G1 X28.264 Y116.204 E3.76325
G1 X28.249 Y115.541 E3.78089
G1 X28.25 Y107.558 E3.99331
G1 X28.261 Y106.852 E4.01209
G1 X28.316 Y105.915 E4.03707
G1 X28.476 Y104.856 E4.06557
G1 X29.024 Y102.13 E4.13955
G1 F1500 E-2.36045
G0 F6000 X29.05 Y107.57
G1 F1500 E4.13955
G1 F600 X29.061 Y106.864 E4.15834
G1 X29.115 Y105.963 E4.18236
G1 X29.26 Y105.013 E4.20793
G1 X29.825 Y102.203 E4.28419
G1 X30.022 Y101.151 E4.31267
G1 X30.227 Y100.272 E4.33669
G1 X30.51 Y99.414 E4.36073
G1 X30.867 Y98.585 E4.38474
G1 X31.296 Y97.79 E4.40878
G1 X31.794 Y97.037 E4.4328
G1 X32.357 Y96.33 E4.45685
G1 X32.98 Y95.676 E4.48088
G1 X33.658 Y95.08 E4.5049
G1 X34.386 Y94.546 E4.52892
G1 X35.159 Y94.078 E4.55297
G1 X35.97 Y93.681 E4.57699
G1 X36.813 Y93.357 E4.60102
G1 X37.681 Y93.109 E4.62504
G1 X38.568 Y92.939 E4.64908
G1 X39.018 Y92.883 E4.66114
G1 X41.528 Y92.629 E4.72827
G1 X43.884 Y92.317 E4.79151
G1 X44.554 Y92.236 E4.80946
G1 X45.585 Y92.164 E4.83696
G1 X46.312 Y92.152 E4.85631
G1 X59.647 Y92.155 E5.21113
G1 X60.347 Y92.166 E5.22976
G1 X61.249 Y92.22 E5.2538
G1 X62.142 Y92.354 E5.27783
G1 X63.042 Y92.573 E5.30247
G1 X63.816 Y92.8 E5.32393
G1 X65.476 Y93.318 E5.3702
G1 X67.916 Y94.006 E5.43766
G1 X70.433 Y94.639 E5.50672
G1 X72.141 Y95.025 E5.55331
G1 X73.103 Y95.231 E5.57949
G1 X73.723 Y95.384 E5.59648
G1 X73.976 Y95.455 E5.60347
G1 X74.834 Y95.738 E5.62751
G1 X75.663 Y96.095 E5.65153
G1 X76.458 Y96.524 E5.67556
G1 X77.212 Y97.021 E5.69959
G1 X77.918 Y97.584 E5.72362
G1 X78.442 Y98.071 E5.74266
G1 X79.064 Y98.726 E5.76669
G1 X79.625 Y99.433 E5.7907
G1 X80.121 Y100.188 E5.81474
G1 X80.549 Y100.983 E5.83877
G1 X80.905 Y101.813 E5.8628
G1 X81.186 Y102.671 E5.88682
G1 X81.39 Y103.551 E5.91085
G1 X81.515 Y104.446 E5.9349
G1 X81.561 Y105.387 E5.95997
G1 X81.562 Y105.794 E5.9708
G1 X81.524 Y106.696 E5.99482
G1 X81.465 Y107.221 E6.00888
G1 X81.132 Y109.619 E6.0733
G1 X80.852 Y112.135 E6.14065
G1 X80.642 Y114.666 E6.20823
G1 X80.61 Y115.247 E6.22371
G1 X80.536 Y116.297 E6.25172
G1 X80.432 Y117.194 E6.27575
G1 X80.249 Y118.079 E6.2998
G1 X79.989 Y118.943 E6.3238
G1 X79.653 Y119.782 E6.34785
G1 X79.244 Y120.587 E6.37188
G1 X78.766 Y121.353 E6.3959
G1 X78.221 Y122.074 E6.41995
G1 X77.615 Y122.743 E6.44397
G1 X76.953 Y123.357 E6.46799
G1 X76.238 Y123.909 E6.49203
G1 X75.478 Y124.396 E6.51604
G1 X74.677 Y124.814 E6.54009
G1 X73.843 Y125.16 E6.56411
G1 X72.981 Y125.43 E6.58815
G1 X72.096 Y125.623 E6.61225
G1 X71.387 Y125.745 E6.63139
G1 X69.84 Y125.99 E6.67307
G1 X67.39 Y126.449 E6.73939
G1 X64.886 Y126.991 E6.80756
G1 X63.796 Y127.262 E6.83744
G1 X62.489 Y127.569 E6.87317
G1 X61.602 Y127.736 E6.89718
G1 X60.331 Y127.838 E6.93111
G1 X59.802 Y127.847 E6.94519
G1 X46.299 Y127.845 E7.30448
G1 X45.599 Y127.834 E7.32311
G1 X44.697 Y127.78 E7.34715
G1 X43.804 Y127.646 E7.37118
G1 X42.955 Y127.442 E7.39441
G1 X39.755 Y126.527 E7.48297
G1 X37.629 Y125.983 E7.54136
G1 X36.851 Y125.794 E7.56266
G1 X35.984 Y125.542 E7.58669
G1 X35.142 Y125.214 E7.61073
G1 X34.333 Y124.813 E7.63476
G1 X33.562 Y124.343 E7.65878
G1 X32.836 Y123.806 E7.68281
G1 X32.16 Y123.206 E7.70686
G1 X31.54 Y122.55 E7.73088
G1 X30.981 Y121.841 E7.7549
G1 X30.486 Y121.085 E7.77895
G1 X30.06 Y120.289 E7.80297
G1 X29.706 Y119.458 E7.827
G1 X29.428 Y118.599 E7.85103
G1 X29.226 Y117.719 E7.87505
G1 X29.103 Y116.824 E7.89909
G1 X29.063 Y116.181 E7.91623
G1 X29.049 Y115.541 E7.93326
G1 X29.05 Y107.57 E8.14536
G0 F6000 X28.65 Y107.564
G1 F600 X28.661 Y106.858 E8.16414
G1 X28.716 Y105.939 E8.18864
G1 X28.868 Y104.934 E8.21569
G1 X29.442 Y102.078 E8.2932
G1 X29.629 Y101.078 E8.32027
G1 X29.837 Y100.181 E8.34477
G1 X30.123 Y99.306 E8.36926
G1 X30.484 Y98.459 E8.39376
G1 X30.917 Y97.646 E8.41827
G1 X31.418 Y96.874 E8.44276
G1 X31.985 Y96.149 E8.46725
G1 X32.613 Y95.475 E8.49176
G1 X33.296 Y94.858 E8.51625
G1 X34.031 Y94.304 E8.54074
G1 X34.811 Y93.814 E8.56525
G1 X35.631 Y93.395 E8.58975
G1 X36.483 Y93.048 E8.61423
G1 X37.363 Y92.776 E8.63874
G1 X38.263 Y92.582 E8.66324
G1 X38.978 Y92.485 E8.68244
G1 X41.469 Y92.232 E8.74906
G1 X44.506 Y91.838 E8.83054
G1 X45.578 Y91.764 E8.85914
G1 X46.312 Y91.752 E8.87867
G1 X59.654 Y91.755 E9.23367
G1 X60.354 Y91.766 E9.2523
G1 X61.273 Y91.821 E9.2768
G1 X62.183 Y91.955 E9.30127
G1 X63.154 Y92.189 E9.32785
G1 X63.936 Y92.419 E9.34954
G1 X65.566 Y92.928 E9.39497
G1 X68.018 Y93.619 E9.46276
G1 X70.533 Y94.252 E9.53176
G1 X72.242 Y94.638 E9.57838
G1 X73.187 Y94.84 E9.6041
G1 X73.831 Y94.999 E9.62175
G1 X74.084 Y95.07 E9.62874
G1 X74.959 Y95.357 E9.65324
G1 X75.805 Y95.719 E9.67773
G1 X76.617 Y96.153 E9.70222
G1 X77.389 Y96.656 E9.72674
G1 X78.113 Y97.224 E9.75123
G1 X78.72 Y97.783 E9.77318
G1 X79.354 Y98.45 E9.79767
G1 X79.928 Y99.17 E9.82217
G1 X80.437 Y99.937 E9.84666
G1 X80.878 Y100.745 E9.87116
G1 X81.247 Y101.588 E9.89564
G1 X81.542 Y102.461 E9.92016
G1 X81.76 Y103.355 E9.94465
G1 X81.899 Y104.265 E9.96914
G1 X81.961 Y105.386 E9.99901
G1 X81.962 Y105.793 E10.00984
G1 X81.924 Y106.713 E10.03434
G1 X81.861 Y107.276 E10.04942
G1 X81.532 Y109.645 E10.11306
G1 X81.25 Y112.176 E10.18082
G1 X81.039 Y114.72 E10.24874
G1 X80.998 Y115.442 E10.26798
G1 X80.935 Y116.326 E10.29156
G1 X80.83 Y117.24 E10.31604
G1 X80.646 Y118.142 E10.34054
G1 X80.384 Y119.025 E10.36505
G1 X80.046 Y119.881 E10.38953
G1 X79.636 Y120.705 E10.41402
G1 X79.156 Y121.491 E10.43853
G1 X78.609 Y122.232 E10.46304
G1 X78 Y122.922 E10.48752
G1 X77.333 Y123.557 E10.51203
G1 X76.614 Y124.132 E10.53652
G1 X75.848 Y124.642 E10.56101
G1 X75.04 Y125.084 E10.58552
G1 X74.197 Y125.454 E10.61001
G1 X73.325 Y125.749 E10.63451
G1 X72.164 Y126.018 E10.66622
G1 X71.596 Y126.116 E10.68155
G1 X69.944 Y126.378 E10.72606
G1 X67.435 Y126.848 E10.79398
G1 X64.969 Y127.382 E10.86112
G1 X63.888 Y127.651 E10.89076
G1 X62.581 Y127.958 E10.92648
G1 X61.676 Y128.13 E10.95099
G1 X60.337 Y128.237 E10.98673
G1 X59.626 Y128.248 E11.00565
G1 X46.292 Y128.245 E11.36045
G1 X45.592 Y128.234 E11.37908
G1 X44.673 Y128.179 E11.40357
G1 X43.763 Y128.045 E11.42805
G1 X42.845 Y127.827 E11.45315
G1 X39.618 Y126.904 E11.54246
G1 X37.532 Y126.37 E11.59975
G1 X36.756 Y126.182 E11.621
G1 X35.872 Y125.926 E11.64549
G1 X35.013 Y125.595 E11.66998
G1 X34.187 Y125.19 E11.69446
G1 X33.398 Y124.714 E11.71898
G1 X32.654 Y124.172 E11.74347
G1 X31.959 Y123.568 E11.76797
G1 X31.32 Y122.906 E11.79245
G1 X30.74 Y122.19 E11.81697
G1 X30.225 Y121.427 E11.84146
G1 X29.778 Y120.622 E11.86596
G1 X29.402 Y119.782 E11.89045
G1 X29.101 Y118.912 E11.91495
G1 X28.877 Y118.019 E11.93944
G1 X28.73 Y117.11 E11.96395
G1 X28.664 Y116.193 E11.98841
G1 X28.649 Y115.541 E12.00576
G1 X28.65 Y107.564 E12.21801
G1 F1500 E5.71801
;MESH:void_switch-v8.stl
G0 F6000 X38.584 Y107.564
G0 X39.669 Y107.564
G0 X42.976 Y108.402
G1 F1500 E12.21801
G0 F6000 X42.976 Y108.428
;TYPE:WALL-INNER
G1 F600 X42.976 Y107.473 E12.24343
G1 X42.746 Y107.42 E12.24971
G1 X42.565 Y107.291 E12.25562
G1 X42.383 Y107.42 E12.26156
G1 X42.07 Y107.522 E12.27031
G1 X41.132 Y107.522 E12.29527
G1 X40.812 Y107.471 E12.30389
G1 X40.585 Y107.346 E12.31079
G1 X40.448 Y107.435 E12.31514
G1 X40.25 Y107.477 E12.32052
G1 X40.247 Y108.43 E12.34588
G1 X40.63 Y108.302 E12.35663
G1 X42.596 Y108.302 E12.40894
G1 X42.976 Y108.428 E12.41959
G0 F6000 X42.525 Y107.851
G1 F538.1 X42.114 Y107.912 E12.43192
G1 F620.2 X41.623 Y107.912 E12.44456
G1 F628.3 X41.132 Y107.912 E12.45703
G1 F575.5 X40.676 Y107.875 E12.46972
G0 F6000 X43.024 Y108.874
G0 X43.286 Y109.302
G1 F448.6 X43.331 Y108.957 E12.48211
G1 F539.3 X43.376 Y108.612 E12.4924
G1 F600 X43.376 Y107.183 E12.53043
G1 X43.34 Y107.122 E12.53231
G1 X43.189 Y107.122 E12.53633
G1 X42.923 Y107.061 E12.54359
G1 X42.767 Y106.95 E12.54869
G1 F562.1 X42.564 Y106.576 E12.56077
G1 X42.363 Y106.95 E12.57283
G1 F600 X42.206 Y107.061 E12.57795
G1 X42.02 Y107.122 E12.58316
G1 X41.132 Y107.122 E12.60679
G1 X40.94 Y107.091 E12.61196
G1 X40.73 Y106.969 E12.61842
G1 X40.585 Y106.674 E12.62717
G1 X40.439 Y106.969 E12.63593
G1 X40.284 Y107.07 E12.64085
G1 X40.037 Y107.122 E12.64757
G1 X39.885 Y107.122 E12.65161
G1 X39.849 Y107.183 E12.6535
G1 X39.847 Y108.612 E12.69152
G1 F539.3 X39.893 Y108.957 E12.70182
G1 F448.6 X39.94 Y109.302 E12.71421
G1 X40.104 Y109.062 E12.72456
G1 F539.3 X40.268 Y108.822 E12.73316
G1 F600 X40.63 Y108.702 E12.74331
G1 X42.596 Y108.702 E12.79562
G1 X42.957 Y108.821 E12.80574
G1 F539.3 X43.121 Y109.061 E12.81434
G1 F448.6 X43.286 Y109.302 E12.82473
G1 F1500 E6.32473
G0 F6000 X43.506 Y115.418
G1 F1500 E12.82473
G0 F6000 X43.776 Y115.688
;TYPE:WALL-OUTER
G1 F600 X43.776 Y107.076 E13.05388
G1 X43.571 Y106.722 E13.06477
G1 X43.189 Y106.722 E13.07493
G1 X43.048 Y106.665 E13.07898
G1 X42.989 Y106.54 E13.08266
G1 X42.988 Y103.222 E13.17094
G1 X42.14 Y103.222 E13.19351
G1 X42.14 Y106.54 E13.28179
G1 X42.081 Y106.665 E13.28547
G1 X41.975 Y106.72 E13.28865
G1 X41.085 Y106.722 E13.31233
G1 F505.3 X40.858 Y106.546 E13.3214
G1 F437.2 X40.858 Y104.92 E13.38079
G1 F438.8 X40.858 Y103.294 E13.43995
G1 X40.311 Y103.295 E13.45985
G1 X40.311 Y104.921 E13.51902
G1 F437.2 X40.311 Y106.547 E13.5784
G1 F505.3 X40.1 Y106.722 E13.58706
G1 F600 X39.654 Y106.722 E13.59893
G1 X39.449 Y107.076 E13.60981
G1 X39.45 Y115.688 E13.83896
G1 X40.43 Y115.687 E13.86504
G1 X40.43 Y109.302 E14.03493
G1 X40.509 Y109.142 E14.03968
G1 X40.63 Y109.102 E14.04307
G1 X42.596 Y109.102 E14.09538
G1 X42.717 Y109.141 E14.09876
G1 X42.796 Y109.302 E14.10354
G1 X42.797 Y115.687 E14.27343
G1 X43.776 Y115.688 E14.29948
G0 F6000 X43.286 Y115.198
;TYPE:WALL-INNER
G1 F413.8 X43.286 Y109.302 E14.52696
G0 F6000 X42.564 Y107.422
G0 X42.564 Y106.576
G1 F529.8 X42.564 Y105.111 E14.5711
G1 F532.2 X42.564 Y103.646 E14.61505
G0 F6000 X42.368 Y106.95
G0 X41.609 Y106.954
G0 X39.94 Y109.302
G1 F413.8 X39.94 Y115.197 E14.84249
G1 F1500 E8.34249
G0 F6000 X40.202 Y108.874
G0 X43.024 Y108.874
G0 X43.562 Y115.474
G0 X45.743 Y115.476
G0 X46.896 Y116.074
G0 X51.568 Y116.246
G1 F1500 E14.84249
G1 F600 X51.412 Y116.156 E14.84728
G1 X46.725 Y111.467 E15.02369
G1 X46.724 Y116.246 E15.15085
G1 X51.568 Y116.246 E15.27974
G0 F6000 X52.243 Y116.318
G0 X59.221 Y116.248
G1 F600 X59.221 Y110.261 E15.43904
G1 X59.128 Y110.42 E15.44394
G1 X56.664 Y112.884 E15.53666
G1 X56.469 Y113.047 E15.54343
G1 X56.17 Y113.196 E15.55232
G1 X56.021 Y113.495 E15.5612
G1 X55.859 Y113.691 E15.56797
G1 X53.394 Y116.156 E15.66073
G1 X53.238 Y116.246 E15.66552
G1 X59.221 Y116.248 E15.82472
G0 F6000 X59.309 Y109.43
G0 X59.221 Y108.599
G1 F600 X59.221 Y103.754 E15.95363
G1 X54.442 Y103.754 E16.08079
G1 X59.128 Y108.44 E16.25712
G1 X59.221 Y108.599 E16.26203
G0 F6000 X59.621 Y116.648
G1 F600 X59.621 Y110.458 E16.42673
G1 F588.2 X59.613 Y110.187 E16.43409
G1 F564.7 X59.605 Y109.916 E16.44175
G1 F544.2 X59.596 Y109.645 E16.44971
G1 F533.3 X59.596 Y109.214 E16.46261
G1 F544.2 X59.604 Y108.943 E16.47056
G1 F564.7 X59.612 Y108.672 E16.47823
G1 F588.2 X59.621 Y108.401 E16.48559
G1 F600 X59.621 Y103.354 E16.61988
G1 X53.476 Y103.354 E16.78338
G1 X58.845 Y108.723 E16.98542
G1 F591.1 X58.997 Y108.963 E16.99309
G1 F574.2 X59.15 Y109.203 E17.001
G1 F564.7 X59.15 Y109.657 E17.01384
G1 F574.2 X58.998 Y109.897 E17.02174
G1 F591.1 X58.845 Y110.137 E17.02942
G1 F600 X56.382 Y112.602 E17.12214
G1 X56.109 Y112.796 E17.13105
G1 X55.837 Y112.863 E17.13851
G1 X55.845 Y112.919 E17.14001
G1 X55.722 Y113.223 E17.14874
G1 X55.576 Y113.408 E17.15501
G1 X53.111 Y115.873 E17.24777
G1 F591.1 X52.87 Y116.024 E17.25545
G1 F574.2 X52.629 Y116.176 E17.26337
G1 F564.7 X52.176 Y116.176 E17.27618
G1 F574.2 X51.936 Y116.025 E17.28406
G1 F591.1 X51.695 Y115.873 E17.29176
G1 F600 X46.325 Y110.502 E17.49385
G1 X46.324 Y116.646 E17.65733
G1 X51.375 Y116.646 E17.79172
G1 F588.2 X51.718 Y116.638 E17.80104
G1 F564.7 X52.061 Y116.63 E17.81074
G1 F543 X52.187 Y116.621 E17.81445
G1 F533.3 X52.619 Y116.621 E17.82738
G1 F543 X52.745 Y116.63 E17.8311
G1 F564.7 X53.088 Y116.638 E17.84079
G1 F588.2 X53.431 Y116.646 E17.85011
G1 F600 X59.621 Y116.648 E18.01481
G0 F6000 X60.021 Y117.048
G1 F600 X60.021 Y102.954 E18.38983
G1 X52.959 Y102.953 E18.57773
G1 F550.5 X52.681 Y102.988 E18.58586
