;FLAVOR:Marlin
;TIME:2311
;Filament used: 0.500768m
;Layer height: 0.16
;MINX:70.154
;MINY:89.928
;MINZ:0.16
;MAXX:134.014
;MAXY:128.648
;MAXZ:10.56
;Generated with Cura_SteamEngine main
M82 ;absolute extrusion mode
; Ender 3 Custom Start G-code
G92 E0 ; Reset Extruder
G28 ; Home all axes
M104 S120 ; Start heating up the nozzle most of the way
M190 S68.0 ; Start heating the bed, wait until target temperature reached
M109 S248.0 ; Finish heating the nozzle
G1 Z2.0 F3000 ; Move Z Axis up little to prevent scratching of Heat Bed
G1 X0.1 Y20 Z0.3 F5000.0 ; Move to start position
G1 X0.1 Y200.0 Z0.3 F1500.0 E15 ; Draw the first line
G1 X0.4 Y200.0 Z0.3 F5000.0 ; Move to side a little
G1 X0.4 Y20 Z0.3 F1500.0 E30 ; Draw the second line
G92 E0 ; Reset Extruder
G1 Z2.0 F3000 ; Move Z Axis up little to prevent scratching of Heat Bed
G1 X5 Y20 Z0.3 F5000.0 ; Move over to prevent blob squish
G92 E0
G92 E0
G1 F1500 E-3.5
;LAYER_COUNT:66
;LAYER:0
M107
G0 F6000 X74.851 Y92.537 Z0.16
G0 X71.068 Y99.293
;TYPE:SKIRT
G1 F1500 E0
G1 F600 X71.143 Y98.896 E0.01075
G1 X71.356 Y97.983 E0.0357
G1 X71.647 Y97.091 E0.06066
G1 X72.012 Y96.227 E0.08562
G1 X72.449 Y95.397 E0.11058
G1 X72.956 Y94.608 E0.13553
G1 X73.528 Y93.865 E0.16048
G1 X74.161 Y93.173 E0.18544
G1 X74.851 Y92.537 E0.2104
G1 X75.592 Y91.963 E0.23534
G1 X76.38 Y91.454 E0.26031
G1 X77.208 Y91.014 E0.28525
G1 X78.07 Y90.646 E0.31019
G1 X78.961 Y90.352 E0.33516
G1 X79.874 Y90.136 E0.36012
G1 X80.802 Y89.998 E0.38509
G1 X81.624 Y89.943 E0.40701
G1 X82.287 Y89.928 E0.42465
G1 X84.386 Y89.928 E0.4805
G1 X85.246 Y89.939 E0.50339
G1 X86.573 Y89.991 E0.53872
G1 X89.235 Y90.066 E0.60958
G1 X92.326 Y90.077 E0.69183
G1 X93.03 Y90.087 E0.71056
G1 X93.967 Y90.14 E0.73553
G1 X94.447 Y90.199 E0.7484
G1 X97.415 Y90.628 E0.8282
G1 X99.906 Y90.912 E0.89491
G1 X102.415 Y91.127 E0.96191
G1 X104.948 Y91.272 E1.02942
G1 X107.443 Y91.344 E1.09583
G1 X108.833 Y91.354 E1.13282
G1 X111.322 Y91.355 E1.19905
G1 X112.015 Y91.366 E1.21749
G1 X112.951 Y91.421 E1.24244
G1 X113.879 Y91.556 E1.26739
G1 X114.957 Y91.816 E1.2969
G1 X115.963 Y92.115 E1.32482
G1 X117.127 Y92.481 E1.35729
G1 X119.534 Y93.164 E1.42386
G1 X121.957 Y93.777 E1.49037
G1 X123.955 Y94.231 E1.54488
G1 X125.072 Y94.472 E1.57529
G1 X125.979 Y94.709 E1.60023
G1 X126.863 Y95.022 E1.62518
G1 X127.81 Y95.451 E1.65285
G1 X128.721 Y95.961 E1.68063
G1 X129.497 Y96.488 E1.70559
G1 X130.226 Y97.078 E1.73054
G1 X130.902 Y97.729 E1.75551
G1 X131.519 Y98.434 E1.78044
G1 X132.075 Y99.19 E1.80541
G1 X132.564 Y99.99 E1.83036
G1 X133.07 Y101.015 E1.86077
G1 X133.44 Y101.981 E1.8883
G1 X133.701 Y102.881 E1.91323
G1 X133.885 Y103.801 E1.9382
G1 X133.989 Y104.733 E1.96315
G1 X134.014 Y105.6 E1.98623
G1 X134.011 Y105.896 E1.99411
G1 X133.925 Y107.169 E2.02805
G1 X133.864 Y107.65 E2.04096
G1 X133.609 Y109.441 E2.08909
G1 X133.325 Y111.934 E2.15585
G1 X133.109 Y114.462 E2.22336
G1 X133.054 Y115.401 E2.24839
G1 X132.986 Y116.36 E2.27397
G1 X132.88 Y117.292 E2.29893
G1 X132.695 Y118.211 E2.32388
G1 X132.432 Y119.112 E2.34885
G1 X132.094 Y119.986 E2.37378
G1 X131.682 Y120.829 E2.39875
G1 X131.2 Y121.633 E2.42369
G1 X130.651 Y122.394 E2.44866
G1 X130.039 Y123.105 E2.47362
G1 X129.369 Y123.761 E2.49857
G1 X128.646 Y124.358 E2.52352
G1 X127.874 Y124.891 E2.54848
G1 X127.06 Y125.356 E2.57343
G1 X126.209 Y125.751 E2.59839
G1 X125.328 Y126.071 E2.62333
G1 X124.422 Y126.315 E2.6483
G1 X123.765 Y126.442 E2.6661
G1 X121.605 Y126.79 E2.72432
G1 X119.124 Y127.255 E2.79148
G1 X116.651 Y127.791 E2.85881
G1 X115.846 Y127.992 E2.88089
G1 X115.662 Y128.03 E2.88589
G1 X114.382 Y128.336 E2.9209
G1 X113.462 Y128.515 E2.94584
G1 X112.529 Y128.615 E2.97081
G1 X112.028 Y128.636 E2.98415
G1 X111.287 Y128.648 E3.00387
G1 X97.939 Y128.645 E3.35904
G1 X97.239 Y128.634 E3.37766
G1 X96.303 Y128.579 E3.40261
G1 X95.375 Y128.445 E3.42756
G1 X94.7 Y128.295 E3.44596
G1 X91.905 Y127.584 E3.5227
G1 X89.455 Y127.03 E3.58953
G1 X86.917 Y126.534 E3.65834
G1 X84.481 Y126.128 E3.72405
G1 X81.974 Y125.782 E3.79139
G1 X79.937 Y125.553 E3.84594
G1 X79.01 Y125.409 E3.8709
G1 X78.099 Y125.186 E3.89585
G1 X77.211 Y124.887 E3.92078
G1 X76.351 Y124.513 E3.94574
G1 X75.525 Y124.067 E3.97071
G1 X74.741 Y123.552 E3.99567
G1 X74.004 Y122.973 E4.02061
G1 X73.319 Y122.332 E4.04557
G1 X72.69 Y121.636 E4.07054
G1 X72.124 Y120.889 E4.09547
G1 X71.623 Y120.096 E4.12043
G1 X71.191 Y119.263 E4.1454
G1 X70.832 Y118.397 E4.17034
G1 X70.548 Y117.503 E4.1953
G1 X70.341 Y116.588 E4.22026
G1 X70.213 Y115.659 E4.24522
G1 X70.168 Y114.935 E4.26452
G1 X70.154 Y114.271 E4.28219
G1 X70.155 Y105.764 E4.50854
G1 X70.166 Y105.058 E4.52733
G1 X70.221 Y104.121 E4.55231
G1 X70.351 Y103.217 E4.57661
G1 X70.538 Y102.214 E4.60376
G1 X70.725 Y101.283 E4.62902
G1 X71.068 Y99.293 E4.68275
G1 F1500 E1.18275
G0 F6000 X70.955 Y105.776
G1 F1500 E4.68275
G1 F600 X70.966 Y105.07 E4.70154
G1 X71.02 Y104.169 E4.72556
G1 X71.137 Y103.364 E4.7472
G1 X71.294 Y102.52 E4.77005
G1 X71.504 Y101.473 E4.79846
G1 X71.854 Y99.442 E4.8533
G1 X71.929 Y99.045 E4.86405
G1 X72.136 Y98.165 E4.8881
G1 X72.42 Y97.308 E4.91212
G1 X72.778 Y96.479 E4.93615
G1 X73.209 Y95.685 E4.96019
G1 X73.707 Y94.932 E4.98421
G1 X74.271 Y94.227 E5.00823
G1 X74.895 Y93.574 E5.03227
G1 X75.574 Y92.978 E5.05631
G1 X76.303 Y92.445 E5.08033
G1 X77.076 Y91.979 E5.10435
G1 X77.888 Y91.583 E5.12839
G1 X78.731 Y91.26 E5.15241
G1 X79.6 Y91.013 E5.17645
G1 X80.487 Y90.844 E5.20047
G1 X81.648 Y90.743 E5.23148
G1 X82.287 Y90.728 E5.24849
G1 X84.386 Y90.728 E5.30434
G1 X85.523 Y90.747 E5.3346
G1 X86.589 Y90.792 E5.36299
G1 X89.21 Y90.866 E5.43276
G1 X92.315 Y90.877 E5.51537
G1 X93.019 Y90.887 E5.53411
G1 X94.332 Y90.991 E5.56915
G1 X97.308 Y91.421 E5.64916
G1 X99.819 Y91.708 E5.71641
G1 X102.37 Y91.926 E5.78453
G1 X104.879 Y92.07 E5.8514
G1 X107.461 Y92.144 E5.92013
G1 X108.827 Y92.154 E5.95648
G1 X111.309 Y92.155 E6.02252
G1 X112.002 Y92.166 E6.04097
G1 X112.903 Y92.221 E6.06498
G1 X113.796 Y92.354 E6.08901
G1 X114.73 Y92.583 E6.1146
G1 X115.723 Y92.878 E6.14216
G1 X116.879 Y93.242 E6.17441
G1 X119.33 Y93.937 E6.24219
G1 X121.827 Y94.569 E6.31073
G1 X123.735 Y95.002 E6.36279
G1 X124.903 Y95.254 E6.39458
G1 X125.777 Y95.484 E6.41863
G1 X126.626 Y95.79 E6.44264
G1 X127.454 Y96.168 E6.46686
G1 X128.329 Y96.66 E6.49357
G1 X129.074 Y97.17 E6.51759
G1 X129.771 Y97.744 E6.54162
G1 X130.414 Y98.378 E6.56565
G1 X130.999 Y99.066 E6.58968
G1 X131.521 Y99.804 E6.61373
G1 X131.975 Y100.584 E6.63774
G1 X132.34 Y101.346 E6.66022
G1 X132.693 Y102.267 E6.68647
G1 X132.94 Y103.136 E6.71051
G1 X133.109 Y104.023 E6.73453
G1 X133.199 Y104.922 E6.75857
G1 X133.214 Y105.592 E6.7764
G1 X133.211 Y105.888 E6.78428
G1 X133.131 Y107.068 E6.81575
G1 X133.07 Y107.549 E6.82865
G1 X132.814 Y109.345 E6.87692
G1 X132.53 Y111.844 E6.94384
G1 X132.312 Y114.385 E7.0117
G1 X132.266 Y115.201 E7.03345
G1 X132.188 Y116.303 E7.06285
G1 X132.085 Y117.201 E7.0869
G1 X131.902 Y118.085 E7.11092
G1 X131.642 Y118.95 E7.13495
G1 X131.306 Y119.788 E7.15897
G1 X130.898 Y120.594 E7.18301
G1 X130.42 Y121.36 E7.20704
G1 X129.876 Y122.081 E7.23107
G1 X129.27 Y122.751 E7.25511
G1 X128.608 Y123.364 E7.27911
G1 X127.893 Y123.917 E7.30316
G1 X127.133 Y124.404 E7.32718
G1 X126.333 Y124.823 E7.35121
G1 X125.498 Y125.168 E7.37525
G1 X124.637 Y125.439 E7.39927
G1 X123.637 Y125.652 E7.42647
G1 X121.456 Y126.004 E7.48526
G1 X118.985 Y126.467 E7.55215
G1 X116.483 Y127.009 E7.62027
G1 X115.653 Y127.216 E7.64303
G1 X115.468 Y127.254 E7.64805
G1 X114.196 Y127.558 E7.68285
G1 X113.309 Y127.729 E7.70689
G1 X112.013 Y127.836 E7.74149
G1 X111.287 Y127.848 E7.76081
G1 X97.952 Y127.845 E8.11563
G1 X97.252 Y127.834 E8.13426
G1 X96.35 Y127.78 E8.1583
G1 X95.457 Y127.646 E8.18233
G1 X94.897 Y127.52 E8.1976
G1 X92.085 Y126.805 E8.2748
G1 X89.583 Y126.239 E8.34306
G1 X87.094 Y125.752 E8.41054
G1 X84.615 Y125.339 E8.47741
G1 X82.059 Y124.986 E8.54607
G1 X80.026 Y124.758 E8.6005
G1 X79.134 Y124.618 E8.62453
G1 X78.258 Y124.399 E8.64855
G1 X77.405 Y124.104 E8.67257
G1 X76.581 Y123.734 E8.6966
G1 X75.793 Y123.293 E8.72063
G1 X75.047 Y122.784 E8.74466
G1 X74.349 Y122.211 E8.76869
G1 X73.704 Y121.578 E8.79273
G1 X73.118 Y120.891 E8.81676
G1 X72.595 Y120.155 E8.84079
G1 X72.139 Y119.375 E8.86483
G1 X71.754 Y118.558 E8.88886
G1 X71.443 Y117.711 E8.91287
G1 X71.208 Y116.839 E8.9369
G1 X71.051 Y115.949 E8.96094
G1 X70.968 Y114.912 E8.98862
G1 X70.954 Y114.271 E9.00568
G1 X70.955 Y105.776 E9.23172
G0 F6000 X70.555 Y105.77
G1 F600 X70.566 Y105.064 E9.25051
G1 X70.621 Y104.145 E9.275
G1 X70.744 Y103.29 E9.29799
G1 X70.93 Y102.293 E9.32497
G1 X71.117 Y101.364 E9.35019
G1 X71.461 Y99.367 E9.40411
G1 X71.536 Y98.97 E9.41486
G1 X71.746 Y98.074 E9.43934
G1 X72.033 Y97.199 E9.46385
G1 X72.395 Y96.353 E9.48833
G1 X72.829 Y95.541 E9.51283
G1 X73.332 Y94.769 E9.53735
G1 X73.9 Y94.045 E9.56183
G1 X74.528 Y93.372 E9.58633
G1 X75.213 Y92.756 E9.61084
G1 X75.948 Y92.202 E9.63533
G1 X76.729 Y91.714 E9.65983
G1 X77.549 Y91.296 E9.68432
G1 X78.402 Y90.95 E9.70881
G1 X79.282 Y90.68 E9.73331
G1 X80.182 Y90.487 E9.7578
G1 X81.096 Y90.373 E9.78231
G1 X81.636 Y90.343 E9.7967
G1 X82.287 Y90.328 E9.81402
G1 X84.386 Y90.328 E9.86987
G1 X85.241 Y90.339 E9.89263
G1 X86.544 Y90.391 E9.92732
G1 X89.223 Y90.466 E9.99864
G1 X92.321 Y90.477 E10.08107
G1 X93.025 Y90.487 E10.0998
G1 X94.389 Y90.595 E10.13621
G1 X97.34 Y91.021 E10.21554
G1 X99.898 Y91.313 E10.28405
G1 X102.359 Y91.524 E10.34977
G1 X104.913 Y91.67 E10.41784
G1 X107.477 Y91.744 E10.48609
G1 X108.83 Y91.754 E10.52209
G1 X111.315 Y91.755 E10.58821
G1 X112.008 Y91.766 E10.60666
G1 X112.927 Y91.821 E10.63115
G1 X113.838 Y91.955 E10.65565
G1 X114.844 Y92.199 E10.6832
G1 X115.663 Y92.441 E10.70592
G1 X117.003 Y92.861 E10.74329
G1 X119.432 Y93.55 E10.81047
G1 X121.887 Y94.171 E10.87785
G1 X123.879 Y94.624 E10.9322
G1 X124.988 Y94.863 E10.96239
G1 X125.878 Y95.096 E10.98687
G1 X126.745 Y95.406 E11.01137
G1 X127.632 Y95.81 E11.0373
G1 X128.525 Y96.311 E11.06455
G1 X129.286 Y96.829 E11.08904
G1 X129.999 Y97.412 E11.11355
G1 X130.659 Y98.054 E11.13805
G1 X131.26 Y98.751 E11.16254
G1 X131.799 Y99.497 E11.18702
G1 X132.271 Y100.288 E11.21153
G1 X132.704 Y101.18 E11.23792
G1 X133.067 Y102.124 E11.26483
G1 X133.321 Y103.009 E11.28933
G1 X133.497 Y103.913 E11.31383
G1 X133.594 Y104.828 E11.33832
G1 X133.614 Y105.596 E11.35876
G1 X133.611 Y105.892 E11.36663
G1 X133.528 Y107.119 E11.39936
G1 X133.467 Y107.6 E11.41226
G1 X133.213 Y109.38 E11.4601
G1 X132.924 Y111.922 E11.52817
G1 X132.711 Y114.406 E11.59451
G1 X132.665 Y115.224 E11.61631
G1 X132.587 Y116.332 E11.64586
G1 X132.483 Y117.246 E11.67034
G1 X132.299 Y118.148 E11.69484
G1 X132.037 Y119.031 E11.71934
G1 X131.7 Y119.888 E11.74385
G1 X131.29 Y120.712 E11.76834
G1 X130.81 Y121.498 E11.79284
G1 X130.263 Y122.239 E11.81735
G1 X129.654 Y122.929 E11.84184
G1 X128.988 Y123.565 E11.86634
G1 X128.269 Y124.14 E11.89084
G1 X127.503 Y124.65 E11.91532
G1 X126.695 Y125.092 E11.93983
G1 X125.853 Y125.463 E11.96431
G1 X124.981 Y125.758 E11.9888
G1 X123.701 Y126.047 E12.02372
G1 X121.553 Y126.393 E12.08161
G1 X119.03 Y126.866 E12.14991
G1 X116.567 Y127.4 E12.21697
G1 X115.749 Y127.604 E12.2394
G1 X115.568 Y127.641 E12.24432
G1 X114.289 Y127.947 E12.27931
G1 X113.385 Y128.122 E12.30381
G1 X112.021 Y128.236 E12.34023
G1 X111.287 Y128.248 E12.35976
G1 X97.945 Y128.245 E12.71477
G1 X97.245 Y128.234 E12.7334
G1 X96.326 Y128.179 E12.75789
G1 X95.416 Y128.045 E12.78237
G1 X94.799 Y127.908 E12.79919
G1 X91.986 Y127.192 E12.87642
G1 X89.515 Y126.634 E12.94382
G1 X87.023 Y126.146 E13.01139
G1 X84.53 Y125.731 E13.07864
G1 X82.034 Y125.386 E13.14568
G1 X79.982 Y125.156 E13.20063
G1 X79.072 Y125.014 E13.22513
G1 X78.178 Y124.793 E13.24964
G1 X77.307 Y124.495 E13.27413
G1 X76.465 Y124.123 E13.29862
G1 X75.658 Y123.68 E13.32312
G1 X74.893 Y123.168 E13.34761
G1 X74.175 Y122.592 E13.3721
G1 X73.51 Y121.955 E13.39661
G1 X72.902 Y121.263 E13.42112
G1 X72.357 Y120.521 E13.44561
G1 X71.879 Y119.735 E13.47009
G1 X71.47 Y118.91 E13.49459
G1 X71.134 Y118.053 E13.51909
G1 X70.875 Y117.169 E13.5436
G1 X70.692 Y116.267 E13.56809
G1 X70.568 Y114.924 E13.60397
G1 X70.554 Y114.271 E13.62135
G1 X70.555 Y105.77 E13.84755
G1 F1500 E10.34755
;MESH:void_switch-v48-stem.stl(1)
G0 F6000 X84.481 Y106.688
;TYPE:WALL-INNER
G1 F1500 E13.84755
G1 F600 X84.481 Y105.678 E13.87442
G1 X83.975 Y105.828 E13.88846
G1 X82.996 Y105.828 E13.91451
G1 X82.554 Y105.727 E13.92658
G1 X82.554 Y106.688 E13.95215
G1 X84.481 Y106.688 E14.00342
G0 F6000 X84.881 Y107.213
G1 F600 X84.881 Y105.5 E14.049
G1 X84.81 Y105.378 E14.05276
G1 X84.651 Y105.326 E14.05721
G1 X84.47 Y105.197 E14.06312
G1 X84.288 Y105.326 E14.06906
G1 X83.955 Y105.423 E14.07829
G1 X83.007 Y105.428 E14.10351
G1 X82.626 Y105.341 E14.11391
G1 X82.489 Y105.252 E14.11826
G1 X82.225 Y105.379 E14.12605
G1 X82.155 Y105.499 E14.12975
G1 X82.154 Y107.214 E14.17538
G1 X82.534 Y107.088 E14.18603
G1 X84.5 Y107.088 E14.23835
G1 X84.881 Y107.213 E14.24902
G0 F6000 X85.19 Y108.088
G1 F447.8 X85.235 Y107.743 E14.26142
G1 F539.3 X85.281 Y107.398 E14.27172
G1 F600 X85.281 Y105.392 E14.3251
G1 X85.067 Y105.024 E14.33643
G1 X84.828 Y104.967 E14.34296
G1 X84.672 Y104.856 E14.34806
G1 F562.1 X84.469 Y104.482 E14.36015
G1 X84.268 Y104.856 E14.37221
G1 F600 X84.111 Y104.967 E14.37732
G1 X83.911 Y105.025 E14.38286
G1 X83.018 Y105.028 E14.40662
G1 X82.79 Y104.976 E14.41285
G1 X82.634 Y104.875 E14.41779
G1 X82.489 Y104.582 E14.42649
G1 X82.344 Y104.875 E14.43519
G1 X82.147 Y104.993 E14.4413
G1 X81.968 Y105.024 E14.44613
G1 X81.755 Y105.392 E14.45745
G1 X81.754 Y107.398 E14.51082
G1 F539.3 X81.799 Y107.743 E14.52112
G1 F448.6 X81.844 Y108.088 E14.5335
G1 X82.008 Y107.848 E14.54385
G1 F539.3 X82.173 Y107.607 E14.55249
G1 F600 X82.534 Y107.488 E14.56261
G1 X84.5 Y107.488 E14.61492
G1 X84.863 Y107.607 E14.62508
G1 F539.3 X85.026 Y107.847 E14.63367
G1 F447.8 X85.19 Y108.088 E14.64407
G1 F1500 E11.14407
G0 F6000 X85.681 Y114.428
;TYPE:WALL-OUTER
G1 F1500 E14.64407
G1 F600 X85.681 Y105.284 E14.88737
G1 X85.299 Y104.628 E14.90757
G1 X85.005 Y104.608 E14.91541
G1 X84.894 Y104.446 E14.92063
G1 X84.893 Y101.128 E15.00892
G1 X84.045 Y101.128 E15.03148
G1 X84.045 Y104.446 E15.11977
G1 X83.986 Y104.571 E15.12345
G1 X83.867 Y104.627 E15.12695
G1 X82.975 Y104.628 E15.15068
G1 F506.3 X82.762 Y104.452 E15.15939
G1 F438 X82.762 Y101.201 E15.2779
G1 F438.8 X82.216 Y101.201 E15.29777
G1 F438 X82.216 Y104.452 E15.41628
G1 F506.3 X82.011 Y104.617 E15.42458
G1 F600 X81.735 Y104.628 E15.43193
G1 X81.355 Y105.284 E15.4521
G1 X81.354 Y114.429 E15.69543
G1 X82.334 Y114.428 E15.7215
G1 X82.334 Y108.088 E15.8902
G1 X82.413 Y107.927 E15.89497
G1 X82.534 Y107.888 E15.89835
G1 X84.5 Y107.888 E15.95067
G1 X84.621 Y107.927 E15.95405
G1 X84.7 Y108.088 E15.95882
G1 X84.701 Y114.428 E16.12752
G1 X85.681 Y114.428 E16.15359
G0 F6000 X85.191 Y113.938
;TYPE:WALL-INNER
G1 F413.8 X85.191 Y111.013 E16.26644
G1 F413.1 X85.19 Y108.088 E16.37949
G1 F1500 E12.87949
G0 F6000 X81.844 Y108.088
G1 F1500 E16.37949
G1 F413.8 X81.844 Y113.939 E16.60523
G1 F1500 E13.10523
G0 F6000 X84.469 Y104.482
G1 F1500 E16.60523
G1 F529.8 X84.469 Y103.017 E16.64938
G1 F532.2 X84.469 Y101.552 E16.69333
G1 F1500 E13.19333
G0 F6000 X84.048 Y106.255
;TYPE:SKIN
G1 F1500 E16.69333
G1 F442 X82.984 Y106.258 E16.73176
G1 F1500 E13.23176
;MESH:void_switch-v48-stem.stl
G0 F6000 X92.265 Y106.836
;TYPE:WALL-INNER
G1 F1500 E16.73176
G1 F600 X92.265 Y105.826 E16.75864
G1 X91.759 Y105.976 E16.77268
G1 X90.78 Y105.976 E16.79873
G1 X90.338 Y105.875 E16.81079
G1 X90.338 Y106.836 E16.83636
G1 X92.265 Y106.836 E16.88764
G0 F6000 X92.665 Y107.361
G1 F600 X92.665 Y105.648 E16.93322
G1 X92.594 Y105.526 E16.93697
G1 X92.435 Y105.474 E16.94142
G1 X92.254 Y105.345 E16.94734
G1 X92.072 Y105.474 E16.95327
G1 X91.739 Y105.571 E16.9625
G1 X90.791 Y105.576 E16.98773
G1 X90.41 Y105.489 E16.99812
G1 X90.273 Y105.4 E17.00247
G1 X90.009 Y105.527 E17.01027
G1 X89.939 Y105.647 E17.01396
G1 X89.936 Y107.364 E17.05965
G1 X90.319 Y107.236 E17.07039
G1 X92.284 Y107.236 E17.12268
G1 X92.665 Y107.361 E17.13335
G0 F6000 X92.974 Y108.236
