;FLAVOR:Marlin
;TIME:2018
;Filament used: 0.406019m
;Layer height: 0.16
;MINX:14.151
;MINY:146.087
;MINZ:0.16
;MAXX:68.261
;MAXY:183.387
;MAXZ:10.08
;Generated with Cura_SteamEngine main
M82 ;absolute extrusion mode
; Ender 3 Custom Start G-code
G92 E0 ; Reset Extruder
G28 ; Home all axes
M104 S120 ; Start heating up the nozzle most of the way
M190 S68.0 ; Start heating the bed, wait until target temperature reached
M109 S248.0 ; Finish heating the nozzle
G1 Z2.0 F3000 ; Move Z Axis up little to prevent scratching of Heat Bed
G1 X0.1 Y20 Z0.3 F5000.0 ; Move to start position
G1 X0.1 Y200.0 Z0.3 F1500.0 E15 ; Draw the first line
G1 X0.4 Y200.0 Z0.3 F5000.0 ; Move to side a little
G1 X0.4 Y20 Z0.3 F1500.0 E30 ; Draw the second line
G92 E0 ; Reset Extruder
G1 Z2.0 F3000 ; Move Z Axis up little to prevent scratching of Heat Bed
G1 X5 Y20 Z0.3 F5000.0 ; Move over to prevent blob squish
G92 E0
G92 E0
G1 F1500 E-6.5
;LAYER_COUNT:63
;LAYER:0
M107
G0 F6000 X23.855 Y146.969 Z0.16
G0 X14.931 Y156.836
;TYPE:SKIRT
G1 F1500 E0
G1 F600 X15.136 Y155.741 E0.02964
G1 X15.348 Y154.827 E0.05461
G1 X15.637 Y153.935 E0.07956
G1 X16.001 Y153.071 E0.1045
G1 X16.438 Y152.24 E0.12949
G1 X16.943 Y151.45 E0.15443
G1 X17.514 Y150.706 E0.17939
G1 X18.146 Y150.014 E0.20432
G1 X18.835 Y149.377 E0.22929
G1 X19.576 Y148.802 E0.25425
G1 X20.363 Y148.292 E0.2792
G1 X21.19 Y147.85 E0.30415
G1 X22.052 Y147.481 E0.3291
G1 X22.943 Y147.186 E0.35407
G1 X23.855 Y146.969 E0.37902
G1 X24.843 Y146.824 E0.40559
G1 X27.406 Y146.565 E0.47413
G1 X29.629 Y146.283 E0.53376
G1 X30.129 Y146.213 E0.54719
G1 X31.423 Y146.11 E0.58173
G1 X32.696 Y146.087 E0.61561
G1 X45.561 Y146.089 E0.95792
G1 X46.267 Y146.1 E0.97671
G1 X47.204 Y146.155 E1.00168
G1 X48.132 Y146.289 E1.02663
G1 X49.045 Y146.502 E1.05158
G1 X49.616 Y146.678 E1.06748
G1 X50.55 Y146.994 E1.09371
G1 X53.064 Y147.802 E1.16398
G1 X55.454 Y148.497 E1.2302
G1 X57.903 Y149.134 E1.29753
G1 X58.622 Y149.3 E1.31717
G1 X59.767 Y149.582 E1.34855
G1 X60.667 Y149.845 E1.37349
G1 X61.542 Y150.184 E1.39846
G1 X62.384 Y150.597 E1.42342
G1 X63.188 Y151.08 E1.44837
G1 X63.948 Y151.629 E1.47332
G1 X64.659 Y152.241 E1.49828
G1 X65.314 Y152.905 E1.5231
G1 X65.976 Y153.692 E1.55046
G1 X66.516 Y154.458 E1.5754
G1 X66.988 Y155.268 E1.60034
G1 X67.391 Y156.115 E1.6253
G1 X67.719 Y156.994 E1.65027
G1 X67.972 Y157.897 E1.67522
G1 X68.146 Y158.819 E1.70018
G1 X68.242 Y159.752 E1.72514
G1 X68.261 Y160.404 E1.7425
G1 X68.261 Y160.848 E1.75431
G1 X68.221 Y161.785 E1.77926
G1 X68.152 Y162.393 E1.79555
G1 X67.808 Y164.819 E1.86074
G1 X67.52 Y167.335 E1.92813
G1 X67.301 Y169.908 E1.99684
G1 X67.237 Y170.822 E2.02122
G1 X67.131 Y171.754 E2.04617
G1 X66.946 Y172.673 E2.07112
G1 X66.684 Y173.574 E2.09609
G1 X66.345 Y174.448 E2.12103
G1 X65.934 Y175.291 E2.14598
G1 X65.452 Y176.096 E2.17095
G1 X64.904 Y176.857 E2.1959
G1 X64.292 Y177.568 E2.22086
G1 X63.623 Y178.224 E2.24579
G1 X62.899 Y178.821 E2.27076
G1 X62.128 Y179.355 E2.29572
G1 X61.314 Y179.82 E2.32066
G1 X60.463 Y180.215 E2.34563
G1 X59.582 Y180.536 E2.37057
G1 X58.304 Y180.857 E2.40564
G1 X55.899 Y181.311 E2.47076
G1 X53.473 Y181.837 E2.53681
G1 X50.413 Y182.6 E2.62072
G1 X48.889 Y183.006 E2.66269
G1 X47.973 Y183.208 E2.68765
G1 X47.043 Y183.332 E2.71261
G1 X46.243 Y183.374 E2.73393
G1 X45.524 Y183.385 E2.75306
G1 X32.371 Y183.387 E3.10304
G1 X31.501 Y183.376 E3.12619
G1 X30.565 Y183.323 E3.15113
G1 X29.636 Y183.19 E3.1761
G1 X29.173 Y183.093 E3.18869
G1 X26.347 Y182.439 E3.26587
G1 X23.653 Y181.9 E3.33898
G1 X23.138 Y181.804 E3.35292
G1 X22.225 Y181.593 E3.37785
G1 X21.332 Y181.304 E3.40282
G1 X20.468 Y180.941 E3.42776
G1 X19.637 Y180.505 E3.45273
G1 X18.847 Y180 E3.47768
G1 X18.102 Y179.43 E3.50264
G1 X17.409 Y178.798 E3.52759
G1 X16.772 Y178.11 E3.55254
G1 X16.196 Y177.37 E3.57749
G1 X15.685 Y176.583 E3.60246
G1 X15.243 Y175.756 E3.62741
G1 X14.874 Y174.894 E3.65236
G1 X14.579 Y174.004 E3.67731
G1 X14.36 Y173.091 E3.70229
G1 X14.221 Y172.164 E3.72723
G1 X14.161 Y171.254 E3.7515
G1 X14.151 Y170.699 E3.76627
G1 X14.151 Y162.295 E3.98988
G1 X14.162 Y161.587 E4.00872
G1 X14.217 Y160.651 E4.03367
G1 X14.377 Y159.589 E4.06225
G1 X14.931 Y156.836 E4.13697
G1 F1500 E-2.36303
G0 F6000 X14.951 Y162.308
G1 F1500 E4.13697
G1 F600 X14.962 Y161.6 E4.15581
G1 X15.016 Y160.698 E4.17985
G1 X15.161 Y159.747 E4.20545
G1 X15.735 Y156.893 E4.28291
G1 X15.923 Y155.888 E4.31012
G1 X16.128 Y155.009 E4.33413
G1 X16.411 Y154.151 E4.35817
G1 X16.768 Y153.322 E4.38219
G1 X17.197 Y152.527 E4.40622
G1 X17.695 Y151.774 E4.43025
G1 X18.258 Y151.067 E4.45429
G1 X18.881 Y150.413 E4.47833
G1 X19.559 Y149.817 E4.50235
G1 X20.287 Y149.283 E4.52637
G1 X21.06 Y148.815 E4.55041
G1 X21.871 Y148.418 E4.57444
G1 X22.714 Y148.094 E4.59847
G1 X23.582 Y147.846 E4.62249
G1 X24.469 Y147.676 E4.64652
G1 X24.924 Y147.62 E4.65872
G1 X27.507 Y147.359 E4.7278
G1 X29.666 Y147.085 E4.78571
G1 X30.239 Y147.005 E4.8011
G1 X31.439 Y146.91 E4.83313
G1 X32.696 Y146.887 E4.86658
G1 X45.549 Y146.889 E5.20858
G1 X46.255 Y146.9 E5.22736
G1 X47.156 Y146.954 E5.25138
G1 X48.05 Y147.088 E5.27543
G1 X48.927 Y147.3 E5.29944
G1 X49.36 Y147.435 E5.31151
G1 X50.364 Y147.774 E5.33971
G1 X52.817 Y148.563 E5.40827
G1 X55.272 Y149.277 E5.4763
G1 X57.708 Y149.911 E5.54327
G1 X58.595 Y150.116 E5.5675
G1 X59.575 Y150.358 E5.59436
G1 X60.442 Y150.614 E5.61841
G1 X61.282 Y150.944 E5.64242
G1 X62.09 Y151.348 E5.66646
G1 X62.859 Y151.822 E5.6905
G1 X63.583 Y152.362 E5.71453
G1 X64.256 Y152.963 E5.73854
G1 X64.782 Y153.514 E5.75881
G1 X65.362 Y154.206 E5.78283
G1 X65.879 Y154.947 E5.80687
G1 X66.327 Y155.731 E5.8309
G1 X66.705 Y156.551 E5.85493
G1 X67.009 Y157.402 E5.87897
G1 X67.236 Y158.276 E5.903
G1 X67.386 Y159.166 E5.92701
G1 X67.461 Y160.404 E5.96001
G1 X67.461 Y160.848 E5.97183
G1 X67.421 Y161.75 E5.99585
G1 X67.36 Y162.281 E6.01007
G1 X67.013 Y164.724 E6.07573
G1 X66.725 Y167.249 E6.14335
G1 X66.504 Y169.851 E6.21283
G1 X66.439 Y170.766 E6.23724
G1 X66.335 Y171.663 E6.26127
G1 X66.153 Y172.547 E6.28528
G1 X65.893 Y173.412 E6.30932
G1 X65.558 Y174.251 E6.33336
G1 X65.15 Y175.056 E6.35737
G1 X64.672 Y175.823 E6.38142
G1 X64.128 Y176.544 E6.40545
G1 X63.523 Y177.214 E6.42947
G1 X62.86 Y177.828 E6.45351
G1 X62.146 Y178.381 E6.47754
G1 X61.386 Y178.869 E6.50158
G1 X60.586 Y179.287 E6.52559
G1 X59.752 Y179.633 E6.54962
G1 X58.89 Y179.904 E6.57366
G1 X58.156 Y180.071 E6.59369
G1 X55.759 Y180.523 E6.65859
G1 X53.28 Y181.061 E6.72609
G1 X50.193 Y181.831 E6.81075
G1 X48.683 Y182.233 E6.85232
G1 X47.801 Y182.426 E6.87635
G1 X46.905 Y182.541 E6.90038
G1 X46.23 Y182.575 E6.91837
G1 X45.693 Y182.584 E6.93266
G1 X32.371 Y182.587 E7.28713
G1 X31.512 Y182.576 E7.30999
G1 X30.611 Y182.523 E7.334
G1 X29.354 Y182.314 E7.36791
G1 X26.49 Y181.651 E7.44613
G1 X23.876 Y181.128 E7.51706
G1 X23.285 Y181.018 E7.53306
G1 X22.406 Y180.813 E7.55708
G1 X21.548 Y180.531 E7.58111
G1 X20.718 Y180.174 E7.60515
G1 X19.923 Y179.745 E7.62918
G1 X19.169 Y179.248 E7.65321
G1 X18.463 Y178.686 E7.67722
G1 X17.808 Y178.063 E7.70128
G1 X17.211 Y177.386 E7.72529
G1 X16.677 Y176.658 E7.74932
G1 X16.209 Y175.885 E7.77336
G1 X15.811 Y175.074 E7.7974
G1 X15.487 Y174.232 E7.8214
G1 X15.238 Y173.364 E7.84543
G1 X15.067 Y172.477 E7.86947
G1 X14.961 Y171.235 E7.90263
G1 X14.951 Y170.699 E7.9169
G1 X14.951 Y162.308 E8.14017
G0 F6000 X14.551 Y162.301
G1 F600 X14.562 Y161.593 E8.15901
G1 X14.617 Y160.674 E8.1835
G1 X14.769 Y159.668 E8.21058
G1 X15.343 Y156.814 E8.28804
G1 X15.53 Y155.815 E8.31508
G1 X15.738 Y154.918 E8.33958
G1 X16.024 Y154.043 E8.36407
G1 X16.385 Y153.196 E8.38857
G1 X16.818 Y152.383 E8.41308
G1 X17.319 Y151.611 E8.43757
G1 X17.886 Y150.886 E8.46206
G1 X18.514 Y150.212 E8.48657
G1 X19.197 Y149.595 E8.51106
G1 X19.932 Y149.041 E8.53555
G1 X20.712 Y148.551 E8.56006
G1 X21.532 Y148.132 E8.58457
G1 X22.384 Y147.785 E8.60904
G1 X23.264 Y147.513 E8.63355
G1 X24.164 Y147.319 E8.65805
G1 X24.884 Y147.222 E8.67738
G1 X27.452 Y146.963 E8.74606
G1 X29.653 Y146.683 E8.80509
G1 X30.184 Y146.609 E8.81936
G1 X31.431 Y146.51 E8.85264
G1 X32.696 Y146.487 E8.88631
G1 X45.555 Y146.489 E9.22846
G1 X46.261 Y146.5 E9.24725
G1 X47.18 Y146.555 E9.27175
G1 X48.091 Y146.688 E9.29624
G1 X48.987 Y146.901 E9.32075
G1 X49.488 Y147.056 E9.3347
G1 X50.488 Y147.394 E9.36279
G1 X52.936 Y148.181 E9.43121
G1 X55.347 Y148.882 E9.49802
G1 X57.827 Y149.527 E9.5662
G1 X58.691 Y149.728 E9.5898
G1 X59.671 Y149.97 E9.61666
G1 X60.555 Y150.229 E9.64117
G1 X61.412 Y150.564 E9.66566
G1 X62.237 Y150.973 E9.69016
G1 X63.024 Y151.451 E9.71466
G1 X63.766 Y151.995 E9.73914
G1 X64.459 Y152.602 E9.76365
G1 X65.077 Y153.244 E9.78736
G1 X65.669 Y153.949 E9.81186
G1 X66.197 Y154.703 E9.83635
G1 X66.658 Y155.5 E9.86085
G1 X67.048 Y156.334 E9.88535
G1 X67.365 Y157.198 E9.90984
G1 X67.605 Y158.087 E9.93434
G1 X67.767 Y158.994 E9.95885
G1 X67.85 Y159.91 E9.98332
G1 X67.861 Y160.404 E9.99647
G1 X67.861 Y160.848 E10.00829
G1 X67.821 Y161.768 E10.03279
G1 X67.756 Y162.337 E10.04803
G1 X67.413 Y164.753 E10.11296
G1 X67.123 Y167.292 E10.18095
G1 X66.9 Y169.914 E10.25097
G1 X66.838 Y170.794 E10.27445
G1 X66.733 Y171.708 E10.29893
G1 X66.55 Y172.611 E10.32344
G1 X66.288 Y173.493 E10.34792
G1 X65.952 Y174.35 E10.37242
G1 X65.542 Y175.175 E10.39693
G1 X65.062 Y175.96 E10.42141
G1 X64.516 Y176.701 E10.4459
G1 X63.907 Y177.392 E10.47041
G1 X63.241 Y178.028 E10.49491
G1 X62.522 Y178.603 E10.51941
G1 X61.756 Y179.114 E10.54391
G1 X60.949 Y179.556 E10.56839
G1 X60.106 Y179.927 E10.5929
G1 X59.235 Y180.223 E10.61738
G1 X58.23 Y180.464 E10.64488
G1 X55.847 Y180.914 E10.70941
G1 X53.357 Y181.453 E10.77719
G1 X50.281 Y182.221 E10.86155
G1 X48.786 Y182.619 E10.90272
G1 X47.887 Y182.817 E10.92721
G1 X46.974 Y182.936 E10.95171
G1 X46.237 Y182.975 E10.97135
G1 X45.7 Y182.984 E10.98564
G1 X32.371 Y182.987 E11.3403
G1 X31.507 Y182.976 E11.36329
G1 X30.587 Y182.923 E11.38781
G1 X29.264 Y182.704 E11.42349
G1 X26.388 Y182.038 E11.50204
G1 X23.803 Y181.521 E11.57219
G1 X23.212 Y181.411 E11.58818
G1 X22.315 Y181.203 E11.61268
G1 X21.44 Y180.917 E11.63718
G1 X20.592 Y180.557 E11.66169
G1 X19.779 Y180.125 E11.68618
G1 X19.007 Y179.624 E11.71067
G1 X18.281 Y179.058 E11.73517
G1 X17.607 Y178.431 E11.75966
G1 X16.99 Y177.747 E11.78417
G1 X16.435 Y177.013 E11.80866
G1 X15.945 Y176.233 E11.83317
G1 X15.525 Y175.414 E11.85766
G1 X15.177 Y174.562 E11.88215
G1 X14.905 Y173.682 E11.90665
G1 X14.71 Y172.782 E11.93116
G1 X14.594 Y171.869 E11.95564
G1 X14.561 Y171.244 E11.9723
G1 X14.551 Y170.699 E11.9868
G1 X14.551 Y162.301 E12.21026
G1 F1500 E5.71026
;MESH:void_switch-v37.stl
G0 F6000 X24.485 Y162.301
G0 X25.57 Y162.301
G0 X28.877 Y163.139
G1 F1500 E12.21026
G0 F6000 X28.877 Y163.165
;TYPE:WALL-INNER
G1 F600 X28.877 Y162.21 E12.23567
G1 X28.647 Y162.157 E12.24195
G1 X28.466 Y162.028 E12.24786
G1 X28.284 Y162.157 E12.2538
G1 X27.971 Y162.259 E12.26256
G1 X27.033 Y162.259 E12.28752
G1 X26.713 Y162.208 E12.29614
G1 X26.486 Y162.083 E12.30303
G1 X26.349 Y162.172 E12.30738
G1 X26.151 Y162.214 E12.31277
G1 X26.149 Y163.167 E12.33812
G1 X26.532 Y163.039 E12.34887
G1 X28.497 Y163.039 E12.40115
G1 X28.877 Y163.165 E12.41181
G0 F6000 X28.426 Y162.588
G1 F538.1 X28.015 Y162.649 E12.42413
G1 F620.2 X27.524 Y162.649 E12.43677
G1 F628.3 X27.033 Y162.649 E12.44925
G1 F575.5 X26.577 Y162.612 E12.46194
G0 F6000 X28.925 Y163.611
G0 X29.187 Y164.039
G1 F448.6 X29.232 Y163.694 E12.47432
G1 F539.3 X29.277 Y163.349 E12.48462
G1 F600 X29.277 Y161.92 E12.52264
G1 X29.241 Y161.859 E12.52453
G1 X29.09 Y161.859 E12.52855
G1 X28.824 Y161.798 E12.53581
G1 X28.668 Y161.687 E12.5409
G1 F562.1 X28.465 Y161.313 E12.55299
G1 X28.264 Y161.687 E12.56505
G1 F600 X28.107 Y161.798 E12.57017
G1 X27.921 Y161.859 E12.57537
G1 X27.033 Y161.859 E12.599
G1 X26.841 Y161.828 E12.60418
G1 X26.631 Y161.706 E12.61064
G1 X26.486 Y161.411 E12.61939
G1 X26.34 Y161.706 E12.62814
G1 X26.185 Y161.807 E12.63307
G1 X25.938 Y161.859 E12.63978
G1 X25.786 Y161.859 E12.64383
G1 X25.75 Y161.92 E12.64571
G1 X25.749 Y163.349 E12.68373
G1 F539.3 X25.795 Y163.694 E12.69404
G1 F447.8 X25.841 Y164.039 E12.70645
G1 X26.005 Y163.799 E12.71681
G1 F539.3 X26.17 Y163.559 E12.72543
G1 F600 X26.532 Y163.439 E12.73558
G1 X28.497 Y163.439 E12.78787
G1 X28.858 Y163.558 E12.79798
G1 F539.3 X29.022 Y163.798 E12.80658
G1 F448.6 X29.187 Y164.039 E12.81698
G1 F1500 E6.31698
G0 F6000 X29.407 Y170.529
G1 F1500 E12.81698
G0 F6000 X29.677 Y170.799
;TYPE:WALL-OUTER
G1 F600 X29.677 Y161.813 E13.05608
G1 X29.472 Y161.459 E13.06696
G1 X29.09 Y161.459 E13.07713
G1 X28.949 Y161.402 E13.08117
G1 X28.89 Y161.277 E13.08485
G1 X28.889 Y157.959 E13.17314
G1 X28.041 Y157.959 E13.1957
G1 X28.041 Y161.277 E13.28399
G1 X27.982 Y161.402 E13.28766
G1 X27.876 Y161.457 E13.29084
G1 X26.986 Y161.459 E13.31452
G1 F505.3 X26.759 Y161.283 E13.3236
G1 F437.2 X26.759 Y159.657 E13.38298
G1 F438.8 X26.759 Y158.031 E13.44215
G1 X26.212 Y158.032 E13.46205
G1 X26.212 Y159.658 E13.52121
G1 F437.2 X26.212 Y161.284 E13.58059
G1 F505.3 X26.001 Y161.459 E13.58926
G1 F600 X25.555 Y161.459 E13.60112
G1 X25.35 Y161.813 E13.61201
G1 X25.351 Y170.799 E13.85111
G1 X26.331 Y170.799 E13.87718
G1 X26.332 Y164.039 E14.05705
G1 X26.411 Y163.879 E14.0618
G1 X26.532 Y163.839 E14.06519
G1 X28.497 Y163.839 E14.11748
G1 X28.618 Y163.878 E14.12086
G1 X28.697 Y164.039 E14.12563
G1 X28.698 Y170.799 E14.3055
G1 X29.677 Y170.799 E14.33155
G0 F6000 X29.187 Y170.309
;TYPE:WALL-INNER
G1 F413.8 X29.187 Y164.039 E14.57346
G0 F6000 X28.465 Y162.159
G0 X28.465 Y161.313
G1 F529.8 X28.465 Y159.848 E14.61761
G1 F532.2 X28.465 Y158.383 E14.66156
G0 F6000 X28.269 Y161.687
G0 X27.509 Y161.69
G0 X25.841 Y164.039
G1 F413.1 X25.841 Y167.174 E14.78272
G1 F413.8 X25.841 Y170.309 E14.90367
G1 F1500 E8.40367
G0 F6000 X26.104 Y163.611
G0 X28.925 Y163.611
G0 X29.463 Y170.585
G0 X31.644 Y170.587
G0 X32.68 Y170.791
G0 X37.435 Y170.985
G1 F1500 E14.90367
G1 F600 X37.299 Y170.907 E14.90785
G1 X32.624 Y166.231 E15.08378
G1 X32.624 Y170.986 E15.2103
G1 X37.435 Y170.985 E15.33832
G0 F6000 X38.127 Y171.066
G0 X45.121 Y170.984
G1 F600 X45.122 Y165.011 E15.49725
G1 X45.044 Y165.144 E15.50135
G1 X42.423 Y167.762 E15.59992
G1 X42.076 Y167.938 E15.61027
G1 X41.9 Y168.288 E15.6207
G1 X39.281 Y170.907 E15.71925
G1 X39.146 Y170.985 E15.7234
G1 X45.121 Y170.984 E15.88238
G0 F6000 X45.224 Y164.153
G0 X45.122 Y163.295
G1 F600 X45.122 Y158.488 E16.01028
G1 X40.369 Y158.488 E16.13675
G1 X45.044 Y163.162 E16.31265
G1 X45.122 Y163.295 E16.31676
G0 F6000 X45.178 Y163.78
G0 X45.521 Y171.384
G1 F600 X45.522 Y165.176 E16.48194
G1 F589.7 X45.515 Y164.906 E16.48925
G1 F570.1 X45.508 Y164.636 E16.49681
G1 F551.7 X45.501 Y164.366 E16.50463
G1 F541.8 X45.501 Y163.939 E16.51721
G1 F551.7 X45.508 Y163.669 E16.52503
G1 F570.1 X45.515 Y163.399 E16.53259
G1 F589.7 X45.522 Y163.129 E16.5399
G1 F600 X45.522 Y158.088 E16.67404
G1 X39.403 Y158.088 E16.83685
G1 X44.761 Y163.445 E17.03845
G1 F592.6 X44.911 Y163.685 E17.04608
G1 F578.3 X45.061 Y163.925 E17.05389
G1 F570.1 X45.061 Y164.381 E17.06666
G1 F578.3 X44.911 Y164.621 E17.07447
G1 F592.6 X44.761 Y164.861 E17.0821
G1 F600 X42.267 Y167.353 E17.17591
G1 X42.001 Y167.543 E17.18461
G1 X41.758 Y167.62 E17.19139
G1 X41.682 Y167.863 E17.19816
G1 X41.491 Y168.131 E17.20692
G1 X38.998 Y170.624 E17.30073
G1 F592.6 X38.758 Y170.774 E17.30835
G1 F576.9 X38.517 Y170.924 E17.31621
G1 F568.7 X38.063 Y170.924 E17.32895
G1 F576.9 X37.823 Y170.774 E17.33679
G1 F592.6 X37.582 Y170.624 E17.34443
G1 F600 X32.224 Y165.266 E17.54605
G1 X32.224 Y171.386 E17.70889
G1 X37.267 Y171.385 E17.84308
G1 F589.7 X37.537 Y171.379 E17.85039
G1 F568.7 X37.807 Y171.372 E17.85797
G1 F549.2 X38.077 Y171.365 E17.86582
G1 F540.5 X38.505 Y171.364 E17.87847
G1 F550.5 X38.774 Y171.37 E17.88627
G1 F568.7 X39.043 Y171.377 E17.89382
G1 F589.7 X39.312 Y171.384 E17.90111
G1 F600 X45.521 Y171.384 E18.06632
G0 F6000 X45.921 Y171.784
G1 F600 X45.922 Y157.688 E18.44139
G1 X38.83 Y157.688 E18.63009
G1 F563.4 X38.56 Y157.713 E18.63777
G1 F502.1 X38.29 Y157.738 E18.6464
G1 F531 X38.715 Y157.965 E18.66088
G1 F600 X44.478 Y163.728 E18.87774
G1 F601.5 X44.631 Y163.99 E18.8858
