;FLAVOR:Marlin
;TIME:2138
;Filament used: 0.419229m
;Layer height: 0.16
;MINX:31.046
;MINY:85.575
;MINZ:0.18
;MAXX:85.159
;MAXY:122.875
;MAXZ:10.58
;Generated with Cura_SteamEngine main
M82 ;absolute extrusion mode
; Ender 3 Custom Start G-code
G92 E0 ; Reset Extruder
G28 ; Home all axes
M104 S120 ; Start heating up the nozzle most of the way
M190 S68.0 ; Start heating the bed, wait until target temperature reached
M109 S248.0 ; Finish heating the nozzle
G1 Z2.0 F3000 ; Move Z Axis up little to prevent scratching of Heat Bed
G1 X0.1 Y20 Z0.3 F5000.0 ; Move to start position
G1 X0.1 Y200.0 Z0.3 F1500.0 E15 ; Draw the first line
G1 X0.4 Y200.0 Z0.3 F5000.0 ; Move to side a little
G1 X0.4 Y20 Z0.3 F1500.0 E30 ; Draw the second line
G92 E0 ; Reset Extruder
G1 Z2.0 F3000 ; Move Z Axis up little to prevent scratching of Heat Bed
G1 X5 Y20 Z0.3 F5000.0 ; Move over to prevent blob squish
G92 E0
G92 E0
G1 F1500 E-6.5
;LAYER_COUNT:66
;LAYER:0
M107
G0 F6000 X38.076 Y87.34 Z0.18
G0 X32.025 Y95.233
;TYPE:SKIRT
G1 F1500 E0
G1 F600 X32.236 Y94.319 E0.02808
G1 X32.525 Y93.427 E0.05615
G1 X32.889 Y92.562 E0.08424
G1 X33.325 Y91.732 E0.1123
G1 X33.83 Y90.942 E0.14037
G1 X34.4 Y90.197 E0.16845
G1 X35.032 Y89.504 E0.19653
G1 X35.721 Y88.868 E0.22459
G1 X36.462 Y88.292 E0.25269
G1 X37.248 Y87.782 E0.28074
G1 X38.076 Y87.34 E0.30883
G1 X38.938 Y86.97 E0.33691
G1 X39.828 Y86.676 E0.36497
G1 X40.74 Y86.458 E0.39304
G1 X41.722 Y86.313 E0.42275
G1 X44.063 Y86.074 E0.49319
G1 X45.722 Y85.851 E0.5433
G1 X46.127 Y85.814 E0.55547
G1 X47.108 Y85.685 E0.58509
G1 X48.36 Y85.593 E0.62267
G1 X49.377 Y85.577 E0.65312
G1 X62.277 Y85.575 E1.03927
G1 X63.145 Y85.586 E1.06525
G1 X64.082 Y85.639 E1.09334
G1 X65.01 Y85.772 E1.12141
G1 X66.344 Y86.108 E1.16259
G1 X68.691 Y86.859 E1.23635
G1 X71.085 Y87.556 E1.31099
G1 X73.52 Y88.189 E1.3863
G1 X76.348 Y88.835 E1.47313
G1 X77.253 Y89.082 E1.50122
G1 X78.133 Y89.406 E1.52929
G1 X78.878 Y89.75 E1.55385
G1 X79.134 Y89.88 E1.56244
G1 X79.951 Y90.34 E1.59051
G1 X80.726 Y90.868 E1.61858
G1 X81.454 Y91.46 E1.64667
G1 X82.128 Y92.112 E1.67474
G1 X82.744 Y92.819 E1.70281
G1 X83.298 Y93.575 E1.73087
G1 X83.786 Y94.377 E1.75897
G1 X84.203 Y95.216 E1.78701
G1 X84.548 Y96.089 E1.81511
G1 X84.816 Y96.987 E1.84317
G1 X85.008 Y97.905 E1.87124
G1 X85.12 Y98.837 E1.89934
G1 X85.152 Y99.524 E1.91993
G1 X85.159 Y99.994 E1.934
G1 X85.133 Y100.932 E1.96209
G1 X85.071 Y101.552 E1.98074
G1 X84.993 Y102.156 E1.99897
G1 X84.755 Y103.829 E2.04955
G1 X84.469 Y106.332 E2.12496
G1 X84.256 Y108.823 E2.1998
G1 X84.219 Y109.475 E2.21935
G1 X84.134 Y110.678 E2.25545
G1 X84.028 Y111.61 E2.28353
G1 X83.842 Y112.529 E2.3116
G1 X83.579 Y113.429 E2.33966
G1 X83.24 Y114.304 E2.36775
G1 X82.828 Y115.146 E2.39581
G1 X82.345 Y115.95 E2.42389
G1 X81.796 Y116.711 E2.45198
G1 X81.184 Y117.421 E2.48004
G1 X80.514 Y118.077 E2.50811
G1 X79.79 Y118.674 E2.5362
G1 X79.018 Y119.207 E2.56428
G1 X78.204 Y119.672 E2.59234
G1 X77.353 Y120.066 E2.62041
G1 X76.471 Y120.386 E2.6485
G1 X75.565 Y120.629 E2.67658
G1 X74.863 Y120.763 E2.69797
G1 X71.897 Y121.227 E2.78783
G1 X69.441 Y121.686 E2.86263
G1 X66.978 Y122.218 E2.93805
G1 X66.491 Y122.336 E2.95305
G1 X65.233 Y122.613 E2.99161
G1 X64.309 Y122.774 E3.01969
G1 X63.049 Y122.865 E3.0575
G1 X62.265 Y122.875 E3.08097
G1 X49.081 Y122.869 E3.47563
G1 X48.412 Y122.86 E3.49565
G1 X47.476 Y122.807 E3.52372
G1 X46.547 Y122.675 E3.5518
G1 X45.501 Y122.427 E3.58398
G1 X43.149 Y121.746 E3.65728
G1 X40.618 Y121.088 E3.73556
G1 X39.449 Y120.803 E3.77158
G1 X38.548 Y120.542 E3.79966
G1 X37.673 Y120.205 E3.82773
G1 X36.829 Y119.795 E3.85582
G1 X36.024 Y119.315 E3.88387
G1 X35.262 Y118.768 E3.91195
G1 X34.55 Y118.158 E3.94001
G1 X33.892 Y117.489 E3.9681
G1 X33.293 Y116.767 E3.99619
G1 X32.759 Y115.996 E4.02426
G1 X32.292 Y115.183 E4.05233
G1 X31.895 Y114.333 E4.08041
G1 X31.573 Y113.452 E4.10849
G1 X31.327 Y112.547 E4.13656
G1 X31.159 Y111.625 E4.16461
G1 X31.06 Y110.458 E4.19967
G1 X31.046 Y109.828 E4.21854
G1 X31.046 Y101.783 E4.45936
G1 X31.057 Y101.077 E4.48049
G1 X31.112 Y100.14 E4.50859
G1 X31.27 Y99.091 E4.54034
G1 X31.784 Y96.523 E4.61874
G1 X32.025 Y95.233 E4.65802
G1 F1500 E-1.84198
G0 F6000 X31.846 Y101.795
G1 F1500 E4.65802
G1 F600 X31.857 Y101.089 E4.67916
G1 X31.911 Y100.188 E4.70618
G1 X32.054 Y99.248 E4.73464
G1 X32.576 Y96.637 E4.81434
G1 X32.811 Y95.38 E4.85262
G1 X33.016 Y94.5 E4.87967
G1 X33.299 Y93.642 E4.90671
G1 X33.656 Y92.813 E4.93373
G1 X34.085 Y92.018 E4.96077
G1 X34.582 Y91.265 E4.98778
G1 X35.144 Y90.558 E5.01482
G1 X35.767 Y89.904 E5.04185
G1 X36.445 Y89.307 E5.0689
G1 X37.173 Y88.773 E5.09592
G1 X37.946 Y88.305 E5.12297
G1 X38.757 Y87.908 E5.15
G1 X39.6 Y87.583 E5.17705
G1 X40.468 Y87.335 E5.20407
G1 X41.803 Y87.109 E5.2446
G1 X44.16 Y86.869 E5.31552
G1 X45.829 Y86.644 E5.36593
G1 X46.219 Y86.609 E5.37765
G1 X47.213 Y86.478 E5.40766
G1 X48.373 Y86.392 E5.44248
G1 X49.208 Y86.378 E5.46748
G1 X62.277 Y86.375 E5.85869
G1 X63.134 Y86.386 E5.88435
G1 X64.036 Y86.439 E5.91139
G1 X64.929 Y86.571 E5.93841
G1 X66.1 Y86.87 E5.97459
G1 X68.443 Y87.62 E6.04823
G1 X70.872 Y88.326 E6.12395
G1 X73.343 Y88.969 E6.20038
G1 X76.17 Y89.615 E6.28719
G1 X77.041 Y89.855 E6.31423
G1 X77.887 Y90.171 E6.34127
G1 X78.515 Y90.463 E6.362
G1 X78.771 Y90.593 E6.37059
G1 X79.558 Y91.038 E6.39765
G1 X80.302 Y91.55 E6.42469
G1 X80.997 Y92.125 E6.45169
G1 X81.64 Y92.76 E6.47874
G1 X82.223 Y93.45 E6.50578
G1 X82.743 Y94.188 E6.53281
G1 X83.196 Y94.969 E6.55983
G1 X83.578 Y95.788 E6.58689
G1 X83.886 Y96.637 E6.61392
G1 X84.118 Y97.51 E6.64096
G1 X84.271 Y98.399 E6.66796
G1 X84.352 Y99.536 E6.70208
G1 X84.359 Y100.006 E6.71615
G1 X84.332 Y100.909 E6.7432
G1 X84.278 Y101.451 E6.7595
G1 X84.221 Y101.897 E6.77296
G1 X83.961 Y103.729 E6.82835
G1 X83.673 Y106.247 E6.90421
G1 X83.457 Y108.779 E6.98028
G1 X83.42 Y109.43 E6.9998
G1 X83.336 Y110.621 E7.03554
G1 X83.232 Y111.518 E7.06257
G1 X83.049 Y112.402 E7.0896
G1 X82.788 Y113.267 E7.11664
G1 X82.452 Y114.105 E7.14367
G1 X82.044 Y114.911 E7.17071
G1 X81.565 Y115.677 E7.19775
G1 X81.021 Y116.397 E7.22477
G1 X80.415 Y117.067 E7.25181
G1 X79.752 Y117.68 E7.27884
G1 X79.038 Y118.233 E7.30587
G1 X78.277 Y118.72 E7.33292
G1 X77.476 Y119.138 E7.35996
G1 X76.642 Y119.483 E7.38698
G1 X75.78 Y119.753 E7.41402
G1 X74.74 Y119.972 E7.44583
G1 X71.791 Y120.434 E7.53519
G1 X69.269 Y120.905 E7.61198
G1 X66.778 Y121.442 E7.68826
G1 X66.067 Y121.613 E7.71015
G1 X65.063 Y121.832 E7.74091
G1 X64.173 Y121.985 E7.76795
G1 X63.037 Y122.065 E7.80204
G1 X62.265 Y122.075 E7.82515
G1 X49.092 Y122.069 E8.21947
G1 X48.423 Y122.06 E8.2395
G1 X47.521 Y122.008 E8.26654
G1 X46.628 Y121.876 E8.29356
G1 X45.723 Y121.659 E8.32142
G1 X43.353 Y120.973 E8.39528
G1 X40.815 Y120.313 E8.47378
G1 X39.638 Y120.026 E8.51004
G1 X38.771 Y119.773 E8.53708
G1 X37.93 Y119.445 E8.5641
G1 X37.121 Y119.043 E8.59114
G1 X36.351 Y118.572 E8.61816
G1 X35.625 Y118.034 E8.64521
G1 X34.95 Y117.434 E8.67224
G1 X34.33 Y116.777 E8.69928
G1 X33.772 Y116.068 E8.72629
G1 X33.278 Y115.312 E8.75333
G1 X32.852 Y114.515 E8.78038
G1 X32.499 Y113.684 E8.8074
G1 X32.221 Y112.825 E8.83443
G1 X32.02 Y111.944 E8.86148
G1 X31.898 Y111.049 E8.88852
G1 X31.86 Y110.433 E8.90699
G1 X31.846 Y109.828 E8.92511
G1 X31.846 Y101.795 E9.16557
G0 F6000 X31.446 Y101.789
G1 F600 X31.457 Y101.083 E9.1867
G1 X31.512 Y100.164 E9.21426
G1 X31.662 Y99.169 E9.24438
G1 X32.177 Y96.596 E9.32293
G1 X32.418 Y95.306 E9.36222
G1 X32.626 Y94.41 E9.38975
G1 X32.912 Y93.534 E9.41733
G1 X33.272 Y92.687 E9.44488
G1 X33.705 Y91.874 E9.47246
G1 X34.206 Y91.102 E9.50001
G1 X34.773 Y90.377 E9.52756
G1 X35.4 Y89.703 E9.55511
G1 X36.084 Y89.086 E9.58269
G1 X36.818 Y88.531 E9.61023
G1 X37.598 Y88.041 E9.63781
G1 X38.417 Y87.621 E9.66536
G1 X39.27 Y87.274 E9.69292
G1 X40.149 Y87.002 E9.72047
G1 X41.049 Y86.808 E9.74803
G1 X41.762 Y86.711 E9.76956
G1 X44.126 Y86.47 E9.8407
G1 X45.775 Y86.248 E9.8905
G1 X46.172 Y86.212 E9.90244
G1 X47.16 Y86.082 E9.93227
G1 X48.366 Y85.992 E9.96847
G1 X49.201 Y85.978 E9.99346
G1 X62.277 Y85.975 E10.38488
G1 X63.14 Y85.986 E10.41072
G1 X64.059 Y86.039 E10.43827
G1 X64.97 Y86.171 E10.46583
G1 X66.222 Y86.489 E10.5045
G1 X68.562 Y87.238 E10.57804
G1 X70.979 Y87.941 E10.65339
G1 X73.436 Y88.58 E10.72939
G1 X76.259 Y89.225 E10.81607
G1 X77.147 Y89.469 E10.84363
G1 X78.01 Y89.789 E10.87119
G1 X78.696 Y90.107 E10.89382
G1 X78.952 Y90.237 E10.90241
G1 X79.754 Y90.689 E10.92997
G1 X80.514 Y91.209 E10.95754
G1 X81.226 Y91.793 E10.9851
G1 X81.884 Y92.436 E11.01264
G1 X82.484 Y93.135 E11.04022
G1 X83.022 Y93.882 E11.06777
G1 X83.492 Y94.674 E11.09534
G1 X83.892 Y95.503 E11.1229
G1 X84.218 Y96.364 E11.15045
G1 X84.469 Y97.25 E11.17802
G1 X84.641 Y98.154 E11.20557
G1 X84.735 Y99.07 E11.23313
G1 X84.752 Y99.53 E11.24691
G1 X84.759 Y100 E11.26098
G1 X84.733 Y100.92 E11.28853
G1 X84.674 Y101.502 E11.30604
G1 X84.597 Y102.1 E11.32409
G1 X84.36 Y103.764 E11.3744
G1 X84.067 Y106.324 E11.45153
G1 X83.856 Y108.8 E11.52592
G1 X83.809 Y109.612 E11.55027
G1 X83.735 Y110.649 E11.58139
G1 X83.63 Y111.564 E11.60896
G1 X83.445 Y112.466 E11.63652
G1 X83.184 Y113.349 E11.66408
G1 X82.846 Y114.205 E11.69163
G1 X82.436 Y115.029 E11.71918
G1 X81.955 Y115.815 E11.74676
G1 X81.408 Y116.555 E11.77431
G1 X80.799 Y117.246 E11.80188
G1 X80.133 Y117.881 E11.82943
G1 X79.413 Y118.455 E11.85699
G1 X78.647 Y118.966 E11.88455
G1 X77.839 Y119.407 E11.91211
G1 X76.996 Y119.777 E11.93967
G1 X76.124 Y120.073 E11.96723
G1 X74.801 Y120.367 E12.0078
G1 X71.86 Y120.827 E12.09691
G1 X69.354 Y121.295 E12.17322
G1 X66.887 Y121.828 E12.24877
G1 X66.397 Y121.947 E12.26387
G1 X65.148 Y122.222 E12.30215
G1 X64.241 Y122.379 E12.3297
G1 X63.043 Y122.465 E12.36566
G1 X62.265 Y122.475 E12.38895
G1 X49.086 Y122.469 E12.78345
G1 X48.417 Y122.46 E12.80348
G1 X47.498 Y122.408 E12.83103
G1 X46.587 Y122.276 E12.85858
G1 X45.612 Y122.043 E12.88859
G1 X43.256 Y121.361 E12.96201
G1 X40.67 Y120.688 E13.042
G1 X39.544 Y120.414 E13.07669
G1 X38.66 Y120.157 E13.10425
G1 X37.801 Y119.825 E13.13181
G1 X36.975 Y119.419 E13.15937
G1 X36.187 Y118.943 E13.18692
G1 X35.443 Y118.401 E13.21448
G1 X34.749 Y117.796 E13.24204
G1 X34.11 Y117.133 E13.2696
G1 X33.531 Y116.417 E13.29716
G1 X33.016 Y115.654 E13.32472
G1 X32.57 Y114.848 E13.35229
G1 X32.195 Y114.007 E13.37986
G1 X31.895 Y113.137 E13.40741
G1 X31.671 Y112.244 E13.43496
G1 X31.525 Y111.335 E13.46252
G1 X31.46 Y110.446 E13.48921
G1 X31.446 Y109.828 E13.50771
G1 X31.446 Y101.789 E13.74835
G1 F1500 E7.24835
;MESH:void_switch-v15.stl
G0 F6000 X45.78 Y102.657
;TYPE:WALL-INNER
G1 F1500 E13.74835
G1 F600 X45.78 Y101.696 E13.77712
G1 X45.55 Y101.641 E13.7842
G1 X45.365 Y101.507 E13.79103
G1 X45.18 Y101.641 E13.79787
G1 X44.862 Y101.747 E13.80791
G1 X43.941 Y101.747 E13.83548
G1 X43.614 Y101.693 E13.8454
G1 X43.384 Y101.564 E13.85329
G1 X43.243 Y101.657 E13.85835
G1 X43.045 Y101.7 E13.86441
G1 X43.045 Y102.658 E13.89309
G1 X43.44 Y102.527 E13.90555
G1 X45.385 Y102.527 E13.96377
G1 X45.78 Y102.657 E13.97622
G0 F6000 X45.326 Y102.073
G1 F534.5 X44.906 Y102.137 E13.99049
G1 F620.2 X44.423 Y102.137 E14.00448
G1 F628.3 X43.94 Y102.137 E14.01829
G1 F572.8 X43.474 Y102.098 E14.03295
G1 F1500 E7.53295
G0 F6000 X46.082 Y103.527
G1 F1500 E14.03295
G1 F438.8 X46.131 Y103.178 E14.04738
G1 F534.5 X46.18 Y102.829 E14.05922
G1 F600 X46.18 Y101.408 E14.10175
G1 X46.144 Y101.347 E14.10387
G1 X45.999 Y101.347 E14.10821
G1 X45.73 Y101.284 E14.11648
G1 X45.573 Y101.171 E14.12228
G1 F550.5 X45.365 Y100.802 E14.1361
G1 X45.157 Y101.171 E14.14992
G1 F600 X45 Y101.284 E14.15571
G1 X44.811 Y101.347 E14.16167
G1 X43.941 Y101.347 E14.18771
G1 X43.744 Y101.315 E14.19369
G1 X43.535 Y101.19 E14.20098
G1 X43.384 Y100.882 E14.21125
G1 X43.233 Y101.19 E14.22151
G1 X43.077 Y101.293 E14.22711
G1 X42.827 Y101.347 E14.23477
G1 X42.682 Y101.347 E14.23911
G1 X42.645 Y101.41 E14.24129
G1 X42.645 Y102.829 E14.28377
G1 F535.7 X42.694 Y103.178 E14.29559
G1 F440.4 X42.743 Y103.527 E14.30996
G1 X42.911 Y103.287 E14.32191
G1 F535.7 X43.079 Y103.046 E14.33176
G1 F600 X43.44 Y102.927 E14.34313
G1 X45.385 Y102.927 E14.40136
G1 X45.746 Y103.046 E14.41273
G1 F534.5 X45.914 Y103.286 E14.42258
G1 F438.8 X46.082 Y103.527 E14.4346
G1 F1500 E7.9346
G0 F6000 X46.58 Y109.922
;TYPE:WALL-OUTER
G1 F1500 E14.4346
G1 F600 X46.58 Y101.301 E14.69267
G1 X46.375 Y100.947 E14.70491
G1 X45.999 Y100.947 E14.71617
G1 X45.857 Y100.889 E14.72076
G1 X45.799 Y100.765 E14.72486
G1 X45.798 Y97.447 E14.82418
G1 X44.93 Y97.447 E14.85016
G1 X44.931 Y100.765 E14.94948
G1 X44.873 Y100.889 E14.95358
G1 X44.766 Y100.945 E14.95719
G1 X43.892 Y100.947 E14.98336
G1 F501 X43.662 Y100.771 E14.99374
G1 F430.1 X43.663 Y97.525 E15.12929
G1 F430.9 X43.106 Y97.525 E15.1525
G1 F430.1 X43.106 Y100.771 E15.28805
G1 F501 X42.889 Y100.947 E15.29807
G1 F600 X42.451 Y100.947 E15.31118
G1 X42.245 Y101.303 E15.32349
G1 X42.246 Y109.922 E15.58149
G1 X43.24 Y109.922 E15.61125
G1 X43.24 Y103.527 E15.80267
G1 X43.319 Y103.366 E15.80804
G1 X43.44 Y103.327 E15.81185
G1 X45.385 Y103.327 E15.87007
G1 X45.506 Y103.366 E15.87387
G1 X45.585 Y103.527 E15.87924
G1 X45.586 Y109.922 E16.07067
G1 X46.58 Y109.922 E16.10043
G0 F6000 X46.083 Y109.425
;TYPE:WALL-INNER
G1 F404 X46.083 Y106.476 E16.23152
G1 F403.4 X46.082 Y103.527 E16.36283
G1 F1500 E9.86283
G0 F6000 X45.365 Y100.802
G1 F1500 E16.36283
G1 F509.6 X45.364 Y97.881 E16.46578
G1 F1500 E9.96578
G0 F6000 X42.743 Y103.527
G1 F1500 E16.46578
G1 F404 X42.743 Y109.425 E16.72796
G1 F1500 E10.22796
G0 F6000 X54.333 Y110.472
G1 F1500 E16.72796
G1 F600 X54.198 Y110.394 E16.73263
G1 X49.525 Y105.721 E16.93045
G1 X49.523 Y110.47 E17.07261
G1 X54.333 Y110.472 E17.21659
G1 F1500 E10.71659
G0 F6000 X62.021 Y110.474
G1 F1500 E17.21659
G1 F600 X62.021 Y104.499 E17.39545
G1 X61.943 Y104.632 E17.40007
G1 X59.32 Y107.253 E17.51106
G1 X58.975 Y107.426 E17.52262
G1 X58.799 Y107.777 E17.53437
G1 X56.18 Y110.394 E17.6452
G1 X56.045 Y110.472 E17.64987
G1 X62.021 Y110.474 E17.82875
G1 F1500 E11.32875
G0 F6000 X62.021 Y102.783
G1 F1500 E17.82875
G1 F600 X62.021 Y97.975 E17.97267
G1 X57.268 Y97.977 E18.11495
G1 X61.943 Y102.65 E18.31282
G1 X62.021 Y102.783 E18.31743
G1 F1500 E11.81743
G0 F6000 X62.421 Y110.874
G1 F1500 E18.31743
G1 F600 X62.421 Y104.664 E18.50332
G1 F589.7 X62.414 Y104.394 E18.51155
G1 F570.1 X62.407 Y104.124 E18.52006
G1 F551.7 X62.4 Y103.854 E18.52885
G1 F541.8 X62.4 Y103.427 E18.54301
G1 F551.7 X62.407 Y103.157 E18.5518
G1 F570.1 X62.414 Y102.887 E18.56031
G1 F589.7 X62.421 Y102.617 E18.56854
G1 F600 X62.421 Y97.575 E18.71946
G1 X56.303 Y97.577 E18.9026
G1 X61.66 Y102.933 E19.12936
G1 F592.6 X61.81 Y103.173 E19.13794
G1 F578.3 X61.96 Y103.413 E19.14673
G1 F570.1 X61.96 Y103.869 E19.16109
G1 F578.3 X61.81 Y104.109 E19.16988
G1 F592.6 X61.66 Y104.349 E19.17846
G1 F600 X59.08 Y106.927 E19.28764
G1 X58.9 Y107.031 E19.29386
G1 X58.657 Y107.108 E19.30149
G1 X58.581 Y107.351 E19.30911
G1 X58.39 Y107.619 E19.31896
G1 X55.897 Y110.111 E19.42448
G1 F592.6 X55.657 Y110.261 E19.43306
G1 F576.9 X55.416 Y110.411 E19.44189
G1 F568.7 X54.962 Y110.411 E19.45623
G1 F576.9 X54.722 Y110.261 E19.46504
G1 F592.6 X54.481 Y110.111 E19.47365
G1 F600 X49.125 Y104.756 E19.70036
G1 X49.123 Y110.87 E19.88338
G1 X54.166 Y110.871 E20.03434
G1 F589.7 X54.435 Y110.865 E20.04253
G1 F568.7 X54.704 Y110.858 E20.05103
G1 F550.5 X54.973 Y110.851 E20.05981
G1 F540.5 X55.404 Y110.85 E20.07413
G1 F550.5 X55.673 Y110.857 E20.08291
G1 F568.7 X55.942 Y110.864 E20.09141
G1 F589.7 X56.211 Y110.871 E20.0996
G1 F600 X62.421 Y110.874 E20.2855
G0 F6000 X62.821 Y111.274
G1 F600 X62.821 Y97.175 E20.70754
G1 X55.728 Y97.177 E20.91986
G1 F563.4 X55.458 Y97.201 E20.9285
G1 F502.1 X55.188 Y97.226 E20.9382
G1 F531 X55.614 Y97.453 E20.95453
G1 F600 X61.377 Y103.216 E21.19849
G1 F601.5 X61.53 Y103.478 E21.20755
G1 X61.53 Y103.804 E21.21729
G1 X61.377 Y104.066 E21.22635
G1 F600 X58.884 Y106.558 E21.33186
G1 X58.588 Y106.72 E21.34196
G1 X58.195 Y106.646 E21.35393
G1 X58.269 Y107.04 E21.36594
G1 X58.107 Y107.336 E21.37604
G1 X55.614 Y109.828 E21.48155
G1 F601.5 X55.352 Y109.98 E21.4906
G1 X55.026 Y109.98 E21.50033
