;FLAVOR:Marlin
;TIME:1471
;Filament used: 0.442309m
;Layer height: 0.16
;MINX:50.811
;MINY:128.639
;MINZ:0.16
;MAXX:104.923
;MAXY:167.283
;MAXZ:10.4
;Generated with Cura_SteamEngine main
M82 ;absolute extrusion mode
; Ender 3 Custom Start G-code
G92 E0 ; Reset Extruder
G28 ; Home all axes
M104 S120 ; Start heating up the nozzle most of the way
M190 S68.0 ; Start heating the bed, wait until target temperature reached
M109 S252.0 ; Finish heating the nozzle
G1 Z2.0 F3000 ; Move Z Axis up little to prevent scratching of Heat Bed
G1 X0.1 Y20 Z0.3 F5000.0 ; Move to start position
G1 X0.1 Y200.0 Z0.3 F1500.0 E15 ; Draw the first line
G1 X0.4 Y200.0 Z0.3 F5000.0 ; Move to side a little
G1 X0.4 Y20 Z0.3 F1500.0 E30 ; Draw the second line
G92 E0 ; Reset Extruder
G1 Z2.0 F3000 ; Move Z Axis up little to prevent scratching of Heat Bed
G1 X5 Y20 Z0.3 F5000.0 ; Move over to prevent blob squish
G92 E0
G92 E0
G1 F1500 E-4
;LAYER_COUNT:65
;LAYER:0
M106 S25.5
G0 F7500 X57.852 Y130.854 Z0.16
G0 X51.594 Y139.824
;TYPE:SKIRT
G1 F1500 E0
G1 X51.797 Y138.744 E0.02924
G1 X52.009 Y137.831 E0.05418
G1 X52.298 Y136.938 E0.07915
G1 X52.662 Y136.074 E0.1041
G1 X53.099 Y135.244 E0.12906
G1 X53.604 Y134.454 E0.15401
G1 X54.175 Y133.71 E0.17896
G1 X54.807 Y133.017 E0.20392
G1 X55.496 Y132.381 E0.22887
G1 X56.237 Y131.806 E0.25382
G1 X57.024 Y131.296 E0.27878
G1 X57.852 Y130.854 E0.30375
G1 X58.714 Y130.485 E0.3287
G1 X59.604 Y130.191 E0.35364
G1 X60.725 Y129.935 E0.38424
G1 X61.343 Y129.828 E0.40092
G1 X63.855 Y129.359 E0.46892
G1 X66.034 Y128.895 E0.5282
G1 X66.959 Y128.739 E0.55316
G1 X68.149 Y128.655 E0.5849
G1 X68.965 Y128.642 E0.60662
G1 X82.075 Y128.639 E0.95545
G1 X82.944 Y128.65 E0.97857
G1 X83.881 Y128.703 E1.00354
G1 X84.809 Y128.836 E1.02849
G1 X86.147 Y129.174 E1.06521
G1 X88.464 Y129.917 E1.12995
G1 X90.89 Y130.621 E1.19717
G1 X93.315 Y131.252 E1.26384
G1 X96.172 Y131.905 E1.34182
G1 X97.077 Y132.153 E1.36679
G1 X97.957 Y132.477 E1.39174
G1 X98.806 Y132.874 E1.41668
G1 X99.618 Y133.343 E1.44163
G1 X100.388 Y133.879 E1.46659
G1 X101.151 Y134.518 E1.49307
G1 X101.354 Y134.704 E1.5004
G1 X102.018 Y135.366 E1.52535
G1 X102.623 Y136.083 E1.55031
G1 X103.165 Y136.848 E1.57525
G1 X103.639 Y137.657 E1.6002
G1 X104.043 Y138.504 E1.62517
G1 X104.374 Y139.381 E1.65011
G1 X104.628 Y140.284 E1.67507
G1 X104.805 Y141.205 E1.70003
G1 X104.902 Y142.138 E1.72499
G1 X104.923 Y142.873 E1.74455
G1 X104.921 Y143.244 E1.75442
G1 X104.833 Y144.57 E1.78978
G1 X104.76 Y145.135 E1.80494
G1 X104.51 Y146.884 E1.85195
G1 X104.224 Y149.39 E1.91907
G1 X103.999 Y152.009 E1.98901
G1 X103.896 Y153.512 E2.0291
G1 X103.792 Y154.444 E2.05405
G1 X103.61 Y155.364 E2.079
G1 X103.349 Y156.265 E2.10396
G1 X103.013 Y157.141 E2.12893
G1 X102.603 Y157.984 E2.15387
G1 X102.123 Y158.79 E2.17883
G1 X101.576 Y159.552 E2.20379
G1 X100.966 Y160.264 E2.22874
G1 X100.297 Y160.922 E2.2537
G1 X99.575 Y161.521 E2.27867
G1 X98.805 Y162.056 E2.30361
G1 X97.992 Y162.523 E2.32856
G1 X97.142 Y162.919 E2.35351
G1 X96.261 Y163.242 E2.37848
G1 X95.356 Y163.488 E2.40343
G1 X94.792 Y163.601 E2.41874
G1 X93.419 Y163.838 E2.45581
G1 X90.916 Y164.306 E2.52357
G1 X88.453 Y164.839 E2.59062
G1 X86.965 Y165.198 E2.63135
G1 X85.613 Y165.545 E2.66849
G1 X84.761 Y165.73 E2.69169
G1 X83.834 Y165.868 E2.71662
G1 X82.835 Y165.928 E2.74325
G1 X81.732 Y165.944 E2.77261
G1 X79.117 Y166.017 E2.84221
G1 X76.604 Y166.157 E2.90918
G1 X74.108 Y166.368 E2.97583
G1 X71.604 Y166.651 E3.04288
G1 X69.011 Y167.019 E3.11257
G1 X68.226 Y167.142 E3.13371
G1 X66.836 Y167.27 E3.17085
G1 X66.18 Y167.283 E3.18831
G1 X63.789 Y167.277 E3.25193
G1 X62.571 Y167.283 E3.28434
G1 X61.694 Y167.274 E3.30768
G1 X60.757 Y167.224 E3.33265
G1 X59.829 Y167.093 E3.35758
G1 X58.914 Y166.884 E3.38256
G1 X58.021 Y166.598 E3.40751
G1 X57.156 Y166.237 E3.43245
G1 X56.324 Y165.804 E3.4574
G1 X55.532 Y165.301 E3.48237
G1 X54.786 Y164.732 E3.50733
G1 X54.091 Y164.102 E3.53229
G1 X53.453 Y163.416 E3.55722
G1 X52.875 Y162.677 E3.58218
G1 X52.362 Y161.892 E3.60713
G1 X51.918 Y161.066 E3.63209
G1 X51.546 Y160.205 E3.65704
G1 X51.248 Y159.315 E3.68202
G1 X51.028 Y158.404 E3.70695
G1 X50.886 Y157.477 E3.73191
G1 X50.825 Y156.613 E3.75495
G1 X50.811 Y155.983 E3.77172
G1 X50.811 Y145.299 E4.056
G1 X50.822 Y144.593 E4.07479
G1 X50.877 Y143.656 E4.09976
G1 X51.037 Y142.597 E4.12826
G1 X51.594 Y139.824 E4.20352
G1 F1500 E0.20352
G0 F7500 X51.611 Y145.311
G1 F1500 E4.20352
G1 X51.622 Y144.605 E4.22231
G1 X51.676 Y143.704 E4.24632
G1 X51.821 Y142.754 E4.27189
G1 X52.383 Y139.957 E4.3478
G1 X52.583 Y138.892 E4.37664
G1 X52.789 Y138.012 E4.40069
G1 X53.071 Y137.155 E4.42469
G1 X53.429 Y136.325 E4.44874
G1 X53.858 Y135.531 E4.47276
G1 X54.356 Y134.777 E4.4968
G1 X54.919 Y134.071 E4.52083
G1 X55.542 Y133.417 E4.54486
G1 X56.22 Y132.821 E4.56888
G1 X56.949 Y132.287 E4.59293
G1 X57.721 Y131.82 E4.61693
G1 X58.533 Y131.423 E4.64098
G1 X59.376 Y131.099 E4.66501
G1 X60.244 Y130.851 E4.68903
G1 X60.862 Y130.724 E4.70582
G1 X61.392 Y130.632 E4.72013
G1 X64.042 Y130.137 E4.79186
G1 X66.2 Y129.678 E4.85057
G1 X67.091 Y129.529 E4.87461
G1 X68.162 Y129.455 E4.90317
G1 X68.978 Y129.442 E4.92489
G1 X82.075 Y129.439 E5.27337
G1 X82.933 Y129.45 E5.2962
G1 X83.835 Y129.503 E5.32025
G1 X84.728 Y129.635 E5.34427
G1 X85.903 Y129.936 E5.37654
G1 X88.227 Y130.681 E5.44148
G1 X90.667 Y131.389 E5.50908
G1 X93.138 Y132.032 E5.57702
G1 X95.994 Y132.685 E5.65497
G1 X96.864 Y132.925 E5.67898
G1 X97.71 Y133.241 E5.70301
G1 X98.525 Y133.631 E5.72705
G1 X99.302 Y134.091 E5.75108
G1 X100.035 Y134.618 E5.7751
G1 X100.611 Y135.107 E5.79521
G1 X100.814 Y135.293 E5.80253
G1 X101.452 Y135.932 E5.82656
G1 X102.031 Y136.625 E5.85059
G1 X102.547 Y137.367 E5.87463
G1 X102.995 Y138.151 E5.89866
G1 X103.372 Y138.972 E5.9227
G1 X103.674 Y139.823 E5.94673
G1 X103.901 Y140.697 E5.97075
G1 X104.049 Y141.588 E5.99479
G1 X104.123 Y142.869 E6.02893
G1 X104.121 Y143.24 E6.0388
G1 X104.04 Y144.469 E6.07157
G1 X103.99 Y144.863 E6.08214
G1 X103.716 Y146.784 E6.13377
G1 X103.428 Y149.307 E6.20134
G1 X103.202 Y151.938 E6.2716
G1 X103.098 Y153.458 E6.31214
G1 X102.997 Y154.355 E6.33616
G1 X102.816 Y155.24 E6.3602
G1 X102.558 Y156.105 E6.38421
G1 X102.225 Y156.945 E6.40826
G1 X101.818 Y157.751 E6.43228
G1 X101.342 Y158.518 E6.4563
G1 X100.8 Y159.241 E6.48034
G1 X100.196 Y159.912 E6.50437
G1 X99.534 Y160.527 E6.52841
G1 X98.822 Y161.082 E6.55243
G1 X98.062 Y161.571 E6.57648
G1 X97.263 Y161.991 E6.60049
G1 X96.43 Y162.339 E6.62452
G1 X95.569 Y162.612 E6.64855
G1 X94.656 Y162.813 E6.67342
G1 X93.279 Y163.051 E6.71061
G1 X90.777 Y163.518 E6.77833
G1 X88.26 Y164.063 E6.84685
G1 X86.724 Y164.433 E6.88889
G1 X85.414 Y164.77 E6.92488
G1 X84.61 Y164.944 E6.94677
G1 X83.716 Y165.076 E6.97082
G1 X82.824 Y165.128 E6.99459
G1 X81.699 Y165.144 E7.02453
G1 X79.087 Y165.217 E7.09406
G1 X76.559 Y165.359 E7.16143
G1 X74.023 Y165.573 E7.22915
G1 X71.47 Y165.861 E7.29751
G1 X68.928 Y166.222 E7.36583
G1 X68.103 Y166.351 E7.38804
G1 X66.814 Y166.47 E7.42249
G1 X66.182 Y166.483 E7.43931
G1 X63.787 Y166.477 E7.50303
G1 X62.567 Y166.483 E7.5355
G1 X61.703 Y166.474 E7.55849
G1 X60.801 Y166.424 E7.58252
G1 X59.908 Y166.294 E7.60654
G1 X59.029 Y166.086 E7.63057
G1 X58.172 Y165.8 E7.65461
G1 X57.344 Y165.44 E7.67863
G1 X56.551 Y165.009 E7.70265
G1 X55.799 Y164.508 E7.72669
G1 X55.094 Y163.943 E7.75073
G1 X54.442 Y163.318 E7.77476
G1 X53.848 Y162.638 E7.79879
G1 X53.317 Y161.908 E7.82281
G1 X52.852 Y161.134 E7.84683
G1 X52.457 Y160.322 E7.87086
G1 X52.136 Y159.478 E7.89489
G1 X51.89 Y158.608 E7.91894
G1 X51.723 Y157.721 E7.94296
G1 X51.625 Y156.588 E7.97322
G1 X51.611 Y155.983 E7.98932
G1 X51.611 Y145.311 E8.27328
G0 F7500 X51.211 Y145.305
G1 F1500 X51.222 Y144.599 E8.29207
G1 X51.277 Y143.68 E8.31657
G1 X51.429 Y142.675 E8.34361
G1 X51.99 Y139.883 E8.41939
G1 X52.19 Y138.818 E8.44822
G1 X52.399 Y137.921 E8.47273
G1 X52.685 Y137.046 E8.49722
G1 X53.046 Y136.199 E8.52172
G1 X53.479 Y135.387 E8.5462
G1 X53.98 Y134.615 E8.57069
G1 X54.547 Y133.889 E8.5952
G1 X55.175 Y133.216 E8.6197
G1 X55.859 Y132.599 E8.64421
G1 X56.593 Y132.045 E8.66867
G1 X57.374 Y131.556 E8.69319
G1 X58.193 Y131.136 E8.71768
G1 X59.046 Y130.789 E8.74219
G1 X59.926 Y130.518 E8.76669
G1 X60.793 Y130.33 E8.79029
G1 X61.328 Y130.237 E8.80474
G1 X63.933 Y129.751 E8.87525
G1 X66.117 Y129.286 E8.93467
G1 X67.025 Y129.134 E8.95916
G1 X68.155 Y129.055 E8.9893
G1 X68.971 Y129.042 E9.01102
G1 X82.075 Y129.039 E9.35969
G1 X82.939 Y129.05 E9.38268
G1 X83.858 Y129.103 E9.40717
G1 X84.769 Y129.235 E9.43167
G1 X86.025 Y129.555 E9.46616
G1 X88.346 Y130.299 E9.53101
G1 X90.774 Y131.004 E9.59828
G1 X93.231 Y131.643 E9.66583
G1 X96.083 Y132.295 E9.74368
G1 X96.971 Y132.539 E9.76818
G1 X97.834 Y132.859 E9.79267
G1 X98.666 Y133.253 E9.81717
G1 X99.461 Y133.717 E9.84166
G1 X100.212 Y134.249 E9.86615
G1 X100.881 Y134.813 E9.88943
G1 X101.084 Y134.999 E9.89675
G1 X101.735 Y135.649 E9.92123
G1 X102.327 Y136.354 E9.94573
G1 X102.856 Y137.108 E9.97024
G1 X103.318 Y137.905 E9.99475
G1 X103.708 Y138.738 E10.01922
G1 X104.025 Y139.603 E10.04373
G1 X104.265 Y140.491 E10.06821
G1 X104.428 Y141.398 E10.09273
G1 X104.511 Y142.314 E10.1172
G1 X104.523 Y142.871 E10.13203
G1 X104.521 Y143.242 E10.1419
G1 X104.437 Y144.519 E10.17595
G1 X104.387 Y144.913 E10.18652
G1 X104.115 Y146.819 E10.23775
G1 X103.822 Y149.383 E10.30641
G1 X103.602 Y151.947 E10.37489
G1 X103.497 Y153.485 E10.41591
G1 X103.395 Y154.4 E10.4404
G1 X103.213 Y155.302 E10.46489
G1 X102.953 Y156.186 E10.48941
G1 X102.618 Y157.043 E10.51389
G1 X102.21 Y157.869 E10.5384
G1 X101.732 Y158.655 E10.56288
G1 X101.187 Y159.397 E10.58738
G1 X100.58 Y160.09 E10.61189
G1 X99.916 Y160.727 E10.63637
G1 X99.198 Y161.303 E10.66087
G1 X98.433 Y161.816 E10.68537
G1 X97.627 Y162.26 E10.70986
G1 X96.785 Y162.632 E10.73435
G1 X95.914 Y162.93 E10.75885
G1 X94.724 Y163.207 E10.79136
G1 X93.355 Y163.443 E10.82832
G1 X90.83 Y163.915 E10.89667
G1 X88.392 Y164.443 E10.96304
G1 X86.773 Y164.833 E11.00736
G1 X85.513 Y165.157 E11.04197
G1 X84.686 Y165.337 E11.06449
G1 X83.775 Y165.472 E11.089
G1 X82.829 Y165.528 E11.11421
G1 X81.716 Y165.544 E11.14383
G1 X79.084 Y165.617 E11.21389
G1 X76.581 Y165.757 E11.28059
G1 X74.066 Y165.97 E11.34775
G1 X71.573 Y166.251 E11.41451
G1 X68.97 Y166.621 E11.48446
G1 X68.165 Y166.747 E11.50614
G1 X66.825 Y166.87 E11.54195
G1 X66.181 Y166.883 E11.55909
G1 X63.788 Y166.877 E11.62276
G1 X62.569 Y166.883 E11.6552
G1 X61.699 Y166.874 E11.67835
G1 X60.779 Y166.824 E11.70286
G1 X59.868 Y166.694 E11.72735
G1 X58.971 Y166.485 E11.75186
G1 X58.096 Y166.199 E11.77635
G1 X57.249 Y165.839 E11.80084
G1 X56.436 Y165.406 E11.82535
G1 X55.664 Y164.904 E11.84985
G1 X54.939 Y164.338 E11.87432
G1 X54.265 Y163.71 E11.89883
G1 X53.648 Y163.027 E11.92333
G1 X53.093 Y162.292 E11.94783
G1 X52.604 Y161.512 E11.97233
G1 X52.184 Y160.693 E11.99682
G1 X51.837 Y159.84 E12.02132
G1 X51.566 Y158.96 E12.04582
G1 X51.371 Y158.06 E12.07032
G1 X51.256 Y157.147 E12.09481
G1 X51.225 Y156.6 E12.10939
G1 X51.211 Y155.983 E12.12581
G1 X51.211 Y145.305 E12.40993
G1 F1500 E8.40993
;MESH:void_switch-v34.stl
G0 F7500 X61.157 Y156.937
G0 X63.844 Y156.936
G0 X64.504 Y149.986
G0 X65.137 Y147.933
;TYPE:WALL-INNER
G1 F1500 E12.40993
G1 X65.137 Y145.513 E12.47432
G1 X64.501 Y145.663 E12.49171
G1 X63.693 Y145.663 E12.51321
G1 X63.211 Y145.56 E12.52632
G1 X63.211 Y147.933 E12.58946
G1 X65.137 Y147.933 E12.64071
G0 F7500 X65.537 Y148.459
G1 F1500 X65.537 Y145.214 E12.72705
G1 X65.307 Y145.161 E12.73333
G1 X65.126 Y145.032 E12.73925
G1 X64.944 Y145.161 E12.74518
G1 X64.501 Y145.263 E12.75728
G1 X63.693 Y145.263 E12.77878
G1 X63.283 Y145.176 E12.78993
G1 X63.146 Y145.087 E12.79428
G1 X63.009 Y145.176 E12.79863
G1 X62.811 Y145.218 E12.80401
G1 X62.808 Y148.461 E12.8903
G1 X63.191 Y148.333 E12.90105
G1 X65.157 Y148.333 E12.95336
G1 X65.537 Y148.459 E12.96401
G0 F7500 X65.847 Y149.333
G1 F1121.5 X65.892 Y148.988 E12.97639
G1 F1348.3 X65.937 Y148.643 E12.98669
G1 F1500 X65.937 Y144.927 E13.08557
G1 X65.9 Y144.863 E13.08753
G1 X65.75 Y144.863 E13.09153
G1 X65.484 Y144.802 E13.09879
G1 X65.328 Y144.691 E13.10388
G1 F1405.2 X65.125 Y144.317 E13.11597
G1 X64.924 Y144.691 E13.12803
G1 F1500 X64.767 Y144.802 E13.13314
G1 X64.501 Y144.863 E13.14041
G1 X63.693 Y144.863 E13.16191
G1 X63.447 Y144.811 E13.1686
G1 X63.291 Y144.71 E13.17354
G1 X63.146 Y144.415 E13.18229
G1 X63 Y144.71 E13.19105
G1 X62.845 Y144.811 E13.19597
G1 X62.598 Y144.863 E13.20268
G1 X62.447 Y144.863 E13.2067
G1 X62.41 Y144.927 E13.20867
G1 X62.408 Y148.643 E13.30754
G1 F1348.3 X62.454 Y148.988 E13.31785
G1 F1121.5 X62.501 Y149.333 E13.33024
G1 X62.665 Y149.093 E13.34058
G1 F1348.3 X62.829 Y148.853 E13.34919
G1 F1500 X63.191 Y148.733 E13.35934
G1 X65.157 Y148.733 E13.41165
G1 X65.518 Y148.852 E13.42176
G1 F1348.3 X65.682 Y149.092 E13.43037
G1 F1121.5 X65.847 Y149.333 E13.44076
G1 F1500 E9.44076
G0 F7500 X67.202 Y149.333
G0 X67.202 Y156.083
G0 X66.337 Y156.083
;TYPE:WALL-OUTER
G1 F1500 E13.44076
G1 X66.337 Y144.819 E13.74047
G1 X66.13 Y144.463 E13.75143
G1 X65.75 Y144.463 E13.76154
G1 X65.609 Y144.406 E13.76559
G1 X65.55 Y144.281 E13.76927
G1 X65.549 Y140.963 E13.85755
G1 X64.701 Y140.963 E13.88012
G1 X64.701 Y144.281 E13.9684
G1 X64.642 Y144.406 E13.97208
G1 X64.501 Y144.463 E13.97613
G1 X63.632 Y144.463 E13.99925
G1 F1263.2 X63.419 Y144.287 E14.00798
G1 F1092.9 X63.419 Y142.661 E14.06736
G1 F1096.9 X63.419 Y141.035 E14.12653
G1 X62.872 Y141.036 E14.14643
G1 X62.872 Y142.662 E14.20559
G1 F1092.9 X62.872 Y144.288 E14.26497
G1 F1263.2 X62.661 Y144.463 E14.27364
G1 F1500 X62.217 Y144.463 E14.28545
G1 X62.01 Y144.819 E14.29641
G1 X62.011 Y156.083 E14.59612
G1 X62.991 Y156.083 E14.6222
G1 X62.991 Y149.333 E14.8018
G1 X63.07 Y149.173 E14.80655
G1 X63.191 Y149.133 E14.80994
G1 X65.157 Y149.133 E14.86225
G1 X65.278 Y149.172 E14.86563
G1 X65.357 Y149.333 E14.87041
G1 X65.357 Y156.083 E15.05001
G1 X66.337 Y156.083 E15.07609
G0 F7500 X65.847 Y155.593
;TYPE:WALL-INNER
G1 F1034.5 X65.847 Y149.333 E15.31761
G1 F1500 E11.31761
G0 F7500 X64.504 Y149.986
G0 X63.844 Y149.986
G0 X62.501 Y149.333
G1 F1500 E15.31761
G1 F1034.5 X62.501 Y155.593 E15.55913
G1 F1500 E11.55913
G0 F7500 X63.856 Y155.593
G0 X64.504 Y156.936
G0 X67.19 Y156.936
G0 X67.2 Y144.585
G0 X66.626 Y143.604
G0 X65.125 Y144.317
G1 F1500 E15.55913
G1 F1324.5 X65.125 Y142.852 E15.60328
G1 F1330.4 X65.125 Y141.387 E15.64723
G1 F1500 E11.64723
G0 F7500 X66.414 Y141.386
G0 X67.2 Y144.585
G0 X67.202 Y147.573
G0 X64.777 Y147.573
;TYPE:SKIN
G1 F1500 E15.64723
G1 X64.777 Y145.964 E15.69004
G1 X64.497 Y146.023 E15.69765
G1 X63.658 Y146.02 E15.71998
G1 X63.572 Y146.002 E15.72232
G1 X63.571 Y147.573 E15.76412
G1 X64.777 Y147.573 E15.79621
G0 F7500 X64.216 Y147.372
G1 F1500 X63.771 Y146.926 E15.81297
G0 F7500 X63.771 Y146.361
G1 F1500 X64.577 Y147.167 E15.8433
G0 F7500 X64.577 Y146.601
G1 F1500 X64.198 Y146.222 E15.85756
G1 F1500 E11.85756
G0 F7500 X68.886 Y141.911
;TYPE:WALL-INNER
G1 F1500 E15.85756
G1 X70.156 Y140.642 E15.90533
G1 X68.886 Y140.642 E15.93912
G1 X68.886 Y141.911 E15.97289
G0 F7500 X69.301 Y141.014
G1 F1744.2 X69.279 Y141.051 E15.97388
G1 X69.215 Y141.014 E15.97557
G1 X69.279 Y140.977 E15.97726
G1 F1500 E11.97726
G0 F7500 X68.577 Y146.705
G1 F1500 E15.97726
G1 F1027.4 X68.682 Y146.463 E15.98751
G1 F1047.1 X68.787 Y146.221 E15.99756
G1 F1056.3 X69.254 Y145.754 E16.02252
G1 F1083 X69 Y145.501 E16.03573
G1 F1293.1 X68.861 Y145.081 E16.04938
G1 F1554.4 X68.86 Y144.309 E16.0692
G1 F1562.5 X68.859 Y143.537 E16.08892
G1 F1570.7 X68.857 Y142.765 E16.10854
G1 F1538.5 X69.022 Y142.341 E16.12034
G1 F1500 X70.586 Y140.777 E16.1792
G1 F1526.7 X70.909 Y140.617 E16.18862
G1 F1558.4 X72.066 Y140.615 E16.21825
G1 F1570.7 X73.223 Y140.612 E16.24765
G1 F1425.2 X73.482 Y140.681 E16.25516
G1 F1197.6 X73.742 Y140.75 E16.26412
G1 F1083 X73.999 Y141.009 E16.27757
G1 F1056.3 X74.466 Y140.542 E16.30252
G1 F1030.9 X74.83 Y140.339 E16.31866
G1 X74.376 Y140.324 E16.33625
G1 F1056.3 X73.999 Y140.324 E16.35049
G1 F1109.1 X73.869 Y140.298 E16.35526
G1 F1250 X73.546 Y140.264 E16.36563
