;FLAVOR:Marlin
;TIME:1967
;Filament used: 0.417042m
;Layer height: 0.16
;MINX:9.748
;MINY:69.927
;MINZ:0.16
;MAXX:63.859
;MAXY:107.225
;MAXZ:10.08
;Generated with Cura_SteamEngine main
M82 ;absolute extrusion mode
; Ender 3 Custom Start G-code
G92 E0 ; Reset Extruder
G28 ; Home all axes
M104 S120 ; Start heating up the nozzle most of the way
M190 S68.0 ; Start heating the bed, wait until target temperature reached
M109 S248.0 ; Finish heating the nozzle
G1 Z2.0 F3000 ; Move Z Axis up little to prevent scratching of Heat Bed
G1 X0.1 Y20 Z0.3 F5000.0 ; Move to start position
G1 X0.1 Y200.0 Z0.3 F1500.0 E15 ; Draw the first line
G1 X0.4 Y200.0 Z0.3 F5000.0 ; Move to side a little
G1 X0.4 Y20 Z0.3 F1500.0 E30 ; Draw the second line
G92 E0 ; Reset Extruder
G1 Z2.0 F3000 ; Move Z Axis up little to prevent scratching of Heat Bed
G1 X5 Y20 Z0.3 F5000.0 ; Move over to prevent blob squish
G92 E0
G92 E0
G1 F1500 E-3.5
;LAYER_COUNT:63
;LAYER:0
M107
G0 F6000 X18.54 Y71.026 Z0.16
G0 X10.522 Y80.707
;TYPE:SKIRT
G1 F1500 E0
G1 F600 X10.733 Y79.581 E0.03048
G1 X10.945 Y78.667 E0.05545
G1 X11.234 Y77.775 E0.0804
G1 X11.598 Y76.911 E0.10534
G1 X12.035 Y76.08 E0.13033
G1 X12.54 Y75.29 E0.15527
G1 X13.111 Y74.546 E0.18023
G1 X13.743 Y73.854 E0.20516
G1 X14.432 Y73.217 E0.23013
G1 X15.173 Y72.642 E0.25509
G1 X15.96 Y72.132 E0.28004
G1 X16.787 Y71.69 E0.30499
G1 X17.649 Y71.321 E0.32994
G1 X18.54 Y71.026 E0.35491
G1 X19.452 Y70.809 E0.37986
G1 X20.445 Y70.663 E0.40656
G1 X22.891 Y70.417 E0.47198
G1 X25.867 Y70.03 E0.55183
G1 X27.047 Y69.941 E0.58332
G1 X27.698 Y69.929 E0.60064
G1 X41.015 Y69.927 E0.95498
G1 X41.883 Y69.938 E0.97808
G1 X42.82 Y69.991 E1.00305
G1 X43.748 Y70.124 E1.02799
G1 X44.662 Y70.335 E1.05295
G1 X45.244 Y70.514 E1.06916
G1 X45.75 Y70.684 E1.08336
G1 X48.248 Y71.487 E1.15318
G1 X50.635 Y72.18 E1.21931
G1 X53.126 Y72.828 E1.2878
G1 X54.91 Y73.243 E1.33654
G1 X55.631 Y73.432 E1.35637
G1 X56.524 Y73.719 E1.38133
G1 X57.389 Y74.081 E1.40628
G1 X58.22 Y74.516 E1.43123
G1 X59.012 Y75.02 E1.45621
G1 X59.757 Y75.589 E1.48116
G1 X60.831 Y76.607 E1.52053
G1 X61.523 Y77.418 E1.5489
G1 X62.069 Y78.18 E1.57384
G1 X62.548 Y78.987 E1.59881
G1 X62.956 Y79.831 E1.62375
G1 X63.291 Y80.707 E1.64871
G1 X63.551 Y81.608 E1.67366
G1 X63.732 Y82.528 E1.69861
G1 X63.834 Y83.461 E1.72358
G1 X63.859 Y84.254 E1.74469
G1 X63.857 Y84.626 E1.75459
G1 X63.812 Y85.563 E1.77955
G1 X63.75 Y86.101 E1.79396
G1 X63.422 Y88.429 E1.85652
G1 X63.143 Y90.881 E1.92218
G1 X62.914 Y93.578 E1.9942
G1 X62.832 Y94.736 E2.02509
G1 X62.726 Y95.668 E2.05005
G1 X62.541 Y96.588 E2.07502
G1 X62.278 Y97.488 E2.09997
G1 X61.94 Y98.363 E2.12493
G1 X61.528 Y99.205 E2.14987
G1 X61.046 Y100.01 E2.17484
G1 X60.497 Y100.77 E2.19978
G1 X59.885 Y101.481 E2.22474
G1 X59.215 Y102.137 E2.24969
G1 X58.492 Y102.734 E2.27464
G1 X57.72 Y103.267 E2.2996
G1 X56.906 Y103.732 E2.32455
G1 X56.055 Y104.127 E2.34951
G1 X55.173 Y104.447 E2.37448
G1 X54.268 Y104.691 E2.39942
G1 X53.737 Y104.797 E2.41382
G1 X53.284 Y104.875 E2.42606
G1 X50.795 Y105.341 E2.49343
G1 X48.356 Y105.868 E2.55983
G1 X45.183 Y106.662 E2.64686
G1 X44.5 Y106.844 E2.66567
G1 X43.584 Y107.047 E2.69063
G1 X42.654 Y107.171 E2.7156
G1 X41.873 Y107.213 E2.73641
G1 X41.132 Y107.225 E2.75613
G1 X27.797 Y107.222 E3.11095
G1 X27.11 Y107.212 E3.12923
G1 X26.196 Y107.16 E3.15359
G1 X24.927 Y107.035 E3.18752
G1 X22.36 Y106.817 E3.25606
G1 X20.716 Y106.724 E3.29988
G1 X19.98 Y106.673 E3.31951
G1 X19.048 Y106.566 E3.34447
G1 X18.129 Y106.381 E3.36941
G1 X17.228 Y106.119 E3.39438
G1 X16.354 Y105.78 E3.41932
G1 X15.511 Y105.369 E3.44428
G1 X14.707 Y104.887 E3.46922
G1 X13.946 Y104.338 E3.49419
G1 X13.235 Y103.726 E3.51915
G1 X12.579 Y103.056 E3.5441
G1 X11.982 Y102.333 E3.56905
G1 X11.449 Y101.561 E3.59401
G1 X10.983 Y100.747 E3.61897
G1 X10.589 Y99.896 E3.64392
G1 X10.268 Y99.015 E3.66887
G1 X10.024 Y98.109 E3.69384
G1 X9.858 Y97.186 E3.71879
G1 X9.762 Y96.023 E3.74984
G1 X9.748 Y95.395 E3.76655
G1 X9.748 Y86.135 E4.01294
G1 X9.759 Y85.429 E4.03173
G1 X9.814 Y84.492 E4.05671
G1 X9.974 Y83.433 E4.0852
G1 X10.522 Y80.707 E4.15919
G1 F1500 E0.65919
G0 F6000 X10.548 Y86.147
G1 F1500 E4.15919
G1 F600 X10.559 Y85.441 E4.17798
G1 X10.613 Y84.54 E4.20199
G1 X10.758 Y83.59 E4.22756
G1 X11.323 Y80.78 E4.30383
G1 X11.52 Y79.728 E4.33231
G1 X11.725 Y78.849 E4.35632
G1 X12.008 Y77.991 E4.38036
G1 X12.365 Y77.162 E4.40438
G1 X12.794 Y76.367 E4.42842
G1 X13.292 Y75.614 E4.45244
G1 X13.855 Y74.907 E4.47649
G1 X14.478 Y74.253 E4.50052
G1 X15.156 Y73.657 E4.52454
G1 X15.884 Y73.123 E4.54856
G1 X16.657 Y72.655 E4.57261
G1 X17.468 Y72.258 E4.59663
G1 X18.311 Y71.934 E4.62066
G1 X19.179 Y71.686 E4.64468
G1 X20.066 Y71.516 E4.66871
G1 X20.525 Y71.459 E4.68102
G1 X22.971 Y71.213 E4.74643
G1 X25.97 Y70.823 E4.8269
G1 X27.064 Y70.74 E4.85609
G1 X27.698 Y70.729 E4.87297
G1 X41.015 Y70.727 E5.22731
G1 X41.872 Y70.738 E5.25011
G1 X42.774 Y70.791 E5.27415
G1 X43.667 Y70.923 E5.29817
G1 X44.545 Y71.134 E5.3222
G1 X44.988 Y71.272 E5.33455
G1 X45.523 Y71.452 E5.34957
G1 X47.991 Y72.245 E5.41854
G1 X50.455 Y72.96 E5.48681
G1 X52.909 Y73.598 E5.55427
G1 X54.728 Y74.022 E5.60397
G1 X55.419 Y74.204 E5.62299
G1 X56.278 Y74.481 E5.647
G1 X57.11 Y74.834 E5.67105
G1 X57.907 Y75.259 E5.69508
G1 X58.663 Y75.753 E5.71911
G1 X59.372 Y76.312 E5.74314
G1 X60.25 Y77.158 E5.77558
G1 X60.914 Y77.937 E5.80281
G1 X61.436 Y78.674 E5.82684
G1 X61.89 Y79.454 E5.85086
G1 X62.274 Y80.272 E5.8749
G1 X62.584 Y81.12 E5.89893
G1 X62.818 Y81.992 E5.92295
G1 X62.974 Y82.882 E5.94699
G1 X63.051 Y83.781 E5.971
G1 X63.057 Y84.622 E5.99338
G1 X63.012 Y85.524 E6.01741
G1 X62.957 Y85.989 E6.02987
G1 X62.631 Y88.303 E6.09205
G1 X62.344 Y90.826 E6.15961
G1 X62.122 Y93.439 E6.22939
G1 X62.034 Y94.68 E6.26249
G1 X61.931 Y95.577 E6.28652
G1 X61.748 Y96.461 E6.31054
G1 X61.488 Y97.326 E6.33457
G1 X61.152 Y98.165 E6.35862
G1 X60.744 Y98.97 E6.38263
G1 X60.266 Y99.736 E6.40666
G1 X59.722 Y100.457 E6.43069
G1 X59.116 Y101.127 E6.45473
G1 X58.453 Y101.741 E6.47877
G1 X57.739 Y102.293 E6.50279
G1 X56.979 Y102.781 E6.52682
G1 X56.178 Y103.199 E6.55086
G1 X55.344 Y103.545 E6.57488
G1 X54.482 Y103.815 E6.59892
G1 X53.6 Y104.008 E6.62294
G1 X50.656 Y104.553 E6.70261
G1 X48.15 Y105.095 E6.77083
G1 X44.977 Y105.889 E6.85786
G1 X44.294 Y106.071 E6.87667
G1 X43.411 Y106.265 E6.90072
G1 X42.516 Y106.38 E6.92473
G1 X41.858 Y106.413 E6.94226
G1 X41.132 Y106.425 E6.96158
G1 X27.809 Y106.422 E7.31608
G1 X27.122 Y106.412 E7.33436
G1 X26.274 Y106.364 E7.35696
G1 X25.001 Y106.239 E7.391
G1 X22.4 Y106.018 E7.46046
G1 X20.616 Y105.916 E7.508
G1 X20.037 Y105.875 E7.52345
G1 X19.139 Y105.771 E7.5475
G1 X18.255 Y105.588 E7.57152
G1 X17.39 Y105.328 E7.59555
G1 X16.552 Y104.993 E7.61957
G1 X15.746 Y104.584 E7.64362
G1 X14.98 Y104.106 E7.66764
G1 X14.259 Y103.562 E7.69167
G1 X13.589 Y102.957 E7.71569
G1 X12.975 Y102.294 E7.73974
G1 X12.422 Y101.58 E7.76377
G1 X11.935 Y100.82 E7.78779
G1 X11.517 Y100.019 E7.81183
G1 X11.171 Y99.185 E7.83585
G1 X10.9 Y98.324 E7.85987
G1 X10.707 Y97.441 E7.88392
G1 X10.592 Y96.546 E7.90793
G1 X10.561 Y96 E7.92248
G1 X10.548 Y95.395 E7.93858
G1 X10.548 Y86.147 E8.18465
G0 F6000 X10.148 Y86.141
G1 F600 X10.159 Y85.435 E8.20344
G1 X10.214 Y84.516 E8.22794
G1 X10.366 Y83.511 E8.25498
G1 X10.94 Y80.655 E8.3325
G1 X11.127 Y79.655 E8.35956
G1 X11.335 Y78.758 E8.38407
G1 X11.621 Y77.883 E8.40856
G1 X11.982 Y77.036 E8.43306
G1 X12.415 Y76.223 E8.45757
G1 X12.916 Y75.451 E8.48206
G1 X13.483 Y74.726 E8.50655
G1 X14.111 Y74.052 E8.53106
G1 X14.794 Y73.435 E8.55555
G1 X15.529 Y72.881 E8.58004
G1 X16.309 Y72.391 E8.60455
G1 X17.129 Y71.972 E8.62905
G1 X17.981 Y71.625 E8.65353
G1 X18.861 Y71.353 E8.67804
G1 X19.761 Y71.159 E8.70253
G1 X20.485 Y71.061 E8.72197
G1 X22.945 Y70.814 E8.78776
G1 X25.918 Y70.427 E8.86753
G1 X27.056 Y70.341 E8.8979
G1 X27.698 Y70.329 E8.91498
G1 X41.015 Y70.327 E9.26932
G1 X41.878 Y70.338 E9.29229
G1 X42.797 Y70.391 E9.31678
G1 X43.708 Y70.523 E9.34128
G1 X44.604 Y70.734 E9.36577
G1 X45.116 Y70.893 E9.38003
G1 X45.614 Y71.061 E9.39402
G1 X48.12 Y71.866 E9.46405
G1 X50.529 Y72.565 E9.5308
G1 X53.022 Y73.214 E9.59934
G1 X54.819 Y73.632 E9.64843
G1 X55.525 Y73.818 E9.66786
G1 X56.401 Y74.1 E9.69235
G1 X57.25 Y74.458 E9.71686
G1 X58.064 Y74.888 E9.74136
G1 X58.838 Y75.387 E9.76586
G1 X59.565 Y75.951 E9.79034
G1 X60.54 Y76.882 E9.82621
G1 X61.218 Y77.677 E9.85402
G1 X61.752 Y78.427 E9.87851
G1 X62.219 Y79.221 E9.90302
G1 X62.616 Y80.052 E9.92753
G1 X62.938 Y80.914 E9.95201
G1 X63.185 Y81.801 E9.97651
G1 X63.354 Y82.706 E10.00101
G1 X63.444 Y83.622 E10.0255
G1 X63.459 Y84.252 E10.04227
G1 X63.457 Y84.624 E10.05217
G1 X63.412 Y85.544 E10.07667
G1 X63.353 Y86.045 E10.0901
G1 X63.031 Y88.331 E10.15152
G1 X62.742 Y90.869 E10.21949
G1 X62.518 Y93.503 E10.28983
G1 X62.433 Y94.708 E10.32197
G1 X62.328 Y95.623 E10.34648
G1 X62.145 Y96.525 E10.37097
G1 X61.883 Y97.408 E10.39548
G1 X61.546 Y98.264 E10.41995
G1 X61.136 Y99.088 E10.44444
G1 X60.656 Y99.874 E10.46895
G1 X60.109 Y100.615 E10.49346
G1 X59.5 Y101.306 E10.51796
G1 X58.834 Y101.941 E10.54245
G1 X58.115 Y102.516 E10.56694
G1 X57.349 Y103.026 E10.59143
G1 X56.541 Y103.468 E10.61594
G1 X55.698 Y103.839 E10.64044
G1 X54.826 Y104.134 E10.66494
G1 X53.669 Y104.403 E10.69654
G1 X50.709 Y104.95 E10.77664
G1 X48.265 Y105.479 E10.84317
G1 X45.11 Y106.268 E10.92971
G1 X44.397 Y106.458 E10.94934
G1 X43.497 Y106.656 E10.97386
G1 X42.585 Y106.775 E10.99833
G1 X41.866 Y106.813 E11.01749
G1 X41.132 Y106.825 E11.03702
G1 X27.803 Y106.822 E11.39168
G1 X27.116 Y106.812 E11.40997
G1 X26.235 Y106.762 E11.43345
G1 X25.006 Y106.641 E11.4663
G1 X22.345 Y106.415 E11.53736
G1 X20.587 Y106.315 E11.58422
G1 X20.008 Y106.274 E11.59966
G1 X19.094 Y106.169 E11.62414
G1 X18.191 Y105.985 E11.64866
G1 X17.309 Y105.723 E11.67314
G1 X16.452 Y105.386 E11.69765
G1 X15.628 Y104.976 E11.72214
G1 X14.842 Y104.496 E11.74664
G1 X14.101 Y103.95 E11.77113
G1 X13.41 Y103.341 E11.79564
G1 X12.775 Y102.675 E11.82012
G1 X12.2 Y101.956 E11.84462
G1 X11.689 Y101.19 E11.86912
G1 X11.247 Y100.382 E11.89363
G1 X10.877 Y99.54 E11.9181
G1 X10.581 Y98.668 E11.9426
G1 X10.362 Y97.774 E11.96709
G1 X10.221 Y96.864 E11.9916
G1 X10.162 Y96.012 E12.01432
G1 X10.148 Y95.395 E12.03074
G1 X10.148 Y86.141 E12.27697
G1 F1500 E8.77697
;MESH:void_switch-v39.stl
G0 F6000 X23.985 Y87.15
;TYPE:WALL-INNER
G1 F1500 E12.27697
G1 F414.5 X23.985 Y86.47 E12.30316
G1 F415.9 X23.617 Y86.584 E12.31795
G1 F418.8 X22.536 Y86.582 E12.35915
G1 F420.3 X22.233 Y86.507 E12.37101
G1 X22.233 Y87.153 E12.39555
G1 F418.8 X23.109 Y87.152 E12.42894
G1 F415.9 X23.985 Y87.15 E12.46256
G0 F6000 X24.474 Y87.764
G1 F600 X24.474 Y86.05 E12.50817
G1 X24.244 Y85.997 E12.51445
G1 X24.063 Y85.868 E12.52036
G1 X23.881 Y85.997 E12.5263
G1 X23.55 Y86.099 E12.53551
G1 X22.566 Y86.098 E12.56169
G1 X22.219 Y86.012 E12.57121
G1 X22.082 Y85.923 E12.57555
G1 X21.945 Y86.012 E12.5799
G1 X21.747 Y86.054 E12.58529
G1 X21.747 Y87.765 E12.63081
G1 X22.127 Y87.639 E12.64147
G1 X24.093 Y87.639 E12.69378
G1 X24.474 Y87.764 E12.70445
G0 F6000 X24.783 Y88.639
G1 F447.8 X24.828 Y88.294 E12.71685
G1 F539.3 X24.874 Y87.949 E12.72715
G1 F600 X24.874 Y85.76 E12.7854
G1 X24.838 Y85.699 E12.78728
G1 X24.687 Y85.699 E12.7913
G1 X24.421 Y85.638 E12.79856
G1 X24.265 Y85.527 E12.80366
G1 F562.1 X24.062 Y85.153 E12.81574
G1 X23.861 Y85.527 E12.8278
G1 F600 X23.704 Y85.638 E12.83292
G1 X23.505 Y85.699 E12.83846
G1 X22.591 Y85.698 E12.86278
G1 X22.383 Y85.647 E12.86848
G1 X22.227 Y85.546 E12.87342
G1 X22.082 Y85.253 E12.88212
G1 X21.937 Y85.546 E12.89082
G1 X21.781 Y85.647 E12.89576
G1 X21.535 Y85.699 E12.90245
G1 X21.383 Y85.699 E12.9065
G1 X21.347 Y85.76 E12.90838
G1 X21.347 Y87.949 E12.96663
G1 F539.3 X21.392 Y88.294 E12.97693
G1 F448.6 X21.437 Y88.639 E12.98931
G1 X21.601 Y88.399 E12.99965
G1 F539.3 X21.766 Y88.158 E13.0083
G1 F600 X22.127 Y88.039 E13.01841
G1 X24.093 Y88.039 E13.07073
G1 X24.456 Y88.158 E13.08089
G1 F539.3 X24.619 Y88.398 E13.08948
G1 F447.8 X24.783 Y88.639 E13.09987
G1 F1500 E9.59987
G0 F6000 X25.274 Y95.509
;TYPE:WALL-OUTER
G1 F1500 E13.09987
G1 F600 X25.274 Y85.653 E13.36212
G1 X25.069 Y85.299 E13.37301
G1 X24.687 Y85.299 E13.38317
G1 X24.546 Y85.242 E13.38722
G1 X24.487 Y85.117 E13.3909
G1 X24.486 Y81.799 E13.47918
G1 X23.638 Y81.799 E13.50174
G1 X23.638 Y85.117 E13.59003
G1 X23.579 Y85.242 E13.59371
G1 X23.467 Y85.297 E13.59703
G1 X22.568 Y85.299 E13.62095
G1 F506.3 X22.355 Y85.123 E13.62966
G1 F438 X22.355 Y81.872 E13.74817
G1 F438.8 X21.809 Y81.872 E13.76804
G1 F438 X21.809 Y85.123 E13.88655
G1 F506.3 X21.596 Y85.299 E13.89526
G1 F600 X21.152 Y85.299 E13.90707
G1 X20.947 Y85.653 E13.91796
G1 X20.947 Y95.509 E14.18021
G1 X21.927 Y95.509 E14.20628
G1 X21.927 Y88.639 E14.38908
G1 X22.006 Y88.478 E14.39385
G1 X22.127 Y88.439 E14.39723
G1 X24.093 Y88.439 E14.44955
G1 X24.214 Y88.478 E14.45293
G1 X24.293 Y88.639 E14.4577
G1 X24.294 Y95.509 E14.6405
G1 X25.274 Y95.509 E14.66657
G0 F6000 X24.784 Y95.019
;TYPE:WALL-INNER
G1 F413.8 X24.784 Y91.829 E14.78965
G1 F413.1 X24.783 Y88.639 E14.91294
G1 F1500 E11.41294
G0 F6000 X21.437 Y88.639
G1 F1500 E14.91294
G1 F413.8 X21.437 Y95.019 E15.15909
G1 F1500 E11.65909
G0 F6000 X24.062 Y85.153
G1 F1500 E15.15909
G1 F529.8 X24.062 Y83.688 E15.20324
G1 F532.2 X24.062 Y82.223 E15.24719
G1 F1500 E11.74719
G0 F6000 X27.902 Y82.96
G1 F1500 E15.24719
G1 F431.7 X28.854 Y82.008 E15.29698
G1 X27.902 Y82.008 E15.33219
G1 X27.902 Y82.96 E15.3674
G1 F1500 E11.8674
G0 F6000 X27.484 Y88
G1 F1500 E15.3674
G1 F520.6 X27.72 Y87.575 E15.38231
G1 F600 X28.333 Y86.961 E15.40539
G1 X27.955 Y86.583 E15.41962
G1 F610.7 X27.795 Y86.26 E15.42904
G1 F625 X27.794 Y85.509 E15.44822
G1 F628.3 X27.793 Y84.758 E15.46731
G1 F633.2 X27.791 Y84.007 E15.48624
G1 F617 X27.955 Y83.582 E15.49803
G1 F600 X29.476 Y82.062 E15.55525
G1 F612.2 X29.799 Y81.903 E15.56463
G1 F626.6 X30.926 Y81.901 E15.59335
G1 F631.6 X32.053 Y81.898 E15.62183
G1 F617 X32.477 Y82.062 E15.6336
G1 F600 X32.855 Y82.44 E15.64782
G1 X33.469 Y81.826 E15.67093
G1 F515 X33.779 Y81.595 E15.68291
G1 X33.346 Y81.529 E15.69649
G1 F600 X32.697 Y81.529 E15.71376
G1 F609.1 X32.374 Y81.524 E15.72222
G1 F625 X32.051 Y81.518 E15.73048
G1 F633.2 X29.901 Y81.518 E15.78468
G1 F625 X29.578 Y81.523 E15.79293
G1 F609.1 X29.255 Y81.529 E15.8014
G1 F600 X27.423 Y81.529 E15.85014
G1 X27.423 Y83.362 E15.89892
G1 F609.1 X27.418 Y83.685 E15.90738
G1 F626.6 X27.413 Y84.008 E15.91561
G1 F633.2 X27.413 Y84.769 E15.9348
G1 F628.3 X27.413 Y85.531 E15.95416
G1 F625 X27.413 Y86.293 E15.97363
G1 F610.7 X27.424 Y86.802 E15.98694
G1 F600 X27.423 Y87.453 E16.00426
G1 F558.1 X27.453 Y87.726 E16.01211
G1 F488.8 X27.484 Y88 E16.02112
G0 F6000 X27.845 Y86.961
G1 F678 X27.779 Y86.999 E16.02291
G1 X27.757 Y86.961 E16.02395
G1 X27.822 Y86.923 E16.02572
G1 F1500 E12.52572
G0 F6000 X32.899 Y81.906
G1 F1500 E16.02572
G1 F674.2 X32.833 Y81.944 E16.02752
G1 X32.811 Y81.906 E16.02856
G1 X32.876 Y81.868 E16.03035
G1 F1500 E12.53035
G0 F6000 X40.72 Y87.156
G1 F1500 E16.03035
G1 F600 X40.72 Y82.328 E16.15881
G1 X35.953 Y82.329 E16.28565
G1 X40.633 Y87.009 E16.46176
G1 X40.72 Y87.156 E16.4663
G1 F1500 E12.9663
G0 F6000 X40.72 Y94.824
G1 F1500 E16.4663
G1 F600 X40.72 Y88.844 E16.62542
G1 X40.633 Y88.991 E16.62996
G1 X38.028 Y91.596 E16.72799
G1 X37.67 Y91.776 E16.73865
G1 X37.492 Y92.131 E16.74922
G1 X34.885 Y94.74 E16.84736
G1 X34.741 Y94.823 E16.85178
G1 X40.72 Y94.824 E17.01087
G1 F1500 E13.51087
G0 F6000 X33.047 Y94.823
G1 F1500 E17.01087
G1 F600 X32.903 Y94.74 E17.01529
G1 X28.224 Y90.06 E17.19138
G1 X28.224 Y94.823 E17.31811
G1 X33.047 Y94.823 E17.44644
G1 F1500 E13.94644
G0 F6000 X41.12 Y95.224
G1 F1500 E17.44644
G1 F600 X41.12 Y89.027 E17.61133
G1 F589.7 X41.113 Y88.756 E17.61867
G1 F567.4 X41.105 Y88.485 E17.6263
G1 F546.7 X41.097 Y88.214 E17.63422
G1 F536.9 X41.097 Y87.785 E17.64698
G1 F546.7 X41.104 Y87.514 E17.65489
G1 F567.4 X41.112 Y87.243 E17.66252
G1 F589.7 X41.12 Y86.972 E17.66986
G1 F600 X41.12 Y81.928 E17.80407
G1 X34.988 Y81.929 E17.96723
G1 X40.35 Y87.292 E18.16902
G1 F592.6 X40.501 Y87.531 E18.17664
