;FLAVOR:Marlin
;TIME:2319
;Filament used: 0.499891m
;Layer height: 0.16
;MINX:69.37
;MINY:90.311
;MINZ:0.16
;MAXX:134.015
;MAXY:128.648
;MAXZ:10.56
;Generated with Cura_SteamEngine main
M82 ;absolute extrusion mode
; Ender 3 Custom Start G-code
G92 E0 ; Reset Extruder
G28 ; Home all axes
M104 S120 ; Start heating up the nozzle most of the way
M190 S68.0 ; Start heating the bed, wait until target temperature reached
M109 S248.0 ; Finish heating the nozzle
G1 Z2.0 F3000 ; Move Z Axis up little to prevent scratching of Heat Bed
G1 X0.1 Y20 Z0.3 F5000.0 ; Move to start position
G1 X0.1 Y200.0 Z0.3 F1500.0 E15 ; Draw the first line
G1 X0.4 Y200.0 Z0.3 F5000.0 ; Move to side a little
G1 X0.4 Y20 Z0.3 F1500.0 E30 ; Draw the second line
G92 E0 ; Reset Extruder
G1 Z2.0 F3000 ; Move Z Axis up little to prevent scratching of Heat Bed
G1 X5 Y20 Z0.3 F5000.0 ; Move over to prevent blob squish
G92 E0
G92 E0
G1 F1500 E-3.5
;LAYER_COUNT:66
;LAYER:0
M107
G0 F6000 X73.932 Y93.032 Z0.16
G0 X70.324 Y99.447
;TYPE:SKIRT
G1 F1500 E0
G1 F600 X70.523 Y98.531 E0.02494
G1 X70.799 Y97.634 E0.04991
G1 X71.151 Y96.765 E0.07486
G1 X71.575 Y95.929 E0.0998
G1 X72.07 Y95.132 E0.12477
G1 X72.63 Y94.379 E0.14974
G1 X73.252 Y93.678 E0.17467
G1 X73.932 Y93.032 E0.19963
G1 X74.664 Y92.446 E0.22458
G1 X75.444 Y91.925 E0.24954
G1 X76.265 Y91.472 E0.27449
G1 X77.122 Y91.09 E0.29945
G1 X78.008 Y90.783 E0.3244
G1 X78.917 Y90.553 E0.34935
G1 X79.843 Y90.401 E0.37432
G1 X80.839 Y90.326 E0.4009
G1 X81.502 Y90.311 E0.41854
G1 X83.782 Y90.312 E0.47921
G1 X84.516 Y90.324 E0.49874
G1 X85.267 Y90.362 E0.51875
G1 X87.915 Y90.587 E0.58946
G1 X90.428 Y90.729 E0.65644
G1 X93.196 Y90.805 E0.73011
G1 X93.958 Y90.853 E0.75043
G1 X94.55 Y90.911 E0.76626
G1 X97.108 Y91.128 E0.83457
G1 X99.632 Y91.271 E0.90183
G1 X103.495 Y91.353 E1.00464
G1 X111.314 Y91.355 E1.21269
G1 X112.013 Y91.366 E1.23129
G1 X112.949 Y91.421 E1.25624
G1 X113.878 Y91.555 E1.28122
G1 X114.957 Y91.816 E1.31075
G1 X115.963 Y92.115 E1.33868
G1 X117.127 Y92.481 E1.37115
G1 X119.534 Y93.164 E1.43772
G1 X121.957 Y93.777 E1.50422
G1 X123.955 Y94.231 E1.55874
G1 X125.072 Y94.472 E1.58915
G1 X125.979 Y94.709 E1.61409
G1 X126.863 Y95.022 E1.63904
G1 X127.81 Y95.451 E1.6667
G1 X128.721 Y95.961 E1.69448
G1 X129.497 Y96.488 E1.71944
G1 X130.226 Y97.078 E1.7444
G1 X130.902 Y97.729 E1.76937
G1 X131.519 Y98.434 E1.7943
G1 X132.075 Y99.19 E1.81927
G1 X132.564 Y99.99 E1.84422
G1 X133.07 Y101.015 E1.87463
G1 X133.44 Y101.981 E1.90216
G1 X133.701 Y102.881 E1.92709
G1 X133.885 Y103.801 E1.95205
G1 X133.989 Y104.733 E1.97701
G1 X134.015 Y105.588 E1.99977
G1 X134.012 Y105.921 E2.00863
G1 X133.924 Y107.213 E2.04309
G1 X133.867 Y107.66 E2.05508
G1 X133.61 Y109.463 E2.10353
G1 X133.323 Y111.98 E2.17094
G1 X133.107 Y114.496 E2.23813
G1 X133.06 Y115.328 E2.26031
G1 X132.987 Y116.359 E2.28781
G1 X132.88 Y117.291 E2.31277
G1 X132.695 Y118.21 E2.33771
G1 X132.433 Y119.111 E2.36268
G1 X132.094 Y119.985 E2.38762
G1 X131.683 Y120.828 E2.41258
G1 X131.201 Y121.632 E2.43752
G1 X130.652 Y122.393 E2.46249
G1 X130.04 Y123.104 E2.48745
G1 X129.37 Y123.76 E2.5124
G1 X128.647 Y124.357 E2.53735
G1 X127.875 Y124.89 E2.56231
G1 X127.061 Y125.356 E2.58727
G1 X126.21 Y125.75 E2.61222
G1 X125.329 Y126.071 E2.63717
G1 X124.423 Y126.315 E2.66214
G1 X123.765 Y126.442 E2.67997
G1 X121.605 Y126.79 E2.73818
G1 X119.124 Y127.255 E2.80535
G1 X116.651 Y127.791 E2.87268
G1 X115.846 Y127.992 E2.89475
G1 X115.662 Y128.03 E2.89975
G1 X114.382 Y128.336 E2.93477
G1 X113.462 Y128.515 E2.95971
G1 X112.529 Y128.615 E2.98468
G1 X112.028 Y128.636 E2.99802
G1 X111.287 Y128.648 E3.01774
G1 X97.939 Y128.645 E3.3729
G1 X97.238 Y128.634 E3.39156
G1 X96.302 Y128.579 E3.41651
G1 X94.948 Y128.356 E3.45302
G1 X92.452 Y127.783 E3.52116
G1 X89.962 Y127.282 E3.58874
G1 X87.484 Y126.857 E3.65564
G1 X85.003 Y126.502 E3.72233
G1 X82.512 Y126.219 E3.78903
G1 X79.458 Y125.962 E3.87058
G1 X78.528 Y125.844 E3.89553
G1 X77.611 Y125.647 E3.92048
G1 X76.714 Y125.373 E3.94544
G1 X75.844 Y125.023 E3.97039
G1 X75.007 Y124.6 E3.99534
G1 X74.209 Y124.107 E4.0203
G1 X73.455 Y123.549 E4.04526
G1 X72.752 Y122.928 E4.07022
G1 X72.105 Y122.249 E4.09518
G1 X71.517 Y121.518 E4.12014
G1 X70.995 Y120.74 E4.14507
G1 X70.54 Y119.919 E4.17004
G1 X70.157 Y119.063 E4.19499
G1 X69.848 Y118.178 E4.21994
G1 X69.615 Y117.269 E4.24491
G1 X69.461 Y116.344 E4.26986
G1 X69.384 Y115.341 E4.29662
G1 X69.37 Y114.711 E4.31339
G1 X69.37 Y106.123 E4.5419
G1 X69.381 Y105.435 E4.56021
G1 X69.436 Y104.499 E4.58516
G1 X69.566 Y103.598 E4.60938
G1 X69.758 Y102.571 E4.63718
G1 X69.939 Y101.672 E4.66158
G1 X70.324 Y99.447 E4.72166
G1 F1500 E1.22166
G0 F6000 X70.17 Y106.136
G1 F1500 E4.72166
G1 F600 X70.181 Y105.448 E4.73997
G1 X70.236 Y104.546 E4.76402
G1 X70.352 Y103.745 E4.78555
G1 X70.542 Y102.729 E4.81305
G1 X70.725 Y101.824 E4.83762
G1 X71.112 Y99.583 E4.89813
G1 X71.305 Y98.701 E4.92216
G1 X71.576 Y97.84 E4.94618
G1 X71.921 Y97.005 E4.97021
G1 X72.339 Y96.205 E4.99423
G1 X72.826 Y95.444 E5.01827
G1 X73.379 Y94.73 E5.0423
G1 X73.992 Y94.067 E5.06633
G1 X74.662 Y93.461 E5.09037
G1 X75.383 Y92.917 E5.1144
G1 X76.149 Y92.439 E5.13842
G1 X76.954 Y92.03 E5.16245
G1 X77.792 Y91.694 E5.18647
G1 X78.657 Y91.434 E5.21051
G1 X79.541 Y91.251 E5.23453
G1 X80.862 Y91.125 E5.26983
G1 X81.502 Y91.111 E5.28687
G1 X83.769 Y91.112 E5.34719
G1 X84.503 Y91.124 E5.36672
G1 X85.2 Y91.16 E5.38529
G1 X87.84 Y91.384 E5.45579
G1 X90.396 Y91.528 E5.52391
G1 X93.174 Y91.605 E5.59785
G1 X93.881 Y91.649 E5.6167
G1 X94.485 Y91.708 E5.63285
G1 X97.067 Y91.928 E5.7018
G1 X99.57 Y92.069 E5.76851
G1 X103.525 Y92.153 E5.87376
G1 X111.301 Y92.155 E6.08067
G1 X112 Y92.166 E6.09927
G1 X112.902 Y92.22 E6.12331
G1 X113.795 Y92.354 E6.14734
G1 X114.73 Y92.583 E6.17296
G1 X115.723 Y92.878 E6.20052
G1 X116.879 Y93.242 E6.23277
G1 X119.33 Y93.937 E6.30055
G1 X121.827 Y94.569 E6.36909
G1 X123.735 Y95.002 E6.42115
G1 X124.903 Y95.254 E6.45294
G1 X125.777 Y95.484 E6.47699
G1 X126.626 Y95.79 E6.501
G1 X127.454 Y96.168 E6.52522
G1 X128.329 Y96.66 E6.55193
G1 X129.074 Y97.17 E6.57595
G1 X129.771 Y97.744 E6.59998
G1 X130.414 Y98.378 E6.62401
G1 X130.999 Y99.066 E6.64804
G1 X131.521 Y99.804 E6.67209
G1 X131.975 Y100.584 E6.6961
G1 X132.34 Y101.346 E6.71858
G1 X132.693 Y102.267 E6.74483
G1 X132.94 Y103.136 E6.76887
G1 X133.109 Y104.023 E6.79289
G1 X133.199 Y104.922 E6.81693
G1 X133.215 Y105.581 E6.83447
G1 X133.212 Y105.914 E6.84333
G1 X133.13 Y107.112 E6.87528
G1 X133.073 Y107.559 E6.88727
G1 X132.816 Y109.362 E6.93573
G1 X132.527 Y111.89 E7.00344
G1 X132.311 Y114.418 E7.07095
G1 X132.262 Y115.271 E7.09368
G1 X132.189 Y116.302 E7.12118
G1 X132.085 Y117.2 E7.14524
G1 X131.902 Y118.084 E7.16926
G1 X131.642 Y118.949 E7.19329
G1 X131.307 Y119.787 E7.2173
G1 X130.898 Y120.593 E7.24135
G1 X130.42 Y121.359 E7.26538
G1 X129.876 Y122.08 E7.28941
G1 X129.271 Y122.75 E7.31343
G1 X128.608 Y123.364 E7.33747
G1 X127.894 Y123.916 E7.36149
G1 X127.134 Y124.404 E7.38552
G1 X126.334 Y124.822 E7.40954
G1 X125.499 Y125.168 E7.43359
G1 X124.638 Y125.439 E7.4576
G1 X123.637 Y125.652 E7.48484
G1 X121.456 Y126.004 E7.54362
G1 X118.985 Y126.467 E7.61051
G1 X116.483 Y127.009 E7.67863
G1 X115.653 Y127.216 E7.70139
G1 X115.468 Y127.254 E7.70642
G1 X114.196 Y127.558 E7.74121
G1 X113.309 Y127.729 E7.76525
G1 X112.013 Y127.836 E7.79985
G1 X111.287 Y127.848 E7.81917
G1 X97.952 Y127.845 E8.17399
G1 X97.251 Y127.834 E8.19265
G1 X96.349 Y127.78 E8.21669
G1 X95.127 Y127.576 E8.24965
G1 X92.611 Y126.998 E8.31834
G1 X90.14 Y126.501 E8.38541
G1 X87.595 Y126.064 E8.45412
G1 X85.134 Y125.713 E8.52026
G1 X82.57 Y125.421 E8.58893
G1 X79.525 Y125.165 E8.67024
G1 X78.629 Y125.05 E8.69427
G1 X77.747 Y124.856 E8.7183
G1 X76.886 Y124.584 E8.74233
G1 X76.052 Y124.238 E8.76635
G1 X75.252 Y123.819 E8.79038
G1 X74.492 Y123.331 E8.81441
G1 X73.778 Y122.777 E8.83846
G1 X73.116 Y122.163 E8.86248
G1 X72.511 Y121.493 E8.8865
G1 X71.968 Y120.771 E8.91054
G1 X71.491 Y120.005 E8.93455
G1 X71.083 Y119.199 E8.95859
G1 X70.748 Y118.36 E8.98263
G1 X70.489 Y117.495 E9.00665
G1 X70.307 Y116.61 E9.03069
G1 X70.184 Y115.316 E9.06528
G1 X70.17 Y114.711 E9.08138
G1 X70.17 Y106.136 E9.30955
G0 F6000 X69.77 Y106.13
G1 F600 X69.781 Y105.442 E9.32786
G1 X69.836 Y104.523 E9.35235
G1 X69.959 Y103.671 E9.37526
G1 X70.15 Y102.65 E9.4029
G1 X70.332 Y101.748 E9.42738
G1 X70.718 Y99.515 E9.48768
G1 X70.914 Y98.616 E9.51216
G1 X71.187 Y97.737 E9.53665
G1 X71.536 Y96.885 E9.56115
G1 X71.957 Y96.066 E9.58565
G1 X72.448 Y95.287 E9.61015
G1 X73.004 Y94.554 E9.63463
G1 X73.622 Y93.871 E9.65914
G1 X74.297 Y93.245 E9.68364
G1 X75.024 Y92.68 E9.70814
G1 X75.797 Y92.18 E9.73263
G1 X76.61 Y91.748 E9.75713
G1 X77.458 Y91.389 E9.78163
G1 X78.334 Y91.105 E9.80613
G1 X79.231 Y90.899 E9.83062
G1 X80.143 Y90.77 E9.85513
G1 X80.85 Y90.726 E9.87398
G1 X81.502 Y90.711 E9.89133
G1 X83.775 Y90.712 E9.95181
G1 X84.509 Y90.724 E9.97134
G1 X85.233 Y90.761 E9.99063
G1 X87.893 Y90.987 E10.06167
G1 X90.396 Y91.128 E10.12837
G1 X93.185 Y91.205 E10.20261
G1 X93.919 Y91.251 E10.22218
G1 X94.469 Y91.305 E10.23688
G1 X97.122 Y91.531 E10.30773
G1 X99.574 Y91.669 E10.37308
G1 X103.533 Y91.753 E10.47844
G1 X111.308 Y91.755 E10.68532
G1 X112.007 Y91.766 E10.70392
G1 X112.926 Y91.821 E10.72842
G1 X113.837 Y91.955 E10.75292
G1 X114.844 Y92.199 E10.78049
G1 X115.663 Y92.441 E10.80321
G1 X117.003 Y92.861 E10.84058
G1 X119.432 Y93.55 E10.90776
G1 X121.887 Y94.171 E10.97514
G1 X123.879 Y94.624 E11.0295
G1 X124.988 Y94.863 E11.05968
G1 X125.878 Y95.096 E11.08416
G1 X126.745 Y95.406 E11.10866
G1 X127.632 Y95.81 E11.13459
G1 X128.525 Y96.311 E11.16184
G1 X129.286 Y96.829 E11.18633
G1 X129.999 Y97.412 E11.21084
G1 X130.659 Y98.054 E11.23534
G1 X131.26 Y98.751 E11.25983
G1 X131.799 Y99.497 E11.28432
G1 X132.271 Y100.288 E11.30883
G1 X132.704 Y101.18 E11.33521
G1 X133.067 Y102.124 E11.36212
G1 X133.321 Y103.009 E11.38662
G1 X133.497 Y103.913 E11.41112
G1 X133.594 Y104.828 E11.43561
G1 X133.615 Y105.584 E11.45573
G1 X133.612 Y105.917 E11.46459
G1 X133.527 Y107.163 E11.49782
G1 X133.47 Y107.61 E11.50981
G1 X133.216 Y109.393 E11.55773
G1 X132.921 Y111.972 E11.6268
G1 X132.71 Y114.441 E11.69274
G1 X132.661 Y115.3 E11.71563
G1 X132.588 Y116.331 E11.74313
G1 X132.483 Y117.245 E11.76761
G1 X132.299 Y118.147 E11.79211
G1 X132.037 Y119.03 E11.81662
G1 X131.7 Y119.887 E11.84112
G1 X131.29 Y120.711 E11.86561
G1 X130.81 Y121.497 E11.89011
G1 X130.264 Y122.238 E11.9146
G1 X129.655 Y122.929 E11.93911
G1 X128.989 Y123.564 E11.9636
G1 X128.27 Y124.139 E11.98809
G1 X127.504 Y124.65 E12.01259
G1 X126.696 Y125.092 E12.0371
G1 X125.854 Y125.462 E12.06157
G1 X124.982 Y125.758 E12.08607
G1 X123.701 Y126.047 E12.12102
G1 X121.553 Y126.393 E12.17891
G1 X119.03 Y126.866 E12.24721
G1 X116.567 Y127.4 E12.31427
G1 X115.749 Y127.604 E12.3367
G1 X115.568 Y127.641 E12.34162
G1 X114.289 Y127.947 E12.37661
G1 X113.385 Y128.122 E12.40111
G1 X112.021 Y128.236 E12.43753
G1 X111.287 Y128.248 E12.45706
G1 X97.946 Y128.245 E12.81204
G1 X97.245 Y128.234 E12.83069
G1 X96.326 Y128.179 E12.85519
G1 X95.037 Y127.966 E12.88995
G1 X92.507 Y127.385 E12.95902
G1 X90.071 Y126.895 E13.02514
G1 X87.542 Y126.461 E13.09342
G1 X85.068 Y126.107 E13.15991
G1 X82.555 Y125.821 E13.22721
G1 X79.492 Y125.564 E13.309
G1 X78.578 Y125.447 E13.33352
G1 X77.679 Y125.251 E13.358
G1 X76.8 Y124.978 E13.38249
G1 X75.947 Y124.63 E13.407
G1 X75.128 Y124.209 E13.43151
G1 X74.349 Y123.719 E13.45599
G1 X73.616 Y123.163 E13.48047
G1 X72.933 Y122.545 E13.50498
G1 X72.306 Y121.871 E13.52948
G1 X71.741 Y121.144 E13.55397
G1 X71.24 Y120.371 E13.57849
G1 X70.809 Y119.558 E13.60297
G1 X70.449 Y118.711 E13.62746
G1 X70.165 Y117.835 E13.65196
G1 X69.957 Y116.938 E13.67646
G1 X69.829 Y116.026 E13.70097
G1 X69.784 Y115.329 E13.71955
G1 X69.77 Y114.711 E13.736
G1 X69.77 Y106.13 E13.96432
G1 F1500 E10.46432
;MESH:void_switch-v50-stem.stl
G0 F6000 X83.697 Y107.071
;TYPE:WALL-INNER
G1 F1500 E13.96432
G1 F600 X83.697 Y106.061 E13.9912
G1 X83.191 Y106.211 E14.00524
G1 X82.211 Y106.211 E14.03132
G1 X81.77 Y106.11 E14.04335
G1 X81.769 Y107.071 E14.06892
G1 X83.697 Y107.071 E14.12022
G0 F6000 X84.097 Y107.596
G1 F600 X84.097 Y105.883 E14.1658
G1 X84.026 Y105.761 E14.16956
G1 X83.867 Y105.709 E14.17401
G1 X83.686 Y105.58 E14.17993
G1 X83.504 Y105.709 E14.18586
G1 X83.171 Y105.806 E14.19509
G1 X82.223 Y105.811 E14.22031
G1 X81.842 Y105.724 E14.23071
G1 X81.705 Y105.635 E14.23506
G1 X81.44 Y105.762 E14.24288
G1 X81.37 Y105.883 E14.2466
G1 X81.367 Y107.599 E14.29226
G1 X81.75 Y107.471 E14.303
G1 X83.716 Y107.471 E14.35531
G1 X84.097 Y107.596 E14.36598
G0 F6000 X84.406 Y108.471
G1 F447.8 X84.451 Y108.126 E14.37839
G1 F539.3 X84.497 Y107.781 E14.38869
G1 F600 X84.497 Y105.775 E14.44207
G1 X84.283 Y105.407 E14.4534
G1 X84.044 Y105.35 E14.45993
G1 X83.888 Y105.239 E14.46503
G1 F562.1 X83.685 Y104.865 E14.47711
G1 X83.484 Y105.239 E14.48917
G1 F600 X83.327 Y105.35 E14.49429
G1 X83.127 Y105.408 E14.49983
G1 X82.234 Y105.411 E14.52359
G1 X82.006 Y105.359 E14.52981
G1 X81.85 Y105.258 E14.53476
G1 X81.705 Y104.963 E14.54351
G1 X81.559 Y105.258 E14.55226
G1 X81.362 Y105.376 E14.55837
G1 X81.183 Y105.407 E14.56321
G1 X80.97 Y105.775 E14.57452
G1 X80.967 Y107.781 E14.6279
G1 F539.3 X81.013 Y108.126 E14.6382
G1 F448.6 X81.06 Y108.471 E14.65059
G1 X81.224 Y108.231 E14.66094
G1 F539.3 X81.388 Y107.991 E14.66954
G1 F600 X81.75 Y107.871 E14.67969
G1 X83.716 Y107.871 E14.732
G1 X84.079 Y107.99 E14.74217
G1 F539.3 X84.242 Y108.23 E14.75075
G1 F447.8 X84.406 Y108.471 E14.76115
G1 F1500 E11.26115
G0 F6000 X84.897 Y114.811
;TYPE:WALL-OUTER
G1 F1500 E14.76115
G1 F600 X84.897 Y105.667 E15.00445
G1 X84.515 Y105.011 E15.02465
G1 X84.221 Y104.991 E15.03249
G1 X84.11 Y104.829 E15.03772
G1 X84.109 Y101.511 E15.126
G1 X83.261 Y101.511 E15.14857
G1 X83.261 Y104.829 E15.23685
G1 X83.202 Y104.954 E15.24053
G1 X83.083 Y105.01 E15.24403
G1 X82.191 Y105.011 E15.26776
G1 F505.3 X81.978 Y104.835 E15.27649
G1 F437.2 X81.978 Y103.209 E15.33587
G1 F438.8 X81.978 Y101.583 E15.39504
G1 X81.431 Y101.584 E15.41494
G1 X81.431 Y103.21 E15.47411
G1 F437.2 X81.431 Y104.836 E15.53349
G1 F505.3 X81.226 Y105 E15.54178
G1 F600 X80.95 Y105.011 E15.54913
G1 X80.57 Y105.667 E15.5693
G1 X80.57 Y114.811 E15.81261
G1 X81.55 Y114.811 E15.83869
G1 X81.55 Y108.471 E16.00738
G1 X81.629 Y108.311 E16.01213
G1 X81.75 Y108.271 E16.01552
G1 X83.716 Y108.271 E16.06783
G1 X83.837 Y108.31 E16.07121
G1 X83.916 Y108.471 E16.07599
G1 X83.917 Y114.811 E16.24468
G1 X84.897 Y114.811 E16.27076
G0 F6000 X84.407 Y114.321
;TYPE:WALL-INNER
G1 F413.8 X84.407 Y111.396 E16.38361
G1 F413.1 X84.406 Y108.471 E16.49665
G1 F1500 E12.99665
G0 F6000 X81.06 Y108.471
G1 F1500 E16.49665
G1 F413.8 X81.06 Y114.321 E16.72236
G1 F1500 E13.22236
G0 F6000 X83.685 Y104.865
G1 F1500 E16.72236
G1 F529.8 X83.685 Y103.4 E16.7665
G1 F532.2 X83.685 Y101.935 E16.81046
G1 F1500 E13.31046
G0 F6000 X83.264 Y106.638
;TYPE:SKIN
G1 F1500 E16.81046
G1 F442 X82.2 Y106.641 E16.84889
G1 F1500 E13.34889
;MESH:void_switch-v50-stem.stl(1)
G0 F6000 X92.289 Y107.551
;TYPE:WALL-INNER
G1 F1500 E16.84889
G1 F600 X92.289 Y106.541 E16.87576
G1 X91.783 Y106.691 E16.8898
G1 X90.804 Y106.691 E16.91585
G1 X90.362 Y106.59 E16.92792
G1 X90.362 Y107.551 E16.95349
G1 X92.289 Y107.551 E17.00476
G0 F6000 X92.689 Y108.076
G1 F600 X92.689 Y106.363 E17.05034
G1 X92.618 Y106.241 E17.0541
G1 X92.459 Y106.189 E17.05855
G1 X92.278 Y106.06 E17.06446
G1 X92.096 Y106.189 E17.0704
G1 X91.763 Y106.286 E17.07963
G1 X90.815 Y106.291 E17.10485
G1 X90.434 Y106.204 E17.11525
G1 X90.297 Y106.115 E17.1196
G1 X90.033 Y106.242 E17.12739
G1 X89.963 Y106.362 E17.13109
G1 X89.96 Y108.079 E17.17678
G1 X90.343 Y107.951 E17.18752
G1 X92.308 Y107.951 E17.23981
G1 X92.689 Y108.076 E17.25047
G0 F6000 X92.998 Y108.951
G1 F447.8 X93.043 Y108.606 E17.26288
G1 F539.3 X93.089 Y108.261 E17.27318
G1 F600 X93.089 Y106.255 E17.32656
G1 X92.875 Y105.887 E17.33789
G1 X92.636 Y105.83 E17.34442
G1 X92.48 Y105.719 E17.34952
G1 F562.1 X92.277 Y105.345 E17.3616
G1 X92.076 Y105.719 E17.37367
G1 F600 X91.919 Y105.83 E17.37878
G1 X91.719 Y105.888 E17.38432
