;FLAVOR:Marlin
;TIME:2346
;Filament used: 0.503909m
;Layer height: 0.16
;MINX:70.951
;MINY:91.503
;MINZ:0.16
;MAXX:138.276
;MAXY:128.498
;MAXZ:10.56
;Generated with Cura_SteamEngine main
M82 ;absolute extrusion mode
; Ender 3 Custom Start G-code
G92 E0 ; Reset Extruder
G28 ; Home all axes
M104 S120 ; Start heating up the nozzle most of the way
M190 S68.0 ; Start heating the bed, wait until target temperature reached
M109 S248.0 ; Finish heating the nozzle
G1 Z2.0 F3000 ; Move Z Axis up little to prevent scratching of Heat Bed
G1 X0.1 Y20 Z0.3 F5000.0 ; Move to start position
G1 X0.1 Y200.0 Z0.3 F1500.0 E15 ; Draw the first line
G1 X0.4 Y200.0 Z0.3 F5000.0 ; Move to side a little
G1 X0.4 Y20 Z0.3 F1500.0 E30 ; Draw the second line
G92 E0 ; Reset Extruder
G1 Z2.0 F3000 ; Move Z Axis up little to prevent scratching of Heat Bed
G1 X5 Y20 Z0.3 F5000.0 ; Move over to prevent blob squish
G92 E0
G92 E0
G1 F1500 E-3.5
;LAYER_COUNT:66
;LAYER:0
M107
G0 F6000 X75.604 Y94.632 Z0.16
G0 X71.73 Y102.073
;TYPE:SKIRT
G1 F1500 E0
G1 F600 X71.926 Y101.008 E0.02881
G1 X72.135 Y100.094 E0.05376
G1 X72.421 Y99.201 E0.07871
G1 X72.782 Y98.335 E0.10368
G1 X73.216 Y97.503 E0.12864
G1 X73.719 Y96.712 E0.15359
G1 X74.287 Y95.966 E0.17853
G1 X74.917 Y95.271 E0.20349
G1 X75.604 Y94.632 E0.22846
G1 X76.343 Y94.054 E0.25342
G1 X77.128 Y93.542 E0.27836
G1 X77.954 Y93.098 E0.30331
G1 X78.815 Y92.726 E0.32827
G1 X79.704 Y92.428 E0.35322
G1 X80.616 Y92.208 E0.37818
G1 X81.543 Y92.066 E0.40313
G1 X82.42 Y92.005 E0.42652
G1 X83.083 Y91.99 E0.44417
G1 X85.333 Y91.991 E0.50404
G1 X86.287 Y92.004 E0.52943
G1 X88.605 Y92.07 E0.59113
G1 X91.182 Y92.072 E0.6597
G1 X92.542 Y92.042 E0.69589
G1 X94.548 Y91.983 E0.74929
G1 X97.183 Y91.87 E0.81947
G1 X99.728 Y91.687 E0.88736
G1 X101.044 Y91.564 E0.92253
G1 X101.89 Y91.517 E0.94508
G1 X102.739 Y91.503 E0.96767
G1 X115.707 Y91.505 E1.31272
G1 X116.41 Y91.516 E1.33143
G1 X117.346 Y91.571 E1.35638
G1 X118.275 Y91.705 E1.38135
G1 X119.31 Y91.953 E1.40967
G1 X121.925 Y92.713 E1.48213
G1 X124.364 Y93.349 E1.5492
G1 X126.848 Y93.92 E1.61702
G1 X129.23 Y94.4 E1.68167
G1 X130.141 Y94.624 E1.70663
G1 X131.029 Y94.925 E1.73158
G1 X131.888 Y95.3 E1.75652
G1 X132.713 Y95.748 E1.7815
G1 X133.405 Y96.199 E1.80348
G1 X133.623 Y96.353 E1.81058
G1 X134.365 Y96.926 E1.83553
G1 X135.056 Y97.56 E1.86048
G1 X135.69 Y98.251 E1.88543
G1 X136.263 Y98.994 E1.9104
G1 X136.771 Y99.782 E1.93534
G1 X137.209 Y100.611 E1.96029
G1 X137.576 Y101.475 E1.98527
G1 X137.867 Y102.366 E2.01021
G1 X138.082 Y103.279 E2.03517
G1 X138.218 Y104.207 E2.06012
G1 X138.276 Y105.428 E2.09265
G1 X138.272 Y105.914 E2.10558
G1 X138.224 Y106.85 E2.13052
G1 X138.167 Y107.339 E2.14362
G1 X137.867 Y109.498 E2.20162
G1 X137.58 Y112.023 E2.26923
G1 X137.365 Y114.558 E2.33693
G1 X137.311 Y115.496 E2.36193
G1 X137.246 Y116.405 E2.38618
G1 X137.139 Y117.336 E2.41111
G1 X136.954 Y118.256 E2.43608
G1 X136.69 Y119.156 E2.46104
G1 X136.351 Y120.03 E2.48598
G1 X135.939 Y120.873 E2.51095
G1 X135.456 Y121.677 E2.5359
G1 X134.907 Y122.437 E2.56085
G1 X134.295 Y123.148 E2.58581
G1 X133.625 Y123.803 E2.61074
G1 X132.901 Y124.4 E2.63571
G1 X132.129 Y124.932 E2.66066
G1 X131.314 Y125.397 E2.68562
G1 X130.463 Y125.791 E2.71058
G1 X129.581 Y126.111 E2.73554
G1 X128.676 Y126.355 E2.76048
G1 X127.845 Y126.507 E2.78296
G1 X126.905 Y126.643 E2.80823
G1 X124.347 Y127.046 E2.87714
G1 X121.87 Y127.509 E2.94419
G1 X118.583 Y128.231 E3.03373
G1 X117.659 Y128.393 E3.05869
G1 X116.442 Y128.485 E3.09117
G1 X115.673 Y128.498 E3.11163
G1 X102.659 Y128.497 E3.45791
G1 X101.946 Y128.486 E3.47688
G1 X100.72 Y128.398 E3.50959
G1 X99.965 Y128.301 E3.52984
G1 X97.346 Y128.004 E3.59998
G1 X94.862 Y127.793 E3.66631
G1 X92.363 Y127.65 E3.73291
G1 X89.815 Y127.578 E3.80074
G1 X87.258 Y127.578 E3.86877
G1 X86.532 Y127.589 E3.88809
G1 X83.929 Y127.584 E3.95735
G1 X82.711 Y127.59 E3.98976
G1 X81.818 Y127.58 E4.01353
G1 X80.882 Y127.528 E4.03847
G1 X79.953 Y127.396 E4.06344
G1 X79.039 Y127.186 E4.08839
G1 X78.146 Y126.899 E4.11335
G1 X77.281 Y126.536 E4.13831
G1 X76.45 Y126.102 E4.16325
G1 X75.659 Y125.598 E4.18821
G1 X74.914 Y125.028 E4.21317
G1 X74.22 Y124.397 E4.23813
G1 X73.583 Y123.71 E4.26306
G1 X73.006 Y122.97 E4.28802
G1 X72.494 Y122.184 E4.31298
G1 X72.051 Y121.357 E4.33795
G1 X71.68 Y120.496 E4.36289
G1 X71.384 Y119.606 E4.38785
G1 X71.165 Y118.694 E4.41281
G1 X71.024 Y117.767 E4.43775
G1 X70.965 Y116.905 E4.46074
G1 X70.951 Y116.277 E4.47746
G1 X70.951 Y107.526 E4.71031
G1 X70.962 Y106.82 E4.72909
G1 X71.017 Y105.883 E4.75407
G1 X71.177 Y104.824 E4.78257
G1 X71.73 Y102.073 E4.85723
G1 F1500 E1.35723
G0 F6000 X71.751 Y107.538
G1 F1500 E4.85723
G1 F600 X71.762 Y106.832 E4.87602
G1 X71.816 Y105.931 E4.90003
G1 X71.961 Y104.981 E4.9256
G1 X72.523 Y102.183 E5.00154
G1 X72.713 Y101.153 E5.02941
G1 X72.915 Y100.273 E5.05343
G1 X73.195 Y99.414 E5.07747
G1 X73.55 Y98.584 E5.10149
G1 X73.976 Y97.788 E5.12552
G1 X74.472 Y97.032 E5.14957
G1 X75.032 Y96.324 E5.17359
G1 X75.653 Y95.668 E5.19763
G1 X76.329 Y95.07 E5.22164
G1 X77.056 Y94.533 E5.24569
G1 X77.827 Y94.063 E5.26972
G1 X78.637 Y93.664 E5.29374
G1 X79.479 Y93.337 E5.31778
G1 X80.346 Y93.086 E5.3418
G1 X81.233 Y92.913 E5.36584
G1 X82.443 Y92.804 E5.39817
G1 X83.083 Y92.79 E5.4152
G1 X85.322 Y92.791 E5.47478
G1 X86.431 Y92.807 E5.50429
G1 X88.617 Y92.87 E5.56248
G1 X91.156 Y92.872 E5.63004
G1 X92.585 Y92.84 E5.66807
G1 X94.603 Y92.781 E5.72179
G1 X97.24 Y92.668 E5.79202
G1 X99.816 Y92.483 E5.86074
G1 X101.119 Y92.361 E5.89556
G1 X101.903 Y92.317 E5.91645
G1 X102.752 Y92.303 E5.93904
G1 X115.695 Y92.305 E6.28343
G1 X116.398 Y92.316 E6.30214
G1 X117.299 Y92.37 E6.32616
G1 X118.192 Y92.504 E6.35018
G1 X119.086 Y92.721 E6.37466
G1 X121.709 Y93.484 E6.44735
G1 X124.185 Y94.129 E6.51543
G1 X126.661 Y94.698 E6.58303
G1 X129.072 Y95.184 E6.64847
G1 X129.949 Y95.401 E6.67251
G1 X130.802 Y95.695 E6.69652
G1 X131.627 Y96.064 E6.72056
G1 X132.416 Y96.503 E6.74459
G1 X132.943 Y96.852 E6.76141
G1 X133.161 Y97.006 E6.76851
G1 X133.875 Y97.559 E6.79254
G1 X134.537 Y98.173 E6.81656
G1 X135.142 Y98.844 E6.8406
G1 X135.686 Y99.565 E6.86464
G1 X136.163 Y100.332 E6.88867
G1 X136.571 Y101.137 E6.91268
G1 X136.906 Y101.976 E6.93672
G1 X137.166 Y102.841 E6.96075
G1 X137.348 Y103.726 E6.9848
G1 X137.451 Y104.623 E7.00882
G1 X137.476 Y105.421 E7.03006
G1 X137.472 Y105.907 E7.043
G1 X137.375 Y107.229 E7.07827
G1 X137.071 Y109.417 E7.13704
G1 X136.785 Y111.934 E7.20445
G1 X136.569 Y114.482 E7.27249
G1 X136.523 Y115.289 E7.294
G1 X136.448 Y116.348 E7.32224
G1 X136.344 Y117.245 E7.34627
G1 X136.161 Y118.129 E7.37029
G1 X135.9 Y118.994 E7.39433
G1 X135.564 Y119.832 E7.41836
G1 X135.155 Y120.637 E7.44238
G1 X134.676 Y121.403 E7.46642
G1 X134.132 Y122.123 E7.49043
G1 X133.526 Y122.793 E7.51447
G1 X132.863 Y123.406 E7.5385
G1 X132.148 Y123.959 E7.56255
G1 X131.388 Y124.446 E7.58656
G1 X130.587 Y124.863 E7.61059
G1 X129.753 Y125.209 E7.63462
G1 X128.891 Y125.479 E7.65865
G1 X127.73 Y125.715 E7.69018
G1 X126.834 Y125.844 E7.71426
G1 X124.179 Y126.262 E7.78578
G1 X121.714 Y126.723 E7.8525
G1 X118.412 Y127.449 E7.94246
G1 X117.522 Y127.604 E7.9665
G1 X116.426 Y127.685 E7.99574
G1 X115.673 Y127.698 E8.01578
G1 X102.672 Y127.697 E8.36171
G1 X101.959 Y127.686 E8.38069
G1 X100.822 Y127.605 E8.41102
G1 X100.023 Y127.503 E8.43245
G1 X97.432 Y127.209 E8.50183
G1 X94.905 Y126.994 E8.56931
G1 X92.396 Y126.85 E8.63618
G1 X89.837 Y126.778 E8.7043
G1 X87.246 Y126.778 E8.77324
G1 X86.34 Y126.79 E8.79735
G1 X83.927 Y126.784 E8.86156
G1 X82.707 Y126.79 E8.89402
G1 X81.828 Y126.78 E8.91741
G1 X80.927 Y126.729 E8.94142
G1 X80.033 Y126.597 E8.96547
G1 X79.155 Y126.388 E8.98948
G1 X78.298 Y126.101 E9.01353
G1 X77.471 Y125.74 E9.03754
G1 X76.678 Y125.307 E9.06158
G1 X75.927 Y124.806 E9.0856
G1 X75.223 Y124.24 E9.10964
G1 X74.572 Y123.614 E9.13367
G1 X73.979 Y122.933 E9.1577
G1 X73.449 Y122.202 E9.18172
G1 X72.985 Y121.427 E9.20576
G1 X72.591 Y120.614 E9.22979
G1 X72.271 Y119.77 E9.25381
G1 X72.027 Y118.9 E9.27785
G1 X71.861 Y118.012 E9.30189
G1 X71.764 Y116.882 E9.33207
G1 X71.751 Y116.277 E9.34817
G1 X71.751 Y107.538 E9.5807
G0 F6000 X71.351 Y107.532
G1 F600 X71.362 Y106.826 E9.59949
G1 X71.417 Y105.907 E9.62398
G1 X71.569 Y104.902 E9.65103
G1 X72.121 Y102.158 E9.7255
G1 X72.319 Y101.08 E9.75467
G1 X72.525 Y100.183 E9.77916
G1 X72.808 Y99.307 E9.80365
G1 X73.166 Y98.459 E9.82814
G1 X73.596 Y97.645 E9.85264
G1 X74.095 Y96.871 E9.87714
G1 X74.66 Y96.144 E9.90164
G1 X75.285 Y95.468 E9.92614
G1 X75.967 Y94.849 E9.95064
G1 X76.7 Y94.292 E9.97514
G1 X77.478 Y93.8 E9.99963
G1 X78.296 Y93.378 E10.02412
G1 X79.148 Y93.029 E10.04862
G1 X80.027 Y92.754 E10.07313
G1 X80.926 Y92.557 E10.09762
G1 X81.839 Y92.439 E10.12211
G1 X82.431 Y92.405 E10.13789
G1 X83.083 Y92.39 E10.15524
G1 X85.327 Y92.391 E10.21495
G1 X86.443 Y92.407 E10.24465
G1 X88.629 Y92.47 E10.30284
G1 X91.191 Y92.472 E10.37101
G1 X92.563 Y92.442 E10.40752
G1 X94.576 Y92.383 E10.46111
G1 X97.195 Y92.27 E10.53086
G1 X99.75 Y92.087 E10.59902
G1 X101.082 Y91.962 E10.63462
G1 X101.896 Y91.917 E10.65631
G1 X102.745 Y91.903 E10.6789
G1 X115.701 Y91.905 E11.02364
G1 X116.404 Y91.916 E11.04234
G1 X117.323 Y91.971 E11.06684
G1 X118.234 Y92.105 E11.09134
G1 X119.198 Y92.337 E11.11772
G1 X121.817 Y93.099 E11.1903
G1 X124.279 Y93.74 E11.25799
G1 X126.751 Y94.309 E11.32549
G1 X129.151 Y94.792 E11.39063
G1 X130.045 Y95.012 E11.41513
G1 X130.916 Y95.31 E11.43962
G1 X131.758 Y95.682 E11.46411
G1 X132.565 Y96.126 E11.48862
G1 X133.174 Y96.525 E11.50799
G1 X133.392 Y96.679 E11.5151
G1 X134.12 Y97.243 E11.5396
G1 X134.797 Y97.867 E11.5641
G1 X135.416 Y98.548 E11.58859
G1 X135.975 Y99.28 E11.61309
G1 X136.468 Y100.058 E11.6376
G1 X136.891 Y100.875 E11.66208
G1 X137.242 Y101.726 E11.68657
G1 X137.518 Y102.605 E11.71109
G1 X137.716 Y103.504 E11.73558
G1 X137.836 Y104.416 E11.76006
G1 X137.876 Y105.424 E11.7869
G1 X137.872 Y105.91 E11.79983
G1 X137.771 Y107.284 E11.83649
G1 X137.466 Y109.477 E11.8954
G1 X137.182 Y111.98 E11.96243
G1 X136.968 Y114.502 E12.02978
G1 X136.912 Y115.467 E12.0555
G1 X136.847 Y116.376 E12.07975
G1 X136.742 Y117.291 E12.10425
G1 X136.557 Y118.193 E12.12875
G1 X136.295 Y119.075 E12.15323
G1 X135.957 Y119.932 E12.17775
G1 X135.547 Y120.756 E12.20224
G1 X135.066 Y121.541 E12.22673
G1 X134.519 Y122.282 E12.25124
G1 X133.91 Y122.972 E12.27573
G1 X133.243 Y123.607 E12.30023
G1 X132.524 Y124.181 E12.32471
G1 X131.758 Y124.691 E12.3492
G1 X130.95 Y125.133 E12.3737
G1 X130.107 Y125.503 E12.3982
G1 X129.235 Y125.798 E12.42269
G1 X128.34 Y126.017 E12.44721
G1 X127.787 Y126.111 E12.46214
G1 X126.875 Y126.243 E12.48666
G1 X124.242 Y126.657 E12.55758
G1 X121.807 Y127.113 E12.62349
G1 X118.497 Y127.84 E12.71366
G1 X117.59 Y127.998 E12.73816
G1 X116.434 Y128.085 E12.76901
G1 X115.673 Y128.098 E12.78926
G1 X102.665 Y128.097 E13.13538
G1 X101.952 Y128.086 E13.15435
G1 X100.771 Y128.001 E13.18586
G1 X99.994 Y127.902 E13.2067
G1 X97.424 Y127.61 E13.27552
G1 X94.885 Y127.394 E13.34332
G1 X92.361 Y127.25 E13.41059
G1 X89.826 Y127.178 E13.47807
G1 X87.252 Y127.178 E13.54656
G1 X86.526 Y127.189 E13.56588
G1 X83.928 Y127.184 E13.63501
G1 X82.709 Y127.19 E13.66744
G1 X81.823 Y127.18 E13.69102
G1 X80.904 Y127.128 E13.71551
G1 X79.993 Y126.997 E13.74
G1 X79.097 Y126.787 E13.76449
G1 X78.222 Y126.5 E13.78899
G1 X77.375 Y126.138 E13.8135
G1 X76.563 Y125.704 E13.838
G1 X75.792 Y125.202 E13.86248
G1 X75.067 Y124.634 E13.88698
G1 X74.394 Y124.005 E13.91149
G1 X73.779 Y123.321 E13.93597
G1 X73.225 Y122.586 E13.96046
G1 X72.737 Y121.805 E13.98496
G1 X72.318 Y120.985 E14.00947
G1 X71.972 Y120.132 E14.03396
G1 X71.702 Y119.252 E14.05845
G1 X71.509 Y118.351 E14.08297
G1 X71.395 Y117.438 E14.10745
G1 X71.365 Y116.894 E14.12195
G1 X71.351 Y116.277 E14.13837
G1 X71.351 Y107.532 E14.37106
G1 F1500 E10.87106
;MESH:void_switch-v53-mount-v1-stem.stl
G0 F6000 X85.202 Y108.494
;TYPE:WALL-INNER
G1 F1500 E14.37106
G1 F434.8 X85.202 Y107.844 E14.39492
G1 F437.2 X84.836 Y107.961 E14.40896
G1 F441.2 X83.714 Y107.957 E14.44956
G1 F442.8 X83.422 Y107.882 E14.46043
G1 X83.422 Y108.498 E14.48264
G1 F442 X84.015 Y108.497 E14.50406
G1 F438.8 X84.608 Y108.496 E14.52563
G1 F436.4 X85.201 Y108.495 E14.54733
G0 F6000 X85.678 Y109.096
G1 F600 X85.678 Y107.441 E14.59137
G1 X85.448 Y107.388 E14.59765
G1 X85.266 Y107.259 E14.60358
G1 X85.084 Y107.388 E14.60952
G1 X84.763 Y107.49 E14.61848
G1 X83.752 Y107.488 E14.64538
G1 X83.423 Y107.403 E14.65442
G1 X83.286 Y107.314 E14.65877
G1 X83.149 Y107.403 E14.66312
G1 X82.951 Y107.445 E14.6685
G1 X82.948 Y109.098 E14.71248
G1 X83.331 Y108.97 E14.72323
G1 X85.298 Y108.97 E14.77557
G1 X85.678 Y109.096 E14.78622
G0 F6000 X85.988 Y109.97
G1 F448.6 X86.033 Y109.625 E14.7986
G1 F539.3 X86.078 Y109.28 E14.8089
G1 F600 X86.078 Y107.151 E14.86555
G1 X86.042 Y107.09 E14.86743
G1 X85.89 Y107.09 E14.87148
G1 X85.624 Y107.029 E14.87874
G1 X85.468 Y106.918 E14.88384
G1 F563.4 X85.266 Y106.544 E14.89588
G1 X85.064 Y106.918 E14.90793
G1 F600 X84.908 Y107.029 E14.91302
G1 X84.714 Y107.09 E14.91843
G1 X83.784 Y107.089 E14.94318
G1 X83.587 Y107.038 E14.94859
G1 X83.431 Y106.937 E14.95354
G1 X83.286 Y106.642 E14.96228
G1 X83.14 Y106.937 E14.97104
G1 X82.985 Y107.038 E14.97596
G1 X82.738 Y107.09 E14.98268
G1 X82.587 Y107.09 E14.9867
G1 X82.55 Y107.153 E14.98864
G1 X82.548 Y109.28 E15.04524
G1 F539.3 X82.594 Y109.625 E15.05554
G1 F448.6 X82.641 Y109.97 E15.06793
G1 X82.805 Y109.73 E15.07828
G1 F539.3 X82.969 Y109.49 E15.08688
G1 F600 X83.331 Y109.37 E15.09703
G1 X85.298 Y109.37 E15.14937
G1 X85.659 Y109.489 E15.15948
G1 F539.3 X85.823 Y109.729 E15.16809
G1 F448.6 X85.988 Y109.97 E15.17848
G1 F1500 E11.67848
G0 F6000 X86.478 Y116.39
;TYPE:WALL-OUTER
G1 F1500 E15.17848
G1 F600 X86.478 Y107.044 E15.42716
G1 X86.273 Y106.69 E15.43804
G1 X85.89 Y106.69 E15.44823
G1 X85.749 Y106.633 E15.45228
G1 X85.69 Y106.508 E15.45596
G1 X85.69 Y103.19 E15.54424
G1 X84.842 Y103.19 E15.56681
G1 X84.842 Y106.508 E15.65509
G1 X84.783 Y106.633 E15.65877
G1 X84.675 Y106.688 E15.662
G1 X83.772 Y106.69 E15.68602
G1 F505.3 X83.559 Y106.514 E15.69475
G1 F437.2 X83.559 Y104.888 E15.75414
G1 F438.8 X83.559 Y103.262 E15.8133
G1 X83.012 Y103.263 E15.8332
G1 X83.012 Y104.889 E15.89237
G1 F437.2 X83.012 Y106.515 E15.95175
G1 F505.3 X82.801 Y106.69 E15.96041
G1 F600 X82.356 Y106.69 E15.97225
G1 X82.15 Y107.046 E15.9832
G1 X82.151 Y116.39 E16.23182
G1 X83.131 Y116.39 E16.2579
G1 X83.131 Y109.97 E16.42872
G1 X83.21 Y109.81 E16.43347
G1 X83.331 Y109.77 E16.43686
G1 X85.298 Y109.77 E16.4892
G1 X85.419 Y109.809 E16.49258
G1 X85.498 Y109.97 E16.49735
G1 X85.498 Y116.39 E16.66818
G1 X86.478 Y116.39 E16.69425
G0 F6000 X85.988 Y115.9
;TYPE:WALL-INNER
G1 F413.8 X85.988 Y109.97 E16.92304
G1 F1500 E13.42304
G0 F6000 X82.641 Y109.97
G1 F1500 E16.92304
G1 F413.8 X82.641 Y115.9 E17.15183
G1 F1500 E13.65183
G0 F6000 X85.266 Y106.544
G1 F1500 E17.15183
G1 F532.2 X85.266 Y105.079 E17.19578
G1 F534.5 X85.266 Y103.614 E17.23954
G1 F1500 E13.73954
;MESH:void_switch-v53-mount-v1-stem.stl(1)
G0 F6000 X96.358 Y108.501
;TYPE:WALL-INNER
G1 F1500 E17.23954
G1 F434.8 X96.358 Y107.851 E17.26341
G1 F437.2 X95.992 Y107.968 E17.27744
G1 F441.2 X94.871 Y107.964 E17.31801
G1 F442.8 X94.579 Y107.889 E17.32888
G1 X94.579 Y108.505 E17.35108
G1 F442 X95.172 Y108.504 E17.3725
G1 F438.8 X95.765 Y108.503 E17.39408
G1 F436.4 X96.358 Y108.501 E17.41578
G0 F6000 X96.834 Y109.103
G1 F600 X96.834 Y107.448 E17.45981
G1 X96.604 Y107.395 E17.46609
G1 X96.422 Y107.266 E17.47203
G1 X96.24 Y107.395 E17.47796
G1 X95.919 Y107.497 E17.48693
G1 X94.909 Y107.495 E17.5138
G1 X94.58 Y107.41 E17.52284
G1 X94.443 Y107.321 E17.52719
G1 X94.306 Y107.41 E17.53154
G1 X94.108 Y107.452 E17.53692
G1 X94.105 Y109.105 E17.58091
G1 X94.488 Y108.977 E17.59165
G1 X96.454 Y108.977 E17.64396
G1 X96.834 Y109.103 E17.65461
G0 F6000 X97.144 Y109.977
G1 F448.6 X97.189 Y109.632 E17.667
G1 F539.3 X97.234 Y109.287 E17.6773
G1 F600 X97.234 Y107.158 E17.73394
G1 X97.198 Y107.097 E17.73583
G1 X97.046 Y107.097 E17.73987
G1 X96.78 Y107.036 E17.74713
G1 X96.624 Y106.925 E17.75223
