;FLAVOR:Marlin
;TIME:814
;Filament used: 0.204294m
;Layer height: 0.16
;MINX:92.5
;MINY:92.5
;MINZ:0.16
;MAXX:127.5
;MAXY:127.5
;MAXZ:8.8
;Generated with Cura_SteamEngine main
M82 ;absolute extrusion mode
; Ender 3 Custom Start G-code
G92 E0 ; Reset Extruder
G28 ; Home all axes
M104 S120 ; Start heating up the nozzle most of the way
M190 S64.0 ; Start heating the bed, wait until target temperature reached
M109 S250.0 ; Finish heating the nozzle
G1 Z2.0 F3000 ; Move Z Axis up little to prevent scratching of Heat Bed
G1 X0.1 Y20 Z0.3 F5000.0 ; Move to start position
G1 X0.1 Y200.0 Z0.3 F1500.0 E15 ; Draw the first line
G1 X0.4 Y200.0 Z0.3 F5000.0 ; Move to side a little
G1 X0.4 Y20 Z0.3 F1500.0 E30 ; Draw the second line
G92 E0 ; Reset Extruder
G1 Z2.0 F3000 ; Move Z Axis up little to prevent scratching of Heat Bed
G1 X5 Y20 Z0.3 F5000.0 ; Move over to prevent blob squish
G92 E0
G92 E0
G1 F2100 E-4
;LAYER_COUNT:55
;LAYER:0
M107
G0 F6000 X95.698 Y95.764 Z0.16
G0 X92.501 Y104.025
;TYPE:SKIRT
G1 F2100 E0
G1 F600 X92.51 Y103.36 E0.01734
G1 X92.563 Y102.424 E0.04179
G1 X92.695 Y101.495 E0.06626
G1 X92.906 Y100.581 E0.09072
G1 X93.194 Y99.689 E0.11516
G1 X93.557 Y98.824 E0.13962
G1 X93.992 Y97.993 E0.16408
G1 X94.496 Y97.203 E0.18851
G1 X95.066 Y96.458 E0.21297
G1 X95.698 Y95.764 E0.23745
G1 X96.386 Y95.127 E0.2619
G1 X97.126 Y94.551 E0.28635
G1 X97.912 Y94.039 E0.31081
G1 X98.739 Y93.597 E0.33526
G1 X99.601 Y93.227 E0.35972
G1 X100.491 Y92.931 E0.38418
G1 X101.403 Y92.713 E0.40863
G1 X102.33 Y92.572 E0.43308
G1 X103.201 Y92.513 E0.45585
G1 X103.83 Y92.5 E0.47225
G1 X115.951 Y92.501 E0.78832
G1 X116.649 Y92.511 E0.80652
G1 X117.585 Y92.565 E0.83097
G1 X118.513 Y92.697 E0.85541
G1 X119.427 Y92.909 E0.87988
G1 X120.319 Y93.198 E0.90433
G1 X121.184 Y93.561 E0.92879
G1 X122.014 Y93.997 E0.95324
G1 X122.805 Y94.502 E0.97771
G1 X123.549 Y95.073 E1.00216
G1 X124.242 Y95.705 E1.02662
G1 X124.879 Y96.393 E1.05107
G1 X125.454 Y97.134 E1.07553
G1 X125.965 Y97.92 E1.09997
G1 X126.407 Y98.748 E1.12445
G1 X126.776 Y99.61 E1.1489
G1 X127.071 Y100.5 E1.17335
G1 X127.289 Y101.412 E1.1978
G1 X127.429 Y102.34 E1.22227
G1 X127.487 Y103.201 E1.24477
G1 X127.5 Y103.83 E1.26118
G1 X127.499 Y115.9 E1.57592
G1 X127.49 Y116.627 E1.59487
G1 X127.439 Y117.564 E1.61934
G1 X127.307 Y118.492 E1.64379
G1 X127.098 Y119.406 E1.66823
G1 X126.811 Y120.299 E1.69269
G1 X126.449 Y121.165 E1.71717
G1 X126.015 Y121.996 E1.74161
G1 X125.511 Y122.787 E1.76607
G1 X124.942 Y123.532 E1.79052
G1 X124.311 Y124.227 E1.81499
G1 X123.624 Y124.865 E1.83944
G1 X122.885 Y125.442 E1.86389
G1 X122.099 Y125.954 E1.88835
G1 X121.273 Y126.397 E1.91279
G1 X120.411 Y126.769 E1.93727
G1 X119.522 Y127.065 E1.96171
G1 X118.61 Y127.285 E1.98617
G1 X117.683 Y127.426 E2.01062
G1 X116.799 Y127.487 E2.03373
G1 X116.17 Y127.5 E2.05013
G1 X104.065 Y127.499 E2.36578
G1 X103.367 Y127.49 E2.38398
G1 X102.431 Y127.438 E2.40843
G1 X101.502 Y127.306 E2.43289
G1 X100.588 Y127.096 E2.45735
G1 X99.695 Y126.809 E2.48181
G1 X98.83 Y126.446 E2.50627
G1 X97.999 Y126.012 E2.53072
G1 X97.208 Y125.508 E2.55517
G1 X96.463 Y124.938 E2.57963
G1 X95.769 Y124.307 E2.60409
G1 X95.132 Y123.62 E2.62852
G1 X94.555 Y122.88 E2.65299
G1 X94.043 Y122.094 E2.67745
G1 X93.6 Y121.267 E2.70192
G1 X93.229 Y120.406 E2.72636
G1 X92.933 Y119.516 E2.75082
G1 X92.714 Y118.604 E2.77528
G1 X92.573 Y117.677 E2.79973
G1 X92.513 Y116.788 E2.82296
G1 X92.5 Y116.158 E2.83939
G1 X92.501 Y104.025 E3.15577
G0 F6000 X92.901 Y104.031
G1 F600 X92.91 Y103.366 E3.17311
G1 X92.962 Y102.446 E3.19714
G1 X93.094 Y101.535 E3.22115
G1 X93.305 Y100.639 E3.24515
G1 X93.592 Y99.764 E3.26916
G1 X93.955 Y98.918 E3.29317
G1 X94.389 Y98.106 E3.31718
G1 X94.892 Y97.335 E3.34118
G1 X95.461 Y96.611 E3.36519
G1 X96.089 Y95.939 E3.38918
G1 X96.774 Y95.323 E3.4132
G1 X97.51 Y94.77 E3.4372
G1 X98.291 Y94.282 E3.46122
G1 X99.111 Y93.864 E3.48522
G1 X99.965 Y93.519 E3.50923
G1 X100.845 Y93.249 E3.53324
G1 X101.745 Y93.057 E3.55723
G1 X102.659 Y92.943 E3.58125
G1 X103.212 Y92.913 E3.59569
G1 X103.83 Y92.9 E3.61181
G1 X115.793 Y92.9 E3.92376
G1 X116.643 Y92.911 E3.94592
G1 X117.562 Y92.964 E3.96993
G1 X118.473 Y93.097 E3.99393
G1 X119.369 Y93.308 E4.01794
G1 X120.243 Y93.596 E4.04193
G1 X121.09 Y93.959 E4.06596
G1 X121.901 Y94.394 E4.08996
G1 X122.671 Y94.898 E4.11396
G1 X123.395 Y95.467 E4.13797
G1 X124.067 Y96.097 E4.16199
G1 X124.682 Y96.782 E4.18599
G1 X125.235 Y97.518 E4.21
G1 X125.722 Y98.299 E4.234
G1 X126.139 Y99.12 E4.25801
G1 X126.484 Y99.974 E4.28203
G1 X126.753 Y100.854 E4.30602
G1 X126.945 Y101.755 E4.33005
G1 X127.058 Y102.668 E4.35403
G1 X127.087 Y103.212 E4.36824
G1 X127.1 Y103.83 E4.38436
G1 X127.099 Y115.895 E4.69896
G1 X127.09 Y116.622 E4.71792
G1 X127.039 Y117.541 E4.74192
G1 X126.908 Y118.453 E4.76595
G1 X126.698 Y119.349 E4.78995
G1 X126.412 Y120.224 E4.81395
G1 X126.051 Y121.071 E4.83796
G1 X125.617 Y121.883 E4.86197
G1 X125.115 Y122.655 E4.88598
G1 X124.547 Y123.38 E4.91
G1 X123.919 Y124.053 E4.934
G1 X123.235 Y124.669 E4.958
G1 X122.5 Y125.223 E4.982
G1 X121.72 Y125.712 E5.00601
G1 X120.9 Y126.131 E5.03002
G1 X120.047 Y126.477 E5.05402
G1 X119.167 Y126.748 E5.07803
G1 X118.267 Y126.941 E5.10203
G1 X117.353 Y127.056 E5.12606
G1 X116.788 Y127.087 E5.14081
G1 X116.17 Y127.1 E5.15693
G1 X104.07 Y127.099 E5.47245
G1 X103.372 Y127.09 E5.49065
G1 X102.453 Y127.038 E5.51465
G1 X101.542 Y126.907 E5.53865
G1 X100.646 Y126.697 E5.56265
G1 X99.771 Y126.41 E5.58666
G1 X98.924 Y126.048 E5.61068
G1 X98.112 Y125.614 E5.63469
G1 X97.341 Y125.112 E5.65868
G1 X96.616 Y124.544 E5.6827
G1 X95.943 Y123.915 E5.70672
G1 X95.328 Y123.231 E5.7307
G1 X94.774 Y122.496 E5.7547
G1 X94.286 Y121.715 E5.77872
G1 X93.867 Y120.895 E5.80273
G1 X93.521 Y120.042 E5.82673
G1 X93.251 Y119.162 E5.85073
G1 X93.058 Y118.261 E5.87476
G1 X92.944 Y117.348 E5.89875
G1 X92.913 Y116.777 E5.91367
G1 X92.9 Y116.158 E5.92981
G1 X92.901 Y104.031 E6.24603
G0 F6000 X93.301 Y104.036
G1 F600 X93.31 Y103.371 E6.26337
G1 X93.362 Y102.469 E6.28693
G1 X93.494 Y101.576 E6.31047
G1 X93.704 Y100.698 E6.33401
G1 X93.991 Y99.841 E6.35758
G1 X94.353 Y99.014 E6.38112
G1 X94.786 Y98.222 E6.40466
G1 X95.288 Y97.471 E6.42821
G1 X95.855 Y96.767 E6.45178
G1 X96.481 Y96.117 E6.47532
G1 X97.162 Y95.524 E6.49886
G1 X97.894 Y94.994 E6.52243
G1 X98.669 Y94.531 E6.54597
G1 X99.482 Y94.138 E6.56952
G1 X100.327 Y93.818 E6.59308
G1 X101.196 Y93.575 E6.61661
G1 X102.084 Y93.409 E6.64016
G1 X103.223 Y93.313 E6.66997
G1 X103.83 Y93.3 E6.6858
G1 X115.793 Y93.3 E6.99775
G1 X116.637 Y93.311 E7.01976
G1 X117.539 Y93.364 E7.04332
G1 X118.432 Y93.496 E7.06686
G1 X119.31 Y93.707 E7.0904
G1 X120.166 Y93.995 E7.11395
G1 X120.993 Y94.357 E7.13749
G1 X121.785 Y94.792 E7.16106
G1 X122.536 Y95.294 E7.18461
G1 X123.239 Y95.861 E7.20816
G1 X123.889 Y96.488 E7.23171
G1 X124.481 Y97.17 E7.25526
G1 X125.011 Y97.901 E7.27881
G1 X125.473 Y98.677 E7.30235
G1 X125.866 Y99.49 E7.3259
G1 X126.184 Y100.335 E7.34944
G1 X126.427 Y101.205 E7.373
G1 X126.592 Y102.093 E7.39655
G1 X126.687 Y103.223 E7.42612
G1 X126.7 Y103.83 E7.44195
G1 X126.699 Y115.89 E7.75643
G1 X126.69 Y116.617 E7.77539
G1 X126.639 Y117.519 E7.79894
G1 X126.508 Y118.413 E7.82251
G1 X126.299 Y119.291 E7.84604
G1 X126.013 Y120.148 E7.8696
G1 X125.652 Y120.976 E7.89315
G1 X125.22 Y121.768 E7.91668
G1 X124.719 Y122.52 E7.94024
G1 X124.153 Y123.224 E7.96379
G1 X123.528 Y123.875 E7.98733
G1 X122.847 Y124.469 E8.01089
G1 X122.116 Y125 E8.03445
G1 X121.342 Y125.464 E8.05798
G1 X120.529 Y125.858 E8.08154
G1 X119.685 Y126.178 E8.10508
G1 X118.815 Y126.423 E8.12864
G1 X117.928 Y126.589 E8.15218
G1 X116.777 Y126.687 E8.1823
G1 X116.17 Y126.7 E8.19813
G1 X104.075 Y126.699 E8.51352
G1 X103.377 Y126.69 E8.53172
G1 X102.476 Y126.639 E8.55525
G1 X101.582 Y126.507 E8.57882
G1 X100.704 Y126.298 E8.60235
G1 X99.847 Y126.011 E8.62592
G1 X99.02 Y125.65 E8.64945
G1 X98.227 Y125.217 E8.67301
G1 X97.476 Y124.716 E8.69655
G1 X96.772 Y124.15 E8.7201
G1 X96.121 Y123.524 E8.74365
G1 X95.528 Y122.843 E8.7672
G1 X94.998 Y122.112 E8.79075
G1 X94.534 Y121.337 E8.8143
G1 X94.14 Y120.524 E8.83786
G1 X93.82 Y119.68 E8.86139
G1 X93.576 Y118.81 E8.88496
G1 X93.41 Y117.922 E8.90851
G1 X93.313 Y116.767 E8.93874
G1 X93.3 Y116.158 E8.95462
G1 X93.301 Y104.036 E9.27071
G1 F2100 E5.27071
;MESH:Void Switch Electronics Board.stl
G0 F6000 X104.143 Y115.857
;TYPE:WALL-INNER
G1 F2100 E9.27071
G1 F493.8 X105.06 Y115.856 E9.29976
G1 X104.557 Y115.443 E9.32038
G1 X104.253 Y115.073 E9.33556
G1 X104.144 Y114.895 E9.34217
G1 X104.143 Y115.857 E9.37265
G1 F2100 E5.37265
G0 F6000 X109.622 Y115.099
G1 F2100 E9.37265
G1 F600 X112.771 Y115.099 E9.45476
G1 F549.2 X113.119 Y115.061 E9.46473
G1 F467.8 X113.467 Y115.023 E9.47644
G1 F430.9 X114.081 Y115.019 E9.49874
G1 F492.8 X114.451 Y115.094 E9.51072
G1 F592.6 X115.1 Y115.1 E9.52786
G1 F600 X115.1 Y113.844 E9.56061
G1 X114.557 Y114.197 E9.5775
G1 F592.6 X114.3 Y114.306 E9.58487
G1 F492.8 X114.033 Y114.46 E9.59465
G1 F431.7 X113.777 Y114.475 E9.60395
G1 F436.4 X113.471 Y114.471 E9.61492
G1 F467.8 X113.206 Y114.376 E9.62433
G1 F549.2 X112.94 Y114.281 E9.63238
G1 F600 X112.684 Y114.169 E9.63967
G1 X112.227 Y113.849 E9.65421
G1 X111.929 Y113.535 E9.6655
G1 X111.769 Y113.261 E9.67378
G1 X111.6 Y112.794 E9.68673
G1 X111.551 Y112.508 E9.69429
G1 X111.559 Y112.062 E9.70592
G1 X111.611 Y111.712 E9.71515
G1 X111.839 Y111.211 E9.7295
G1 X112.005 Y110.967 E9.7372
G1 X112.375 Y110.597 E9.75084
G1 X112.656 Y110.422 E9.75948
G1 X113.011 Y110.275 E9.7695
G1 X113.255 Y110.202 E9.77614
G1 X113.548 Y110.174 E9.78381
G1 X113.872 Y110.179 E9.79226
G1 X114.372 Y110.295 E9.80565
G1 X114.628 Y110.407 E9.81293
G1 X115.1 Y110.734 E9.82791
G1 X115.1 Y107.629 E9.90887
G1 X114.786 Y107.763 E9.91777
G1 X114.549 Y107.814 E9.9241
G1 X114.073 Y107.834 E9.93652
G1 X113.767 Y107.78 E9.94462
G1 X113.492 Y107.699 E9.9521
G1 X113.265 Y107.582 E9.95876
G1 X112.966 Y107.38 E9.96816
G1 X112.66 Y107.051 E9.97988
G1 F592.6 X112.527 Y106.839 E9.98649
G1 F576.9 X112.394 Y106.626 E9.9933
G1 F554.3 X112.3 Y106.247 E10.00432
G1 F531 X112.255 Y105.931 E10.01373
G1 F510.6 X112.209 Y105.614 E10.02354
G1 F543 X112.025 Y105.922 E10.03388
G1 F597 X111.964 Y106.045 E10.03748
G1 F600 X111.817 Y106.269 E10.04446
G1 X111.444 Y106.647 E10.05831
G1 X111.168 Y106.824 E10.06686
G1 X110.707 Y107.022 E10.07994
G1 X110.379 Y107.08 E10.08863
G1 X109.869 Y107.08 E10.10193
G1 X109.57 Y107.022 E10.10987
G1 X109.096 Y106.82 E10.1233
G1 X108.764 Y106.58 E10.13399
G1 X108.405 Y106.205 E10.14752
G1 X108.257 Y105.929 E10.15569
G1 X108.088 Y105.5 E10.16771
G1 X108.013 Y104.9 E10.18348
G1 X104.9 Y104.9 E10.26466
G1 X104.9 Y106.165 E10.29764
G1 X105.127 Y106.074 E10.30402
G1 X105.554 Y105.967 E10.3155
G1 X106.006 Y105.987 E10.32729
G1 X106.556 Y106.127 E10.34209
G1 X106.946 Y106.323 E10.35348
G1 X107.215 Y106.536 E10.36242
G1 X107.463 Y106.806 E10.37198
G1 X107.669 Y107.084 E10.38101
G1 X107.884 Y107.646 E10.3967
G1 X107.937 Y107.993 E10.40585
G1 X107.938 Y108.48 E10.41855
G1 X107.873 Y108.776 E10.42645
G1 X107.726 Y109.16 E10.43717
G1 X107.564 Y109.471 E10.44632
G1 X107.213 Y109.839 E10.45958
G1 X106.956 Y110.035 E10.468
G1 X107.28 Y110.086 E10.47656
G1 X107.855 Y110.269 E10.49229
G1 X108.447 Y110.583 E10.50977
G1 X108.993 Y111.028 E10.52813
G1 X109.436 Y111.58 E10.54659
G1 X109.741 Y112.154 E10.56354
G1 X109.946 Y112.831 E10.58198
G1 X110.008 Y113.539 E10.60052
G1 X109.956 Y114.05 E10.61391
G1 X109.902 Y114.322 E10.62114
G1 X109.78 Y114.717 E10.63192
G1 X109.622 Y115.099 E10.6427
G0 F6000 X108.862 Y115.498
G1 F600 X115.5 Y115.5 E10.81579
G1 X115.5 Y113.17 E10.87655
G1 F562.1 X115.473 Y112.882 E10.8846
G1 F473.4 X115.42 Y112.621 E10.8934
G1 F461.5 X115.289 Y112.86 E10.90264
G1 F545.5 X115.157 Y113.099 E10.91047
G1 F600 X114.937 Y113.417 E10.92056
G1 X114.734 Y113.614 E10.92793
G1 X114.409 Y113.825 E10.93804
G1 X114.149 Y113.928 E10.94533
G1 X113.896 Y114.002 E10.9522
G1 X113.48 Y113.996 E10.96305
G1 X113.1 Y113.913 E10.97319
G1 X112.844 Y113.802 E10.98047
G1 X112.517 Y113.573 E10.99088
G1 X112.193 Y113.233 E11.00313
G1 X111.985 Y112.686 E11.01839
G1 X111.95 Y112.482 E11.02378
G1 X111.959 Y112.083 E11.03419
G1 X111.996 Y111.834 E11.04076
G1 X112.191 Y111.401 E11.05314
G1 X112.31 Y111.227 E11.05864
G1 X112.632 Y110.905 E11.07051
G1 X112.833 Y110.78 E11.07668
G1 X113.271 Y110.6 E11.08903
G1 X113.543 Y110.574 E11.09616
G1 X113.855 Y110.578 E11.10429
G1 X114.212 Y110.661 E11.11385
G1 X114.468 Y110.774 E11.12115
G1 X114.787 Y110.995 E11.13127
G1 X114.983 Y111.198 E11.13862
G1 X115.2 Y111.544 E11.14927
G1 F553 X115.315 Y111.851 E11.15855
G1 F477.1 X115.431 Y112.159 E11.16934
G1 F509.6 X115.498 Y111.774 E11.18134
G1 F595.5 X115.498 Y110.129 E11.22456
G1 F597 X115.499 Y108.484 E11.26767
G1 F600 X115.499 Y106.839 E11.31056
G1 X115.25 Y107.09 E11.31978
G1 X115.05 Y107.224 E11.32606
G1 X114.595 Y107.418 E11.33896
G1 X114.125 Y107.437 E11.35122
G1 X113.706 Y107.362 E11.36232
G1 X113.48 Y107.245 E11.36896
G1 X113.111 Y106.996 E11.38056
G1 X112.823 Y106.575 E11.39387
G1 X112.731 Y106.352 E11.40016
G1 X112.642 Y105.827 E11.41404
G1 X112.757 Y105.256 E11.42923
G1 X113.01 Y104.85 E11.4417
G1 X113.359 Y104.501 E11.45457
G1 X111.793 Y104.501 E11.49541
G1 X111.853 Y104.836 E11.50428
G1 X111.845 Y105.327 E11.51709
G1 X111.571 Y105.948 E11.53479
G1 X111.244 Y106.279 E11.54692
G1 X111.04 Y106.445 E11.55378
G1 X110.576 Y106.641 E11.56691
G1 X110.349 Y106.681 E11.57292
G1 X109.963 Y106.68 E11.58299
G1 X109.698 Y106.643 E11.58997
G1 X109.25 Y106.445 E11.60274
G1 X109.041 Y106.291 E11.60951
G1 X108.678 Y105.912 E11.62319
G1 X108.47 Y105.36 E11.63857
G1 X108.435 Y105.082 E11.64588
G1 X108.439 Y104.794 E11.65339
G1 X108.5 Y104.5 E11.66122
G1 X104.5 Y104.5 E11.76552
G1 X104.5 Y106.948 E11.82936
G1 X104.664 Y106.781 E11.83546
G1 X105.006 Y106.553 E11.84618
G1 X105.276 Y106.445 E11.85376
G1 X105.581 Y106.369 E11.86196
G1 X105.988 Y106.387 E11.87258
G1 X106.381 Y106.487 E11.88316
G1 X106.738 Y106.665 E11.89356
G1 X106.931 Y106.817 E11.89996
G1 X107.295 Y107.218 E11.91409
G1 X107.537 Y107.88 E11.93247
G1 X107.538 Y108.537 E11.9496
G1 X107.325 Y109.087 E11.96498
G1 X107.198 Y109.278 E11.97096
G1 F589.7 X106.808 Y109.684 E11.98589
G1 F566 X106.553 Y109.808 E11.99373
G1 F538.1 X106.297 Y109.932 E12.002
G1 F529.8 X105.971 Y109.996 E12.01181
G1 F541.8 X105.709 Y109.969 E12.01942
G1 F559.4 X105.447 Y109.942 E12.02679
G1 F583.9 X105.204 Y109.851 E12.03374
G1 F600 X104.936 Y109.721 E12.04151
G1 X104.63 Y109.491 E12.05149
G1 X104.5 Y109.347 E12.05655
G1 X104.502 Y111.138 E12.10325
G1 X104.774 Y110.915 E12.11242
G1 F592.6 X105.031 Y110.777 E12.12012
G1 F576.9 X105.289 Y110.639 E12.12806
G1 F562.1 X105.606 Y110.534 E12.13735
G1 F547.9 X105.923 Y110.429 E12.14689
G1 F533.3 X106.397 Y110.373 E12.16089
G1 F534.5 X106.757 Y110.413 E12.17149
G1 F551.7 X107.118 Y110.454 E12.18179
G1 F570.1 X107.408 Y110.546 E12.19014
G1 F589.7 X107.699 Y110.638 E12.19824
G1 F600 X108.211 Y110.906 E12.21331
G1 X108.693 Y111.3 E12.22954
G1 X109.097 Y111.796 E12.24622
G1 X109.364 Y112.306 E12.26124
G1 X109.55 Y112.903 E12.27754
G1 X109.604 Y113.495 E12.29304
G1 X109.549 Y114.106 E12.30904
G1 X109.37 Y114.691 E12.32499
G1 X109.086 Y115.225 E12.34076
G1 X108.862 Y115.498 E12.34997
G0 F6000 X107.724 Y115.899
G1 F600 X115.9 Y115.9 E12.56317
G1 X115.9 Y114.52 E12.59915
G1 F598.5 X115.9 Y113.14 E12.63523
G1 X115.9 Y111.76 E12.6713
G1 F597 X115.899 Y110.38 E12.70747
G1 F595.5 X115.899 Y109 E12.74372
G1 X115.899 Y107.62 E12.77998
G1 F594.1 X115.899 Y106.24 E12.81632
G1 F583.9 X115.891 Y105.964 E12.82372
G1 F576.9 X115.892 Y105.591 E12.83383
G1 F582.5 X115.894 Y105.218 E12.84385
G1 F586.8 X115.896 Y104.845 E12.8538
G1 F592.6 X115.898 Y104.472 E12.86365
G1 F598.5 X115.9 Y104.099 E12.8734
G1 F600 X115.046 Y104.1 E12.89567
G1 F581.1 X114.669 Y104.113 E12.90582
G1 F536.9 X114.431 Y104.134 E12.91278
G1 F512.8 X114.129 Y104.134 E12.922
G1 F540.5 X113.852 Y104.11 E12.93005
G1 F585.4 X113.498 Y104.1 E12.93951
G1 F600 X111.15 Y104.101 E13.00074
G1 X111.308 Y104.33 E13.00799
G1 X111.413 Y104.599 E13.01552
G1 X111.453 Y104.829 E13.02161
