;FLAVOR:Marlin
;TIME:1876
;Filament used: 0.420368m
;Layer height: 0.12
;MINX:40.386
;MINY:73.082
;MINZ:0.16
;MAXX:94.495
;MAXY:111.191
;MAXZ:10.48
;Generated with Cura_SteamEngine main
M82 ;absolute extrusion mode
; Ender 3 Custom Start G-code
G92 E0 ; Reset Extruder
G28 ; Home all axes
M104 S120 ; Start heating up the nozzle most of the way
M190 S68.0 ; Start heating the bed, wait until target temperature reached
M109 S252.0 ; Finish heating the nozzle
G1 Z2.0 F3000 ; Move Z Axis up little to prevent scratching of Heat Bed
G1 X0.1 Y20 Z0.3 F5000.0 ; Move to start position
G1 X0.1 Y200.0 Z0.3 F1500.0 E15 ; Draw the first line
G1 X0.4 Y200.0 Z0.3 F5000.0 ; Move to side a little
G1 X0.4 Y20 Z0.3 F1500.0 E30 ; Draw the second line
G92 E0 ; Reset Extruder
G1 Z2.0 F3000 ; Move Z Axis up little to prevent scratching of Heat Bed
G1 X5 Y20 Z0.3 F5000.0 ; Move over to prevent blob squish
G92 E0
G92 E0
G1 F1500 E-4
;LAYER_COUNT:87
;LAYER:0
M106 S25.5
G0 F7500 X46.598 Y75.704 Z0.16
G0 X41.16 Y84.279
;TYPE:SKIRT
G1 F1500 E0
G1 X41.371 Y83.153 E0.03048
G1 X41.583 Y82.239 E0.05545
G1 X41.872 Y81.347 E0.0804
G1 X42.236 Y80.483 E0.10534
G1 X42.673 Y79.652 E0.13033
G1 X43.178 Y78.862 E0.15527
G1 X43.749 Y78.118 E0.18023
G1 X44.381 Y77.426 E0.20516
G1 X45.07 Y76.789 E0.23013
G1 X45.811 Y76.214 E0.25509
G1 X46.598 Y75.704 E0.28004
G1 X47.425 Y75.262 E0.30499
G1 X48.287 Y74.893 E0.32994
G1 X49.178 Y74.598 E0.35491
G1 X50.315 Y74.34 E0.38594
G1 X51.565 Y74.125 E0.41969
G1 X54.15 Y73.643 E0.48965
G1 X55.638 Y73.331 E0.53011
G1 X56.563 Y73.178 E0.55505
G1 X57.721 Y73.098 E0.58594
G1 X58.54 Y73.085 E0.60773
G1 X71.613 Y73.082 E0.95558
G1 X72.502 Y73.094 E0.97924
G1 X73.438 Y73.149 E1.00419
G1 X74.366 Y73.283 E1.02914
G1 X75.28 Y73.495 E1.0541
G1 X75.846 Y73.669 E1.06986
G1 X76.807 Y73.994 E1.09685
G1 X77.599 Y74.274 E1.1192
G1 X80.037 Y75.058 E1.18734
G1 X82.413 Y75.749 E1.25318
G1 X84.941 Y76.408 E1.3227
G1 X85.677 Y76.588 E1.34286
G1 X86.349 Y76.771 E1.36139
G1 X87.24 Y77.063 E1.38634
G1 X88.103 Y77.43 E1.41129
G1 X88.932 Y77.87 E1.43626
G1 X89.72 Y78.378 E1.46121
G1 X90.462 Y78.952 E1.48617
G1 X91.152 Y79.587 E1.51112
G1 X91.786 Y80.278 E1.53608
G1 X92.663 Y81.465 E1.57534
G1 X93.207 Y82.392 E1.60394
G1 X93.611 Y83.238 E1.62889
G1 X93.942 Y84.116 E1.65386
G1 X94.197 Y85.019 E1.67882
G1 X94.373 Y85.94 E1.70377
G1 X94.471 Y86.873 E1.72873
G1 X94.491 Y87.418 E1.74325
G1 X94.495 Y87.749 E1.75205
G1 X94.467 Y88.687 E1.77702
G1 X94.386 Y89.431 E1.79694
G1 X94.022 Y91.987 E1.86563
G1 X93.734 Y94.526 E1.93362
G1 X93.52 Y97.049 E2.001
G1 X93.471 Y97.734 E2.01927
G1 X93.365 Y98.665 E2.0442
G1 X93.18 Y99.585 E2.06917
G1 X92.917 Y100.485 E2.09412
G1 X92.578 Y101.36 E2.11909
G1 X92.166 Y102.202 E2.14403
G1 X91.684 Y103.006 E2.16897
G1 X91.134 Y103.767 E2.19396
G1 X90.523 Y104.478 E2.2189
G1 X89.853 Y105.134 E2.24385
G1 X89.129 Y105.73 E2.2688
G1 X88.357 Y106.263 E2.29377
G1 X87.543 Y106.728 E2.31871
G1 X86.692 Y107.123 E2.34367
G1 X85.81 Y107.443 E2.36864
G1 X84.683 Y107.734 E2.39961
G1 X83.573 Y107.958 E2.42974
G1 X82.828 Y108.097 E2.44991
G1 X80.389 Y108.625 E2.51631
G1 X78.005 Y109.211 E2.58163
G1 X75.633 Y109.87 E2.64713
G1 X75.024 Y110.028 E2.66387
G1 X74.106 Y110.221 E2.68883
G1 X73.175 Y110.336 E2.71379
G1 X72.47 Y110.37 E2.73257
G1 X71.767 Y110.381 E2.75128
G1 X68.879 Y110.382 E2.82813
G1 X66.271 Y110.419 E2.89753
G1 X63.75 Y110.526 E2.96467
G1 X61.271 Y110.702 E3.03079
G1 X58.557 Y110.972 E3.10337
G1 X57.351 Y111.11 E3.13566
G1 X56.411 Y111.178 E3.16074
G1 X55.755 Y111.191 E3.1782
G1 X53.364 Y111.185 E3.24182
G1 X52.146 Y111.191 E3.27423
G1 X51.269 Y111.182 E3.29757
G1 X50.332 Y111.132 E3.32253
G1 X49.404 Y111.001 E3.34747
G1 X48.489 Y110.792 E3.37244
G1 X47.596 Y110.506 E3.39739
G1 X46.731 Y110.145 E3.42233
G1 X45.899 Y109.712 E3.44729
G1 X45.107 Y109.209 E3.47225
G1 X44.361 Y108.64 E3.49722
G1 X43.666 Y108.01 E3.52218
G1 X43.028 Y107.324 E3.54711
G1 X42.45 Y106.585 E3.57207
G1 X41.937 Y105.8 E3.59702
G1 X41.493 Y104.974 E3.62197
G1 X41.121 Y104.113 E3.64693
G1 X40.823 Y103.223 E3.6719
G1 X40.603 Y102.312 E3.69684
G1 X40.461 Y101.385 E3.72179
G1 X40.4 Y100.521 E3.74484
G1 X40.386 Y99.891 E3.76161
G1 X40.386 Y89.707 E4.03258
G1 X40.397 Y89.001 E4.05137
G1 X40.452 Y88.064 E4.07635
G1 X40.612 Y87.005 E4.10484
G1 X41.16 Y84.279 E4.17883
G1 F1500 E0.17883
G0 F7500 X41.186 Y89.719
G1 F1500 E4.17883
G1 X41.197 Y89.013 E4.19762
G1 X41.251 Y88.112 E4.22163
G1 X41.396 Y87.162 E4.2472
G1 X41.961 Y84.352 E4.32347
G1 X42.158 Y83.3 E4.35195
G1 X42.363 Y82.421 E4.37596
G1 X42.646 Y81.563 E4.4
G1 X43.003 Y80.734 E4.42402
G1 X43.432 Y79.939 E4.44806
G1 X43.93 Y79.186 E4.47208
G1 X44.493 Y78.479 E4.49613
G1 X45.116 Y77.825 E4.52016
G1 X45.794 Y77.229 E4.54418
G1 X46.522 Y76.695 E4.5682
G1 X47.295 Y76.227 E4.59225
G1 X48.106 Y75.83 E4.61627
G1 X48.949 Y75.506 E4.6403
G1 X49.817 Y75.258 E4.66432
G1 X50.451 Y75.128 E4.68154
G1 X51.691 Y74.914 E4.71502
G1 X54.329 Y74.423 E4.78642
G1 X55.802 Y74.114 E4.82647
G1 X56.693 Y73.968 E4.85049
G1 X57.734 Y73.898 E4.87825
G1 X58.553 Y73.885 E4.90005
G1 X71.613 Y73.882 E5.24755
G1 X72.489 Y73.894 E5.27086
G1 X73.391 Y73.948 E5.29491
G1 X74.284 Y74.081 E5.31893
G1 X75.591 Y74.427 E5.3549
G1 X76.398 Y74.699 E5.37756
G1 X77.341 Y75.032 E5.40417
G1 X79.779 Y75.816 E5.47232
G1 X82.207 Y76.522 E5.5396
G1 X84.742 Y77.183 E5.6093
G1 X85.487 Y77.365 E5.62971
G1 X86.132 Y77.541 E5.6475
G1 X86.99 Y77.824 E5.67154
G1 X87.819 Y78.181 E5.69555
G1 X88.614 Y78.611 E5.7196
G1 X89.367 Y79.109 E5.74362
G1 X90.073 Y79.672 E5.76765
G1 X90.727 Y80.296 E5.7917
G1 X91.322 Y80.974 E5.81571
G1 X91.998 Y81.911 E5.84645
G1 X92.516 Y82.797 E5.87376
G1 X92.901 Y83.614 E5.89779
G1 X93.213 Y84.461 E5.92181
G1 X93.448 Y85.333 E5.94584
G1 X93.605 Y86.223 E5.96988
G1 X93.691 Y87.428 E6.00203
G1 X93.695 Y87.759 E6.01084
G1 X93.666 Y88.661 E6.03485
G1 X93.594 Y89.319 E6.05246
G1 X93.228 Y91.892 E6.12161
G1 X92.939 Y94.44 E6.18984
G1 X92.721 Y96.997 E6.25813
G1 X92.673 Y97.677 E6.27627
G1 X92.569 Y98.574 E6.30029
G1 X92.387 Y99.458 E6.32431
G1 X92.126 Y100.323 E6.34835
G1 X91.79 Y101.161 E6.37237
G1 X91.382 Y101.967 E6.39641
G1 X90.903 Y102.733 E6.42045
G1 X90.359 Y103.454 E6.44448
G1 X89.753 Y104.123 E6.4685
G1 X89.091 Y104.737 E6.49252
G1 X88.376 Y105.289 E6.51656
G1 X87.616 Y105.777 E6.54059
G1 X86.815 Y106.195 E6.56463
G1 X85.981 Y106.54 E6.58865
G1 X85.119 Y106.811 E6.61269
G1 X84.524 Y106.95 E6.62895
G1 X83.581 Y107.141 E6.65455
G1 X82.689 Y107.308 E6.6787
G1 X80.24 Y107.838 E6.74537
G1 X77.77 Y108.446 E6.81305
G1 X75.419 Y109.099 E6.87798
G1 X74.825 Y109.253 E6.8943
G1 X73.941 Y109.438 E6.91833
G1 X73.044 Y109.544 E6.94237
G1 X72.458 Y109.57 E6.95798
G1 X71.755 Y109.581 E6.97668
G1 X68.867 Y109.582 E7.05353
G1 X66.261 Y109.619 E7.12288
G1 X63.696 Y109.728 E7.19119
G1 X61.205 Y109.904 E7.25763
G1 X58.519 Y110.172 E7.32946
G1 X57.26 Y110.316 E7.36318
G1 X56.388 Y110.378 E7.38644
G1 X55.757 Y110.391 E7.40323
G1 X53.362 Y110.385 E7.46696
G1 X52.142 Y110.391 E7.49942
G1 X51.278 Y110.382 E7.52241
G1 X50.376 Y110.332 E7.54645
G1 X49.483 Y110.202 E7.57046
G1 X48.604 Y109.994 E7.59449
G1 X47.747 Y109.708 E7.61853
G1 X46.919 Y109.348 E7.64256
G1 X46.126 Y108.917 E7.66657
G1 X45.374 Y108.416 E7.69061
G1 X44.669 Y107.851 E7.71465
G1 X44.017 Y107.226 E7.73869
G1 X43.423 Y106.546 E7.76271
G1 X42.892 Y105.816 E7.78673
G1 X42.427 Y105.042 E7.81075
G1 X42.032 Y104.23 E7.83478
G1 X41.711 Y103.386 E7.85881
G1 X41.465 Y102.516 E7.88286
G1 X41.298 Y101.629 E7.90688
G1 X41.2 Y100.496 E7.93714
G1 X41.186 Y99.891 E7.95324
G1 X41.186 Y89.719 E8.2239
G0 F7500 X40.786 Y89.713
G1 F1500 X40.797 Y89.007 E8.24269
G1 X40.852 Y88.088 E8.26718
G1 X41.004 Y87.083 E8.29423
G1 X41.578 Y84.227 E8.37174
G1 X41.765 Y83.227 E8.39881
G1 X41.973 Y82.33 E8.42331
G1 X42.259 Y81.455 E8.44781
G1 X42.62 Y80.608 E8.4723
G1 X43.053 Y79.795 E8.49681
G1 X43.554 Y79.023 E8.5213
G1 X44.121 Y78.298 E8.54579
G1 X44.749 Y77.624 E8.5703
G1 X45.432 Y77.007 E8.59479
G1 X46.167 Y76.453 E8.61928
G1 X46.947 Y75.963 E8.64379
G1 X47.767 Y75.544 E8.6683
G1 X48.619 Y75.197 E8.69277
G1 X49.499 Y74.925 E8.71728
G1 X50.383 Y74.734 E8.74135
G1 X51.628 Y74.52 E8.77496
G1 X54.26 Y74.029 E8.8462
G1 X55.72 Y73.723 E8.88589
G1 X56.628 Y73.573 E8.91038
G1 X57.728 Y73.498 E8.93972
G1 X58.547 Y73.485 E8.96151
G1 X71.613 Y73.482 E9.30917
G1 X72.495 Y73.494 E9.33264
G1 X73.414 Y73.548 E9.35714
G1 X74.325 Y73.682 E9.38164
G1 X75.221 Y73.894 E9.40614
G1 X75.719 Y74.048 E9.42001
G1 X76.674 Y74.371 E9.44683
G1 X77.491 Y74.66 E9.46989
G1 X79.898 Y75.434 E9.53717
G1 X82.315 Y76.137 E9.60414
G1 X84.874 Y76.804 E9.67451
G1 X85.582 Y76.977 E9.6939
G1 X86.241 Y77.156 E9.71207
G1 X87.115 Y77.443 E9.73655
G1 X87.962 Y77.806 E9.76107
G1 X88.773 Y78.241 E9.78556
G1 X89.544 Y78.744 E9.81005
G1 X90.268 Y79.312 E9.83454
G1 X90.94 Y79.942 E9.85905
G1 X91.555 Y80.627 E9.88354
G1 X92.33 Y81.687 E9.91848
G1 X92.862 Y82.595 E9.94648
G1 X93.257 Y83.426 E9.97096
G1 X93.578 Y84.289 E9.99546
G1 X93.823 Y85.177 E10.01997
G1 X93.99 Y86.082 E10.04446
G1 X94.091 Y87.423 E10.08024
G1 X94.095 Y87.754 E10.08905
G1 X94.066 Y88.674 E10.11354
G1 X93.99 Y89.375 E10.1323
G1 X93.623 Y91.957 E10.2017
G1 X93.34 Y94.448 E10.2684
G1 X93.118 Y97.062 E10.33821
G1 X93.072 Y97.705 E10.35536
G1 X92.967 Y98.62 E10.37987
G1 X92.783 Y99.522 E10.40436
G1 X92.521 Y100.405 E10.42887
G1 X92.184 Y101.261 E10.45335
G1 X91.774 Y102.085 E10.47784
G1 X91.293 Y102.871 E10.50236
G1 X90.747 Y103.612 E10.52685
G1 X90.138 Y104.302 E10.55134
G1 X89.471 Y104.937 E10.57584
G1 X88.752 Y105.512 E10.60034
G1 X87.986 Y106.022 E10.62482
G1 X87.178 Y106.464 E10.64933
G1 X86.335 Y106.834 E10.67382
G1 X85.463 Y107.13 E10.69833
G1 X84.603 Y107.342 E10.72189
G1 X83.66 Y107.533 E10.7475
G1 X82.775 Y107.699 E10.77145
G1 X80.322 Y108.23 E10.83824
G1 X77.868 Y108.834 E10.90548
G1 X75.526 Y109.484 E10.97015
G1 X74.924 Y109.64 E10.9867
G1 X74.023 Y109.83 E11.0112
G1 X73.109 Y109.94 E11.0357
G1 X72.464 Y109.97 E11.05288
G1 X71.761 Y109.981 E11.07158
G1 X68.873 Y109.982 E11.14843
G1 X66.248 Y110.019 E11.21828
G1 X63.74 Y110.126 E11.28508
G1 X61.236 Y110.303 E11.35187
G1 X58.538 Y110.572 E11.42401
G1 X57.305 Y110.713 E11.45704
G1 X56.4 Y110.778 E11.48118
G1 X55.756 Y110.791 E11.49832
G1 X53.363 Y110.785 E11.56199
G1 X52.144 Y110.791 E11.59443
G1 X51.274 Y110.782 E11.61758
G1 X50.354 Y110.732 E11.64209
G1 X49.443 Y110.602 E11.66658
G1 X48.546 Y110.393 E11.69108
G1 X47.671 Y110.107 E11.71558
G1 X46.824 Y109.747 E11.74007
G1 X46.011 Y109.314 E11.76458
G1 X45.239 Y108.812 E11.78908
G1 X44.514 Y108.246 E11.81355
G1 X43.84 Y107.618 E11.83806
G1 X43.223 Y106.935 E11.86255
G1 X42.668 Y106.2 E11.88706
G1 X42.179 Y105.42 E11.91156
G1 X41.759 Y104.601 E11.93605
G1 X41.412 Y103.748 E11.96055
G1 X41.141 Y102.868 E11.98505
G1 X40.946 Y101.968 E12.00955
G1 X40.831 Y101.055 E12.03404
G1 X40.8 Y100.508 E12.04862
G1 X40.786 Y99.891 E12.06504
G1 X40.786 Y89.713 E12.33585
G1 F1500 E8.33585
;MESH:void_switch-v33.stl
G0 F7500 X50.732 Y100.845
G0 X53.419 Y100.844
G0 X54.079 Y94.394
G0 X54.712 Y92.341
;TYPE:WALL-INNER
G1 F1500 E12.33585
G1 X54.712 Y89.921 E12.40025
G1 X54.076 Y90.071 E12.41763
G1 X53.268 Y90.071 E12.43913
G1 X52.786 Y89.968 E12.45225
G1 X52.786 Y92.341 E12.51539
G1 X54.712 Y92.341 E12.56664
G0 F7500 X55.112 Y92.867
G1 F1500 X55.112 Y89.622 E12.65298
G1 X54.882 Y89.569 E12.65926
G1 X54.701 Y89.44 E12.66517
G1 X54.519 Y89.569 E12.67111
G1 X54.076 Y89.671 E12.6832
G1 X53.268 Y89.671 E12.7047
G1 X52.858 Y89.584 E12.71586
G1 X52.721 Y89.495 E12.7202
G1 X52.584 Y89.584 E12.72455
G1 X52.386 Y89.626 E12.72994
G1 X52.383 Y92.869 E12.81623
G1 X52.766 Y92.741 E12.82697
G1 X54.732 Y92.741 E12.87928
G1 X55.112 Y92.867 E12.88994
G0 F7500 X55.422 Y93.741
G1 F1121.5 X55.467 Y93.396 E12.90232
G1 F1348.3 X55.512 Y93.051 E12.91262
G1 F1500 X55.512 Y89.335 E13.01149
G1 X55.475 Y89.271 E13.01346
G1 X55.325 Y89.271 E13.01745
G1 X55.059 Y89.21 E13.02471
G1 X54.903 Y89.099 E13.02981
G1 F1405.2 X54.7 Y88.725 E13.04189
G1 X54.499 Y89.099 E13.05395
G1 F1500 X54.342 Y89.21 E13.05907
G1 X54.076 Y89.271 E13.06633
G1 X53.268 Y89.271 E13.08783
G1 X53.022 Y89.219 E13.09452
G1 X52.866 Y89.118 E13.09947
G1 X52.721 Y88.823 E13.10821
G1 X52.575 Y89.118 E13.11697
G1 X52.42 Y89.219 E13.12189
G1 X52.173 Y89.271 E13.12861
G1 X52.022 Y89.271 E13.13263
G1 X51.985 Y89.335 E13.13459
G1 X51.983 Y93.051 E13.23347
G1 F1348.3 X52.029 Y93.396 E13.24377
G1 F1121.5 X52.076 Y93.741 E13.25616
G1 X52.24 Y93.501 E13.26651
G1 F1348.3 X52.404 Y93.261 E13.27511
G1 F1500 X52.766 Y93.141 E13.28526
G1 X54.732 Y93.141 E13.33757
G1 X55.093 Y93.26 E13.34769
G1 F1348.3 X55.257 Y93.5 E13.35629
G1 F1121.5 X55.422 Y93.741 E13.36669
G1 F1500 E9.36669
G0 F7500 X56.777 Y93.741
G0 X56.777 Y99.991
G0 X55.912 Y99.991
;TYPE:WALL-OUTER
G1 F1500 E13.36669
G1 X55.912 Y89.227 E13.65309
G1 X55.705 Y88.871 E13.66405
G1 X55.325 Y88.871 E13.67416
G1 X55.184 Y88.814 E13.67821
G1 X55.125 Y88.689 E13.68189
G1 X55.124 Y85.371 E13.77017
G1 X54.276 Y85.371 E13.79274
G1 X54.276 Y88.689 E13.88102
G1 X54.217 Y88.814 E13.8847
G1 X54.076 Y88.871 E13.88875
G1 X53.207 Y88.871 E13.91187
G1 F1263.2 X52.994 Y88.695 E13.9206
G1 F1092.9 X52.994 Y87.069 E13.97998
G1 F1096.9 X52.994 Y85.443 E14.03915
G1 X52.447 Y85.444 E14.05905
G1 X52.447 Y87.07 E14.11821
G1 F1092.9 X52.447 Y88.696 E14.17759
G1 F1263.2 X52.236 Y88.871 E14.18626
G1 F1500 X51.792 Y88.871 E14.19807
G1 X51.585 Y89.227 E14.20903
G1 X51.586 Y99.991 E14.49544
G1 X52.566 Y99.991 E14.52151
G1 X52.566 Y93.741 E14.68781
G1 X52.645 Y93.581 E14.69256
G1 X52.766 Y93.541 E14.69595
G1 X54.732 Y93.541 E14.74826
G1 X54.853 Y93.58 E14.75165
G1 X54.932 Y93.741 E14.75642
G1 X54.932 Y99.991 E14.92272
G1 X55.912 Y99.991 E14.9488
G0 F7500 X55.422 Y99.501
;TYPE:WALL-INNER
G1 F1034.5 X55.422 Y93.741 E15.17103
G1 F1500 E11.17103
G0 F7500 X54.079 Y94.394
G0 X53.419 Y94.394
G0 X52.076 Y93.741
G1 F1500 E15.17103
G1 F1034.5 X52.076 Y99.501 E15.39326
G1 F1500 E11.39326
G0 F7500 X53.431 Y99.501
G0 X54.079 Y100.844
G0 X56.765 Y100.844
G0 X56.775 Y88.993
G0 X56.201 Y88.012
G0 X54.7 Y88.725
G1 F1500 E15.39326
G1 F1324.5 X54.7 Y87.26 E15.4374
G1 F1330.4 X54.7 Y85.795 E15.48135
G1 F1500 E11.48135
G0 F7500 X55.989 Y85.794
G0 X56.775 Y88.993
G0 X56.777 Y91.981
G0 X54.352 Y91.981
;TYPE:SKIN
G1 F1500 E15.48135
G1 X54.352 Y90.372 E15.52417
G1 X54.072 Y90.431 E15.53178
G1 X53.233 Y90.428 E15.55411
G1 X53.147 Y90.41 E15.55644
G1 X53.146 Y91.981 E15.59824
G1 X54.352 Y91.981 E15.63033
G0 F7500 X53.879 Y91.78
G1 F1500 X53.346 Y91.247 E15.65039
G0 F7500 X53.346 Y90.681
G1 F1500 X54.152 Y91.487 E15.68072
G0 F7500 X54.152 Y90.921
G1 F1500 X53.861 Y90.63 E15.69167
G1 F1500 E11.69167
G0 F7500 X56.777 Y90.63
G0 X56.794 Y86.382
G0 X58.461 Y86.382
;TYPE:WALL-INNER
G1 F1500 E15.69167
G1 X59.757 Y85.084 E15.74048
G1 X58.461 Y85.084 E15.77496
G1 X58.461 Y86.382 E15.8095
G0 F7500 X58.886 Y85.464
G1 F1666.7 X58.863 Y85.502 E15.81056
G1 X58.796 Y85.464 E15.81241
G1 X58.863 Y85.426 E15.81425
G1 F1500 E11.81425
G0 F7500 X58.152 Y91.161
G1 F1500 E15.81425
G1 F1027.4 X58.257 Y90.919 E15.8245
G1 F1047.1 X58.362 Y90.677 E15.83455
G1 F1056.3 X58.829 Y90.209 E15.85953
G1 F1079.1 X58.582 Y89.964 E15.8724
G1 F1282.1 X58.445 Y89.547 E15.88606
G1 F1534.5 X58.443 Y88.386 E15.91626
G1 F1546.4 X58.44 Y87.225 E15.94623
G1 F1526.7 X58.608 Y86.8 E15.95817
G1 F1500 X60.177 Y85.23 E16.01723
G1 F1515.2 X60.499 Y85.067 E16.02674
G1 F1538.5 X61.661 Y85.065 E16.05689
G1 F1550.4 X62.823 Y85.062 E16.0868
G1 F1411.8 X63.08 Y85.131 E16.09432
G1 F1192.8 X63.339 Y85.201 E16.1033
G1 F1081.1 X63.588 Y85.452 E16.11635
G1 F1056.3 X64.054 Y84.984 E16.14131
G1 F1030.9 X64.419 Y84.781 E16.15748
G1 X63.965 Y84.768 E16.17506
G1 F1056.3 X63.588 Y84.767 E16.1893
G1 F1105 X63.472 Y84.744 E16.19358
G1 F1237.1 X63.147 Y84.71 E16.20412
G1 F1432 X62.822 Y84.676 E16.21323
G1 F1554.4 X60.602 Y84.676 E16.27023
G1 F1542.4 X60.276 Y84.68 E16.27867
G1 F1515.2 X59.95 Y84.684 E16.28725
G1 F1500 X58.06 Y84.684 E16.33754
G1 X58.06 Y86.574 E16.38783
G1 F1515.2 X58.057 Y86.9 E16.39642
G1 F1538.5 X58.053 Y87.226 E16.40488
