;FLAVOR:Marlin
;TIME:1688
;Filament used: 0.415243m
;Layer height: 0.16
;MINX:138.306
;MINY:144.893
;MINZ:0.16
;MAXX:192.417
;MAXY:182.189
;MAXZ:10.4
;Generated with Cura_SteamEngine main
M82 ;absolute extrusion mode
; Ender 3 Custom Start G-code
G92 E0 ; Reset Extruder
G28 ; Home all axes
M104 S120 ; Start heating up the nozzle most of the way
M190 S68.0 ; Start heating the bed, wait until target temperature reached
M109 S252.0 ; Finish heating the nozzle
G1 Z2.0 F3000 ; Move Z Axis up little to prevent scratching of Heat Bed
G1 X0.1 Y20 Z0.3 F5000.0 ; Move to start position
G1 X0.1 Y200.0 Z0.3 F1500.0 E15 ; Draw the first line
G1 X0.4 Y200.0 Z0.3 F5000.0 ; Move to side a little
G1 X0.4 Y20 Z0.3 F1500.0 E30 ; Draw the second line
G92 E0 ; Reset Extruder
G1 Z2.0 F3000 ; Move Z Axis up little to prevent scratching of Heat Bed
G1 X5 Y20 Z0.3 F5000.0 ; Move over to prevent blob squish
G92 E0
G92 E0
G1 F1500 E-8
;LAYER_COUNT:65
;LAYER:0
M107
G0 F6000 X142.293 Y149.24 Z0.16
G0 X139.084 Y156.07
;TYPE:SKIRT
G1 F1500 E0
G1 F900 X139.289 Y154.971 E0.02975
G1 X139.5 Y154.057 E0.05471
G1 X139.789 Y153.164 E0.07968
G1 X140.152 Y152.3 E0.10462
G1 X140.587 Y151.469 E0.12957
G1 X141.092 Y150.678 E0.15454
G1 X141.662 Y149.934 E0.17948
G1 X142.293 Y149.24 E0.20444
G1 X142.982 Y148.603 E0.22941
G1 X143.722 Y148.027 E0.25436
G1 X144.508 Y147.516 E0.27931
G1 X145.335 Y147.074 E0.30426
G1 X146.197 Y146.704 E0.32922
G1 X147.087 Y146.409 E0.35416
G1 X148.245 Y146.145 E0.38577
G1 X149.51 Y145.928 E0.41992
G1 X152.071 Y145.451 E0.48923
G1 X153.559 Y145.139 E0.52969
G1 X154.484 Y144.986 E0.55463
G1 X155.641 Y144.906 E0.58549
G1 X156.453 Y144.893 E0.6071
G1 X169.71 Y144.895 E0.95985
G1 X170.437 Y144.906 E0.97919
G1 X171.374 Y144.96 E1.00416
G1 X172.302 Y145.094 E1.02911
G1 X173.216 Y145.306 E1.05408
G1 X173.831 Y145.497 E1.07121
G1 X176.157 Y146.293 E1.13663
G1 X178.557 Y147.042 E1.20352
G1 X181.01 Y147.733 E1.27133
G1 X182.719 Y148.17 E1.31827
G1 X183.943 Y148.471 E1.35181
G1 X184.844 Y148.734 E1.37678
G1 X185.718 Y149.072 E1.40172
G1 X186.561 Y149.483 E1.42667
G1 X187.366 Y149.965 E1.45164
G1 X188.127 Y150.513 E1.47659
G1 X188.838 Y151.124 E1.50153
G1 X189.495 Y151.794 E1.5265
G1 X190.092 Y152.517 E1.55145
G1 X190.818 Y153.596 E1.58606
G1 X191.312 Y154.514 E1.61379
G1 X191.685 Y155.374 E1.63874
G1 X191.983 Y156.263 E1.66368
G1 X192.204 Y157.175 E1.68865
G1 X192.347 Y158.102 E1.71361
G1 X192.414 Y159.23 E1.74368
G1 X192.417 Y159.632 E1.75437
G1 X192.384 Y160.569 E1.77932
G1 X192.309 Y161.254 E1.79766
G1 X191.965 Y163.687 E1.86304
G1 X191.68 Y166.199 E1.93031
G1 X191.463 Y168.748 E1.99838
G1 X191.391 Y169.754 E2.02521
G1 X191.285 Y170.685 E2.05014
G1 X191.099 Y171.605 E2.07512
G1 X190.836 Y172.505 E2.10007
G1 X190.497 Y173.379 E2.12501
G1 X190.085 Y174.222 E2.14998
G1 X189.603 Y175.026 E2.17492
G1 X189.054 Y175.787 E2.19989
G1 X188.442 Y176.497 E2.22483
G1 X187.772 Y177.153 E2.24978
G1 X187.048 Y177.75 E2.27475
G1 X186.276 Y178.283 E2.29971
G1 X185.462 Y178.748 E2.32465
G1 X184.611 Y179.142 E2.34961
G1 X183.729 Y179.462 E2.37457
G1 X182.824 Y179.706 E2.39951
G1 X182.287 Y179.812 E2.41408
G1 X181.396 Y179.966 E2.43814
G1 X178.826 Y180.447 E2.50771
G1 X176.346 Y180.985 E2.57523
G1 X173.867 Y181.596 E2.64316
G1 X173.042 Y181.813 E2.66586
G1 X172.126 Y182.013 E2.69081
G1 X171.196 Y182.134 E2.71576
G1 X170.417 Y182.174 E2.73652
G1 X169.599 Y182.187 E2.75829
G1 X156.321 Y182.189 E3.11159
G1 X155.595 Y182.178 E3.13091
G1 X154.365 Y182.09 E3.16372
G1 X153.212 Y181.942 E3.19465
G1 X150.613 Y181.647 E3.26425
G1 X148.959 Y181.508 E3.30842
G1 X148.252 Y181.44 E3.32731
G1 X147.323 Y181.31 E3.35227
G1 X146.409 Y181.101 E3.37722
G1 X145.516 Y180.815 E3.40217
G1 X144.65 Y180.454 E3.42714
G1 X143.819 Y180.02 E3.45208
G1 X143.027 Y179.517 E3.47705
G1 X142.281 Y178.949 E3.50199
G1 X141.586 Y178.319 E3.52695
G1 X140.948 Y177.632 E3.5519
G1 X140.37 Y176.893 E3.57686
G1 X139.857 Y176.108 E3.60182
G1 X139.413 Y175.281 E3.62679
G1 X139.041 Y174.42 E3.65175
G1 X138.744 Y173.531 E3.67669
G1 X138.524 Y172.619 E3.70165
G1 X138.382 Y171.692 E3.7266
G1 X138.321 Y170.811 E3.7501
G1 X138.306 Y170.147 E3.76777
G1 X138.307 Y161.515 E3.99746
G1 X138.318 Y160.808 E4.01627
G1 X138.373 Y159.872 E4.04122
G1 X138.533 Y158.811 E4.06977
G1 X139.084 Y156.07 E4.14416
G1 F1500 E-3.85584
G0 F6000 X139.107 Y161.527
G1 F1500 E4.14416
G1 F900 X139.118 Y160.82 E4.16297
G1 X139.172 Y159.919 E4.18699
G1 X139.317 Y158.969 E4.21256
G1 X139.879 Y156.175 E4.28839
G1 X140.076 Y155.117 E4.31703
G1 X140.28 Y154.238 E4.34104
G1 X140.562 Y153.38 E4.36507
G1 X140.919 Y152.55 E4.38911
G1 X141.347 Y151.755 E4.41314
G1 X141.844 Y151.001 E4.43716
G1 X142.406 Y150.294 E4.4612
G1 X143.028 Y149.639 E4.48523
G1 X143.706 Y149.042 E4.50927
G1 X144.434 Y148.508 E4.53329
G1 X145.206 Y148.039 E4.55733
G1 X146.017 Y147.641 E4.58136
G1 X146.859 Y147.317 E4.60537
G1 X147.727 Y147.068 E4.6294
G1 X148.38 Y146.934 E4.64713
G1 X149.581 Y146.728 E4.67956
G1 X152.25 Y146.231 E4.75179
G1 X153.723 Y145.922 E4.79184
G1 X154.614 Y145.776 E4.81587
G1 X155.654 Y145.706 E4.8436
G1 X156.631 Y145.692 E4.8696
G1 X169.698 Y145.695 E5.21729
G1 X170.425 Y145.706 E5.23663
G1 X171.327 Y145.76 E5.26068
G1 X172.22 Y145.893 E5.2847
G1 X173.098 Y146.105 E5.30873
G1 X173.572 Y146.254 E5.32195
G1 X175.913 Y147.055 E5.38779
G1 X178.321 Y147.807 E5.45491
G1 X180.808 Y148.507 E5.52366
G1 X182.514 Y148.944 E5.57052
G1 X183.752 Y149.248 E5.60444
G1 X184.619 Y149.502 E5.62848
G1 X185.46 Y149.832 E5.65251
G1 X186.268 Y150.235 E5.67654
G1 X187.038 Y150.707 E5.70057
G1 X187.762 Y151.246 E5.72459
G1 X188.437 Y151.847 E5.74864
G1 X189.055 Y152.505 E5.77265
G1 X189.613 Y153.215 E5.79668
G1 X190.138 Y154.018 E5.82221
G1 X190.607 Y154.893 E5.84863
G1 X190.962 Y155.723 E5.87265
G1 X191.242 Y156.582 E5.89669
G1 X191.445 Y157.462 E5.92072
G1 X191.569 Y158.356 E5.94473
G1 X191.614 Y159.236 E5.96818
G1 X191.617 Y159.638 E5.97887
G1 X191.583 Y160.54 E6.00289
G1 X191.517 Y161.142 E6.01901
G1 X191.171 Y163.593 E6.08487
G1 X190.885 Y166.113 E6.15235
G1 X190.664 Y168.695 E6.2213
G1 X190.593 Y169.697 E6.24803
G1 X190.489 Y170.594 E6.27206
G1 X190.306 Y171.478 E6.29608
G1 X190.046 Y172.343 E6.32011
G1 X189.71 Y173.181 E6.34414
G1 X189.301 Y173.987 E6.36819
G1 X188.823 Y174.753 E6.39221
G1 X188.279 Y175.473 E6.41622
G1 X187.673 Y176.143 E6.44026
G1 X187.01 Y176.756 E6.46429
G1 X186.296 Y177.309 E6.48832
G1 X185.535 Y177.796 E6.51236
G1 X184.735 Y178.214 E6.53637
G1 X183.9 Y178.56 E6.56042
G1 X183.039 Y178.83 E6.58443
G1 X182.151 Y179.024 E6.60862
G1 X181.189 Y179.19 E6.63459
G1 X178.687 Y179.659 E6.70233
G1 X176.154 Y180.207 E6.77128
G1 X173.666 Y180.821 E6.83947
G1 X172.838 Y181.039 E6.86225
G1 X171.956 Y181.23 E6.88627
G1 X171.06 Y181.342 E6.91029
G1 X170.404 Y181.374 E6.92777
G1 X169.586 Y181.387 E6.94954
G1 X156.333 Y181.389 E7.30217
G1 X155.607 Y181.378 E7.32149
G1 X154.467 Y181.296 E7.3519
G1 X153.339 Y181.152 E7.38216
G1 X150.701 Y180.852 E7.45281
G1 X148.895 Y180.699 E7.50103
G1 X148.329 Y180.644 E7.51616
G1 X147.435 Y180.517 E7.54019
G1 X146.556 Y180.311 E7.56421
G1 X145.698 Y180.029 E7.58824
G1 X144.869 Y179.671 E7.61227
G1 X144.074 Y179.242 E7.63631
G1 X143.321 Y178.744 E7.66033
G1 X142.614 Y178.182 E7.68436
G1 X141.961 Y177.559 E7.70837
G1 X141.364 Y176.88 E7.73243
G1 X140.83 Y176.152 E7.75645
G1 X140.363 Y175.379 E7.78049
G1 X139.966 Y174.568 E7.80451
G1 X139.642 Y173.725 E7.82854
G1 X139.394 Y172.857 E7.85256
G1 X139.224 Y171.97 E7.87659
G1 X139.12 Y170.788 E7.90816
G1 X139.106 Y170.147 E7.92522
G1 X139.107 Y161.527 E8.15459
G0 F6000 X138.707 Y161.521
G1 F900 X138.718 Y160.814 E8.1734
G1 X138.773 Y159.895 E8.1979
G1 X138.925 Y158.89 E8.22494
G1 X139.488 Y156.088 E8.30099
G1 X139.683 Y155.044 E8.32925
G1 X139.89 Y154.147 E8.35374
G1 X140.175 Y153.272 E8.37823
G1 X140.535 Y152.424 E8.40274
G1 X140.967 Y151.611 E8.42724
G1 X141.468 Y150.839 E8.45173
G1 X142.034 Y150.113 E8.47622
G1 X142.661 Y149.439 E8.50071
G1 X143.344 Y148.821 E8.52522
G1 X144.078 Y148.266 E8.54971
G1 X144.858 Y147.776 E8.57422
G1 X145.677 Y147.355 E8.59872
G1 X146.529 Y147.008 E8.6232
G1 X147.409 Y146.735 E8.64771
G1 X148.312 Y146.539 E8.6723
G1 X149.585 Y146.321 E8.70667
G1 X152.181 Y145.837 E8.77693
G1 X153.641 Y145.531 E8.81662
G1 X154.549 Y145.381 E8.84111
G1 X155.647 Y145.306 E8.87039
G1 X156.459 Y145.293 E8.892
G1 X169.704 Y145.295 E9.24443
G1 X170.431 Y145.306 E9.26377
G1 X171.35 Y145.36 E9.28827
G1 X172.261 Y145.494 E9.31277
G1 X173.157 Y145.706 E9.33727
G1 X173.701 Y145.875 E9.35243
G1 X176.046 Y146.677 E9.41837
G1 X178.434 Y147.423 E9.48494
G1 X180.89 Y148.114 E9.55283
G1 X182.712 Y148.581 E9.60287
G1 X183.848 Y148.86 E9.634
G1 X184.732 Y149.118 E9.6585
G1 X185.59 Y149.452 E9.683
G1 X186.415 Y149.859 E9.70748
G1 X187.203 Y150.336 E9.73199
G1 X187.946 Y150.88 E9.75649
G1 X188.639 Y151.486 E9.78098
G1 X189.276 Y152.15 E9.80547
G1 X189.854 Y152.867 E9.82997
G1 X190.477 Y153.805 E9.85993
G1 X190.96 Y154.703 E9.88706
G1 X191.324 Y155.549 E9.91157
G1 X191.613 Y156.423 E9.93606
G1 X191.825 Y157.319 E9.96056
G1 X191.959 Y158.23 E9.98506
G1 X192.014 Y159.233 E10.01179
G1 X192.017 Y159.635 E10.02249
G1 X191.984 Y160.555 E10.04698
G1 X191.913 Y161.198 E10.0642
G1 X191.565 Y163.658 E10.1303
G1 X191.286 Y166.12 E10.19623
G1 X191.058 Y168.792 E10.26759
G1 X190.992 Y169.725 E10.29248
G1 X190.887 Y170.64 E10.31698
G1 X190.703 Y171.542 E10.34148
G1 X190.441 Y172.424 E10.36596
G1 X190.104 Y173.281 E10.39046
G1 X189.693 Y174.105 E10.41496
G1 X189.213 Y174.891 E10.43947
G1 X188.666 Y175.631 E10.46395
G1 X188.057 Y176.322 E10.48846
G1 X187.391 Y176.957 E10.51295
G1 X186.671 Y177.532 E10.53746
G1 X185.905 Y178.042 E10.56195
G1 X185.097 Y178.484 E10.58646
G1 X184.254 Y178.854 E10.61095
G1 X183.382 Y179.149 E10.63545
G1 X182.219 Y179.418 E10.66721
G1 X181.332 Y179.571 E10.69116
G1 X178.732 Y180.058 E10.76154
G1 X176.27 Y180.591 E10.82857
G1 X173.736 Y181.216 E10.89801
G1 X172.94 Y181.426 E10.91992
G1 X172.041 Y181.621 E10.9444
G1 X171.127 Y181.738 E10.96891
G1 X170.41 Y181.774 E10.98802
G1 X169.592 Y181.787 E11.00978
G1 X156.327 Y181.789 E11.36274
G1 X155.601 Y181.778 E11.38206
G1 X154.416 Y181.693 E11.41367
G1 X153.241 Y181.543 E11.44519
G1 X150.692 Y181.253 E11.51345
G1 X148.992 Y181.11 E11.55885
G1 X148.291 Y181.042 E11.57759
G1 X147.379 Y180.914 E11.60209
G1 X146.482 Y180.706 E11.62659
G1 X145.607 Y180.422 E11.65107
G1 X144.759 Y180.062 E11.67558
G1 X143.946 Y179.631 E11.70007
G1 X143.173 Y179.13 E11.72458
G1 X142.447 Y178.565 E11.74905
G1 X141.772 Y177.938 E11.77357
G1 X141.154 Y177.256 E11.79806
G1 X140.598 Y176.522 E11.82256
G1 X140.108 Y175.743 E11.84704
G1 X139.687 Y174.924 E11.87155
G1 X139.339 Y174.072 E11.89604
G1 X139.066 Y173.192 E11.92055
G1 X138.87 Y172.293 E11.94503
G1 X138.753 Y171.38 E11.96953
G1 X138.72 Y170.799 E11.98501
G1 X138.706 Y170.147 E12.00236
G1 X138.707 Y161.521 E12.23188
G1 F1500 E4.23188
;MESH:void_switch-v30.stl
G0 F6000 X148.641 Y162.556
G0 X150.799 Y162.556
;TYPE:WALL-INNER
G1 F1500 E12.23188
G1 F613.3 X151.668 Y162.555 E12.26582
G1 F609.1 X152.537 Y162.553 E12.29998
G1 F607.1 X152.537 Y161.859 E12.32736
G1 F609.1 X152.171 Y161.971 E12.3424
G1 F613.3 X151.107 Y161.971 E12.38395
G1 F614.3 X150.8 Y161.896 E12.39627
G1 X150.799 Y162.556 E12.422
G0 F6000 X150.304 Y163.177
G1 F900 X150.687 Y163.049 E12.43274
G1 X152.652 Y163.049 E12.48503
G1 X153.033 Y163.174 E12.4957
G1 X153.033 Y161.43 E12.5421
G1 X152.803 Y161.377 E12.54838
G1 X152.622 Y161.248 E12.55429
G1 X152.44 Y161.377 E12.56023
G1 X152.106 Y161.479 E12.56952
G1 X151.134 Y161.478 E12.59539
G1 X150.779 Y161.392 E12.6051
G1 X150.642 Y161.303 E12.60945
G1 X150.505 Y161.392 E12.6138
G1 X150.307 Y161.434 E12.61918
G1 X150.304 Y163.177 E12.66556
G0 F6000 X149.997 Y164.049
G1 F672.9 X150.161 Y163.809 E12.67591
G1 F809 X150.325 Y163.569 E12.68451
G1 F900 X150.687 Y163.449 E12.69466
G1 X152.652 Y163.449 E12.74694
G1 X153.015 Y163.568 E12.75711
G1 F809 X153.178 Y163.808 E12.7657
G1 F671.6 X153.342 Y164.049 E12.77609
G1 X153.387 Y163.704 E12.7885
G1 F809 X153.433 Y163.359 E12.7988
G1 F900 X153.433 Y161.143 E12.85776
G1 X153.396 Y161.079 E12.85973
G1 X153.246 Y161.079 E12.86372
G1 X152.98 Y161.018 E12.87098
G1 X152.824 Y160.907 E12.87608
G1 F843.1 X152.621 Y160.533 E12.88816
G1 X152.42 Y160.907 E12.90022
G1 F900 X152.263 Y161.018 E12.90534
G1 X152.079 Y161.074 E12.91046
G1 X151.156 Y161.079 E12.93502
G1 X150.943 Y161.027 E12.94085
G1 X150.787 Y160.926 E12.9458
G1 X150.642 Y160.631 E12.95454
G1 X150.496 Y160.926 E12.9633
G1 X150.341 Y161.027 E12.96822
G1 X150.094 Y161.079 E12.97494
G1 X149.943 Y161.079 E12.97896
G1 X149.906 Y161.143 E12.98092
G1 X149.904 Y163.359 E13.03989
G1 F809 X149.95 Y163.704 E13.05019
G1 F672.9 X149.997 Y164.049 E13.06258
G1 F1500 E5.06258
G0 F6000 X148.641 Y164.049
G0 X148.641 Y170.3
G0 X149.507 Y170.3
;TYPE:WALL-OUTER
G1 F1500 E13.06258
G1 F900 X150.487 Y170.299 E13.08866
G1 X150.487 Y164.049 E13.25496
G1 X150.566 Y163.889 E13.25971
G1 X150.687 Y163.849 E13.2631
G1 X152.652 Y163.849 E13.31538
G1 X152.773 Y163.888 E13.31876
G1 X152.852 Y164.049 E13.32354
G1 X152.853 Y170.299 E13.48984
G1 X153.833 Y170.299 E13.51591
G1 X153.833 Y161.035 E13.76241
G1 X153.626 Y160.679 E13.77337
G1 X153.246 Y160.679 E13.78348
G1 X153.105 Y160.622 E13.78753
G1 X153.046 Y160.497 E13.7912
G1 X153.045 Y157.179 E13.87949
G1 X152.197 Y157.179 E13.90205
G1 X152.197 Y160.497 E13.99034
G1 X152.138 Y160.622 E13.99402
G1 X152.025 Y160.678 E13.99737
G1 X151.128 Y160.679 E14.02124
G1 F757.9 X150.915 Y160.503 E14.02997
G1 F655.7 X150.915 Y158.877 E14.08935
G1 F658.1 X150.915 Y157.251 E14.14852
G1 X150.368 Y157.252 E14.16842
G1 X150.368 Y158.878 E14.22758
G1 F655.7 X150.368 Y160.504 E14.28696
G1 F757.9 X150.157 Y160.679 E14.29563
G1 F900 X149.713 Y160.679 E14.30744
G1 X149.506 Y161.035 E14.3184
G1 X149.507 Y170.3 E14.56492
G0 F6000 X149.997 Y169.809
;TYPE:WALL-INNER
G1 F620.7 X149.997 Y164.049 E14.78715
G1 F1500 E6.78715
G0 F6000 X151.34 Y164.702
G0 X151.999 Y164.702
G0 X153.342 Y164.049
G1 F1500 E14.78715
G1 F619.6 X153.342 Y166.929 E14.89846
G1 F620.7 X153.343 Y169.809 E15.00958
G1 F1500 E7.00958
G0 F6000 X151.988 Y169.81
G0 X152 Y171.152
G0 X154.686 Y171.153
G0 X154.696 Y160.801
G0 X154.122 Y159.82
G0 X152.621 Y160.533
G1 F1500 E15.00958
G1 F794.7 X152.621 Y159.068 E15.05372
G1 F798.2 X152.621 Y157.603 E15.09767
G1 F1500 E7.09767
G0 F6000 X153.91 Y157.602
G0 X154.715 Y157.927
G0 X156.461 Y157.927
G1 F1500 E15.09767
G1 F644 X157.414 Y156.973 E15.14781
G1 X156.461 Y156.972 E15.18325
G1 X156.461 Y157.927 E15.21876
G1 F1500 E7.21876
G0 F6000 X156.047 Y162.931
G1 F1500 E15.21876
G1 F665.4 X156.238 Y162.455 E15.23722
G1 F659.3 X156.714 Y161.979 E15.26167
G1 F674.2 X156.472 Y161.737 E15.27383
G1 F803.6 X156.336 Y161.328 E15.28667
G1 F967.7 X156.335 Y160.552 E15.30587
G1 F973 X156.334 Y159.776 E15.32497
G1 F978.3 X156.333 Y159 E15.34397
G1 F939.9 X156.49 Y158.574 E15.35554
G1 F900 X158.065 Y156.999 E15.4148
G1 F932.6 X158.389 Y156.846 E15.424
G1 F973 X159.553 Y156.844 E15.45265
G1 F980.9 X160.717 Y156.841 E15.48107
G1 F891.1 X160.97 Y156.909 E15.48811
G1 F748.4 X161.223 Y156.978 E15.4965
G1 F676.7 X161.469 Y157.225 E15.50884
G1 F660.6 X161.945 Y156.748 E15.53327
G1 F661.8 X162.305 Y156.563 E15.54791
G1 X161.469 Y156.566 E15.57817
G1 F692.3 X161.351 Y156.542 E15.58233
G1 F777.5 X161.034 Y156.509 E15.59215
G1 F904.5 X160.717 Y156.476 E15.60059
G1 F980.9 X159.537 Y156.477 E15.62939
G1 F973 X158.357 Y156.478 E15.65844
G1 F949.9 X158.106 Y156.486 E15.66477
G1 F916 X157.855 Y156.494 E15.67133
G1 F900 X155.982 Y156.493 E15.72117
G1 X155.982 Y158.364 E15.77095
G1 F920.7 X155.973 Y158.682 E15.77923
G1 F960 X155.964 Y159 E15.78716
G1 F978.3 X155.964 Y159.786 E15.8064
G1 F973 X155.965 Y160.573 E15.82577
G1 F967.7 X155.966 Y161.36 E15.84525
G1 F888.9 X155.998 Y161.611 E15.85207
G1 F770.9 X156.03 Y161.862 E15.85993
G1 F689.7 X156.055 Y161.979 E15.86408
G1 F663 X156.051 Y162.455 E15.88127
G1 F669.1 X156.047 Y162.931 E15.89831
G1 F1500 E7.89831
G0 F6000 X154.715 Y162.931
G0 X154.715 Y169.79
G0 X156.78 Y169.79
G1 F1500 E15.89831
