;FLAVOR:Marlin
;TIME:1978
;Filament used: 0.422882m
;Layer height: 0.16
;MINX:83.095
;MINY:91.235
;MINZ:0.16
;MAXX:137.202
;MAXY:128.535
;MAXZ:10.4
;Generated with Cura_SteamEngine main
M82 ;absolute extrusion mode
; Ender 3 Custom Start G-code
G92 E0 ; Reset Extruder
G28 ; Home all axes
M104 S120 ; Start heating up the nozzle most of the way
M190 S68.0 ; Start heating the bed, wait until target temperature reached
M109 S248.0 ; Finish heating the nozzle
G1 Z2.0 F3000 ; Move Z Axis up little to prevent scratching of Heat Bed
G1 X0.1 Y20 Z0.3 F5000.0 ; Move to start position
G1 X0.1 Y200.0 Z0.3 F1500.0 E15 ; Draw the first line
G1 X0.4 Y200.0 Z0.3 F5000.0 ; Move to side a little
G1 X0.4 Y20 Z0.3 F1500.0 E30 ; Draw the second line
G92 E0 ; Reset Extruder
G1 Z2.0 F3000 ; Move Z Axis up little to prevent scratching of Heat Bed
G1 X5 Y20 Z0.3 F5000.0 ; Move over to prevent blob squish
G92 E0
G92 E0
G1 F1500 E-3.5
;LAYER_COUNT:65
;LAYER:0
M107
G0 F6000 X87.78 Y94.943 Z0.16
G0 X83.878 Y102.386
;TYPE:SKIRT
G1 F1500 E0
G1 F600 X84.081 Y101.306 E0.02924
G1 X84.293 Y100.393 E0.05418
G1 X84.582 Y99.5 E0.07915
G1 X84.946 Y98.636 E0.1041
G1 X85.383 Y97.806 E0.12906
G1 X85.888 Y97.016 E0.15401
G1 X86.459 Y96.272 E0.17896
G1 X87.091 Y95.579 E0.20392
G1 X87.78 Y94.943 E0.22887
G1 X88.521 Y94.368 E0.25382
G1 X89.308 Y93.858 E0.27878
G1 X90.136 Y93.416 E0.30375
G1 X90.998 Y93.047 E0.3287
G1 X91.888 Y92.753 E0.35364
G1 X93.02 Y92.496 E0.38453
G1 X94.038 Y92.32 E0.41202
G1 X97.984 Y91.555 E0.51897
G1 X98.316 Y91.485 E0.52799
G1 X99.241 Y91.33 E0.55295
G1 X100.436 Y91.247 E0.58482
G1 X101.343 Y91.235 E0.60896
G1 X114.53 Y91.237 E0.95984
G1 X115.226 Y91.247 E0.97836
G1 X116.162 Y91.301 E1.00331
G1 X117.091 Y91.434 E1.02828
G1 X118.27 Y91.722 E1.06057
G1 X119.541 Y92.109 E1.09592
G1 X121.981 Y92.818 E1.16353
G1 X124.421 Y93.453 E1.23062
G1 X126.969 Y94.04 E1.30019
G1 X128.38 Y94.343 E1.33859
G1 X129.288 Y94.578 E1.36355
G1 X130.172 Y94.891 E1.3885
G1 X131.027 Y95.277 E1.41346
G1 X131.845 Y95.735 E1.43841
G1 X132.622 Y96.261 E1.46337
G1 X133.351 Y96.851 E1.48833
G1 X134.027 Y97.501 E1.51328
G1 X134.624 Y98.177 E1.53728
G1 X135.196 Y98.921 E1.56225
G1 X135.702 Y99.71 E1.58719
G1 X136.139 Y100.54 E1.61215
G1 X136.504 Y101.404 E1.6371
G1 X136.794 Y102.296 E1.66206
G1 X137.007 Y103.209 E1.68701
G1 X137.141 Y104.138 E1.71198
G1 X137.195 Y105.05 E1.73629
G1 X137.202 Y105.441 E1.7467
G1 X137.179 Y106.379 E1.77166
G1 X137.118 Y107.013 E1.78861
G1 X137.056 Y107.505 E1.8018
G1 X136.804 Y109.283 E1.84959
G1 X136.518 Y111.802 E1.91704
G1 X136.303 Y114.336 E1.98471
G1 X136.24 Y115.436 E2.01403
G1 X136.178 Y116.297 E2.037
G1 X136.07 Y117.229 E2.06196
G1 X135.884 Y118.148 E2.08691
G1 X135.62 Y119.048 E2.11187
G1 X135.281 Y119.922 E2.13681
G1 X134.868 Y120.764 E2.16176
G1 X134.385 Y121.568 E2.18672
G1 X133.836 Y122.328 E2.21167
G1 X133.223 Y123.039 E2.23665
G1 X132.552 Y123.694 E2.2616
G1 X131.828 Y124.29 E2.28655
G1 X131.056 Y124.822 E2.31149
G1 X130.241 Y125.287 E2.33646
G1 X129.39 Y125.68 E2.3614
G1 X128.508 Y126 E2.38637
G1 X127.602 Y126.243 E2.41133
G1 X126.925 Y126.372 E2.42966
G1 X124.375 Y126.775 E2.49836
G1 X121.877 Y127.244 E2.56599
G1 X119.439 Y127.77 E2.63235
G1 X117.624 Y128.21 E2.68204
G1 X116.704 Y128.392 E2.707
G1 X115.771 Y128.495 E2.73197
G1 X115.206 Y128.519 E2.74702
G1 X114.386 Y128.532 E2.76884
G1 X101.278 Y128.535 E3.11762
G1 X100.394 Y128.524 E3.14114
G1 X98.937 Y128.466 E3.17994
G1 X98.233 Y128.426 E3.1987
G1 X95.274 Y128.363 E3.27745
G1 X95.073 Y128.35 E3.28281
G1 X93.955 Y128.335 E3.31256
G1 X93.019 Y128.282 E3.33751
G1 X92.09 Y128.15 E3.36248
G1 X91.177 Y127.939 E3.38741
G1 X90.284 Y127.651 E3.41238
G1 X89.419 Y127.289 E3.43733
G1 X88.588 Y126.853 E3.4623
G1 X87.798 Y126.349 E3.48723
G1 X87.053 Y125.779 E3.51219
G1 X86.359 Y125.148 E3.53715
G1 X85.722 Y124.459 E3.56212
G1 X85.146 Y123.72 E3.58705
G1 X84.635 Y122.933 E3.61201
G1 X84.192 Y122.106 E3.63698
G1 X83.822 Y121.245 E3.66191
G1 X83.526 Y120.355 E3.68687
G1 X83.308 Y119.443 E3.71182
G1 X83.167 Y118.515 E3.73679
G1 X83.109 Y117.675 E3.7592
G1 X83.095 Y117.045 E3.77597
G1 X83.095 Y107.861 E4.02034
G1 X83.106 Y107.155 E4.03912
G1 X83.161 Y106.218 E4.0641
G1 X83.321 Y105.159 E4.0926
G1 X83.878 Y102.386 E4.16785
G1 F1500 E0.66785
G0 F6000 X83.895 Y107.873
G1 F1500 E4.16785
G1 F600 X83.906 Y107.167 E4.18664
G1 X83.96 Y106.266 E4.21066
G1 X84.105 Y105.316 E4.23623
G1 X84.667 Y102.519 E4.31214
G1 X84.867 Y101.454 E4.34097
G1 X85.073 Y100.574 E4.36502
G1 X85.355 Y99.717 E4.38903
G1 X85.713 Y98.887 E4.41308
G1 X86.142 Y98.093 E4.43709
G1 X86.64 Y97.339 E4.46113
G1 X87.203 Y96.633 E4.48516
G1 X87.826 Y95.979 E4.50919
G1 X88.504 Y95.383 E4.53321
G1 X89.233 Y94.849 E4.55726
G1 X90.005 Y94.382 E4.58127
G1 X90.817 Y93.985 E4.60532
G1 X91.66 Y93.661 E4.62935
G1 X92.528 Y93.413 E4.65337
G1 X93.156 Y93.284 E4.67043
G1 X94.178 Y93.107 E4.69802
G1 X98.482 Y92.268 E4.8147
G1 X99.373 Y92.12 E4.83873
G1 X100.448 Y92.047 E4.8674
G1 X101.343 Y92.035 E4.89122
G1 X114.519 Y92.037 E5.24181
G1 X115.215 Y92.047 E5.26033
G1 X116.116 Y92.1 E5.28434
G1 X117.009 Y92.232 E5.30836
G1 X118.037 Y92.488 E5.33655
G1 X119.24 Y92.854 E5.37001
G1 X121.767 Y93.589 E5.44004
G1 X124.259 Y94.237 E5.50855
G1 X126.753 Y94.812 E5.57665
G1 X128.212 Y95.125 E5.61635
G1 X129.086 Y95.353 E5.64039
G1 X129.936 Y95.658 E5.66442
G1 X130.756 Y96.037 E5.68845
G1 X131.539 Y96.487 E5.71248
G1 X132.279 Y97.004 E5.7365
G1 X132.971 Y97.585 E5.76054
G1 X133.94 Y98.599 E5.79786
G1 X134.561 Y99.408 E5.825
G1 X135.044 Y100.171 E5.84903
G1 X135.459 Y100.973 E5.87306
G1 X135.8 Y101.809 E5.89708
G1 X136.067 Y102.672 E5.92112
G1 X136.256 Y103.555 E5.94514
G1 X136.366 Y104.452 E5.96919
G1 X136.395 Y105.064 E5.98549
G1 X136.402 Y105.455 E5.9959
G1 X136.379 Y106.358 E6.01993
G1 X136.324 Y106.913 E6.03477
G1 X136.262 Y107.405 E6.04797
G1 X136.01 Y109.183 E6.09575
G1 X135.723 Y111.713 E6.1635
G1 X135.507 Y114.26 E6.23151
G1 X135.452 Y115.225 E6.25723
G1 X135.38 Y116.24 E6.28431
G1 X135.275 Y117.137 E6.30834
G1 X135.091 Y118.021 E6.33236
G1 X134.83 Y118.885 E6.35638
G1 X134.494 Y119.723 E6.3804
G1 X134.084 Y120.528 E6.40444
G1 X133.605 Y121.294 E6.42848
G1 X133.061 Y122.014 E6.45249
G1 X132.454 Y122.684 E6.47654
G1 X131.791 Y123.297 E6.50057
G1 X131.076 Y123.849 E6.52461
G1 X130.315 Y124.335 E6.54863
G1 X129.514 Y124.752 E6.57266
G1 X128.68 Y125.097 E6.59667
G1 X127.818 Y125.367 E6.62071
G1 X126.8 Y125.582 E6.64839
G1 X124.212 Y125.992 E6.71811
G1 X121.746 Y126.454 E6.78487
G1 X119.268 Y126.989 E6.85233
G1 X117.435 Y127.433 E6.90251
G1 X116.549 Y127.607 E6.92653
G1 X115.651 Y127.701 E6.95056
G1 X115.194 Y127.719 E6.96273
G1 X114.374 Y127.732 E6.98455
G1 X101.278 Y127.735 E7.33301
G1 X100.112 Y127.716 E7.36404
G1 X98.981 Y127.667 E7.39416
G1 X98.293 Y127.628 E7.4125
G1 X95.291 Y127.564 E7.49239
G1 X95.082 Y127.55 E7.49797
G1 X93.966 Y127.535 E7.52766
G1 X93.065 Y127.483 E7.55168
G1 X92.171 Y127.351 E7.57572
G1 X91.293 Y127.141 E7.59974
G1 X90.437 Y126.854 E7.62377
G1 X89.609 Y126.492 E7.64781
G1 X88.817 Y126.059 E7.67183
G1 X88.066 Y125.557 E7.69586
G1 X87.362 Y124.991 E7.7199
G1 X86.712 Y124.364 E7.74393
G1 X86.119 Y123.683 E7.76796
G1 X85.589 Y122.952 E7.79198
G1 X85.126 Y122.176 E7.81603
G1 X84.733 Y121.363 E7.84005
G1 X84.413 Y120.519 E7.86407
G1 X84.17 Y119.649 E7.88811
G1 X84.004 Y118.761 E7.91214
G1 X83.909 Y117.65 E7.94181
G1 X83.895 Y117.045 E7.95791
G1 X83.895 Y107.873 E8.20196
G0 F6000 X83.495 Y107.867
G1 F600 X83.506 Y107.161 E8.22075
G1 X83.561 Y106.242 E8.24525
G1 X83.713 Y105.237 E8.27229
G1 X84.274 Y102.445 E8.34807
G1 X84.474 Y101.38 E8.3769
G1 X84.683 Y100.483 E8.40141
G1 X84.969 Y99.608 E8.4259
G1 X85.33 Y98.761 E8.4504
G1 X85.763 Y97.949 E8.47489
G1 X86.264 Y97.177 E8.49937
G1 X86.831 Y96.451 E8.52388
G1 X87.459 Y95.778 E8.54838
G1 X88.143 Y95.161 E8.57289
G1 X88.877 Y94.607 E8.59736
G1 X89.658 Y94.118 E8.62188
G1 X90.477 Y93.698 E8.64637
G1 X91.33 Y93.351 E8.67087
G1 X92.21 Y93.08 E8.69537
G1 X93.088 Y92.89 E8.71927
G1 X94.132 Y92.71 E8.74746
G1 X98.399 Y91.877 E8.86314
G1 X99.308 Y91.725 E8.88766
G1 X100.442 Y91.647 E8.91791
G1 X101.343 Y91.635 E8.94188
G1 X114.524 Y91.637 E9.29261
G1 X115.22 Y91.647 E9.31113
G1 X116.139 Y91.7 E9.33562
G1 X117.05 Y91.833 E9.36012
G1 X118.154 Y92.105 E9.39037
G1 X119.391 Y92.481 E9.42477
G1 X121.874 Y93.204 E9.49358
G1 X124.345 Y93.846 E9.56151
G1 X126.861 Y94.426 E9.63022
G1 X128.296 Y94.734 E9.66927
G1 X129.187 Y94.966 E9.69377
G1 X130.054 Y95.274 E9.71825
G1 X130.892 Y95.657 E9.74276
G1 X131.693 Y96.111 E9.76726
G1 X132.451 Y96.632 E9.79174
G1 X133.162 Y97.218 E9.81625
G1 X133.819 Y97.863 E9.84075
G1 X134.318 Y98.434 E9.86093
G1 X134.878 Y99.165 E9.88543
G1 X135.373 Y99.941 E9.90992
G1 X135.799 Y100.757 E9.93441
G1 X136.153 Y101.607 E9.95891
G1 X136.431 Y102.485 E9.98342
G1 X136.632 Y103.383 E10.0079
G1 X136.754 Y104.296 E10.03241
G1 X136.795 Y105.057 E10.05269
G1 X136.802 Y105.448 E10.0631
G1 X136.779 Y106.369 E10.08761
G1 X136.721 Y106.963 E10.10349
G1 X136.659 Y107.455 E10.11669
G1 X136.405 Y109.248 E10.16487
G1 X136.12 Y111.759 E10.23211
G1 X135.906 Y114.278 E10.29938
G1 X135.841 Y115.407 E10.32947
G1 X135.779 Y116.268 E10.35244
G1 X135.673 Y117.183 E10.37695
G1 X135.488 Y118.085 E10.40145
G1 X135.225 Y118.967 E10.42594
G1 X134.887 Y119.824 E10.45045
G1 X134.476 Y120.647 E10.47493
G1 X133.995 Y121.432 E10.49942
G1 X133.448 Y122.173 E10.52393
G1 X132.838 Y122.863 E10.54844
G1 X132.171 Y123.497 E10.57292
G1 X131.452 Y124.071 E10.5974
G1 X130.685 Y124.581 E10.62191
G1 X129.877 Y125.022 E10.6464
G1 X129.034 Y125.392 E10.6709
G1 X128.162 Y125.687 E10.69539
G1 X126.863 Y125.977 E10.73081
G1 X124.311 Y126.381 E10.79956
G1 X121.79 Y126.853 E10.8678
G1 X119.368 Y127.376 E10.93373
G1 X117.529 Y127.822 E10.98408
G1 X116.626 Y127.999 E11.00857
G1 X115.711 Y128.098 E11.03306
G1 X115.2 Y128.119 E11.04667
G1 X114.38 Y128.132 E11.06849
G1 X101.278 Y128.135 E11.41711
G1 X100.399 Y128.124 E11.4405
G1 X98.959 Y128.066 E11.47884
G1 X98.292 Y128.029 E11.49662
G1 X95.283 Y127.964 E11.5767
G1 X95.068 Y127.95 E11.58243
G1 X93.961 Y127.935 E11.61189
G1 X93.042 Y127.883 E11.63638
G1 X92.13 Y127.751 E11.6609
G1 X91.234 Y127.54 E11.6854
G1 X90.36 Y127.253 E11.70987
G1 X89.513 Y126.89 E11.73439
G1 X88.702 Y126.456 E11.75887
G1 X87.931 Y125.953 E11.78336
G1 X87.206 Y125.385 E11.80787
G1 X86.534 Y124.756 E11.83236
G1 X85.918 Y124.071 E11.85687
G1 X85.365 Y123.335 E11.88137
G1 X84.877 Y122.554 E11.90587
G1 X84.459 Y121.734 E11.93036
G1 X84.114 Y120.88 E11.95487
G1 X83.844 Y120 E11.97936
G1 X83.652 Y119.1 E12.00385
G1 X83.538 Y118.186 E12.02836
G1 X83.509 Y117.663 E12.04229
G1 X83.495 Y117.045 E12.05874
G1 X83.495 Y107.867 E12.30295
G1 F1500 E8.80295
;MESH:void_switch-v44.stl
G0 F6000 X97.421 Y109.365
;TYPE:WALL-INNER
G1 F1500 E12.30295
G1 F600 X97.421 Y108.075 E12.33727
G1 X96.832 Y108.224 E12.35344
G1 X95.977 Y108.225 E12.37619
G1 X95.495 Y108.122 E12.38931
G1 X95.494 Y109.365 E12.42238
G1 X97.421 Y109.365 E12.47365
G0 F6000 X97.821 Y109.89
G1 F600 X97.821 Y107.776 E12.5299
G1 X97.591 Y107.723 E12.53618
G1 X97.41 Y107.594 E12.5421
G1 X97.228 Y107.723 E12.54803
G1 X96.818 Y107.824 E12.55927
G1 X95.977 Y107.825 E12.58165
G1 X95.567 Y107.738 E12.5928
G1 X95.43 Y107.649 E12.59714
G1 X95.293 Y107.738 E12.60149
G1 X95.095 Y107.78 E12.60688
G1 X95.092 Y109.893 E12.6631
G1 X95.475 Y109.765 E12.67385
G1 X97.44 Y109.765 E12.72613
G1 X97.821 Y109.89 E12.7368
G0 F6000 X98.13 Y110.765
G1 F447.8 X98.175 Y110.42 E12.7492
G1 F539.3 X98.221 Y110.075 E12.75951
G1 F600 X98.221 Y107.486 E12.8284
G1 X98.185 Y107.425 E12.83028
G1 X98.034 Y107.425 E12.8343
G1 X97.768 Y107.364 E12.84156
G1 X97.612 Y107.253 E12.84665
G1 F562.1 X97.409 Y106.879 E12.85874
G1 X97.208 Y107.253 E12.8708
G1 F600 X97.051 Y107.364 E12.87592
G1 X96.805 Y107.425 E12.88266
G1 X95.977 Y107.425 E12.90469
G1 X95.731 Y107.373 E12.91138
G1 X95.575 Y107.272 E12.91633
G1 X95.43 Y106.977 E12.92507
G1 X95.284 Y107.272 E12.93383
G1 X95.129 Y107.373 E12.93876
G1 X94.882 Y107.425 E12.94547
G1 X94.73 Y107.425 E12.94952
G1 X94.694 Y107.486 E12.9514
G1 X94.692 Y110.075 E13.02029
G1 F539.3 X94.738 Y110.42 E13.03059
G1 F448.6 X94.785 Y110.765 E13.04298
G1 X94.949 Y110.525 E13.05333
G1 F539.3 X95.113 Y110.285 E13.06193
G1 F600 X95.475 Y110.165 E13.07208
G1 X97.44 Y110.165 E13.12437
G1 X97.803 Y110.284 E13.13453
G1 F539.3 X97.966 Y110.524 E13.14312
G1 F447.8 X98.13 Y110.765 E13.15351
G1 F1500 E9.65351
G0 F6000 X97.641 Y117.145
;TYPE:WALL-OUTER
G1 F1500 E13.15351
G1 F600 X98.621 Y117.145 E13.17959
G1 X98.621 Y107.379 E13.43944
G1 X98.416 Y107.025 E13.45033
G1 X98.034 Y107.025 E13.46049
G1 X97.893 Y106.968 E13.46454
G1 X97.834 Y106.843 E13.46822
G1 X97.833 Y103.525 E13.5565
G1 X96.985 Y103.525 E13.57907
G1 X96.985 Y106.843 E13.66735
G1 X96.926 Y106.968 E13.67103
G1 X96.792 Y107.025 E13.6749
G1 X95.916 Y107.025 E13.69821
G1 F505.3 X95.703 Y106.849 E13.70694
G1 F437.2 X95.703 Y105.223 E13.76632
G1 F438.8 X95.703 Y103.597 E13.82549
G1 X95.156 Y103.598 E13.84539
G1 X95.156 Y105.224 E13.90456
G1 F437.2 X95.156 Y106.85 E13.96394
G1 F505.3 X94.945 Y107.025 E13.9726
G1 F600 X94.499 Y107.025 E13.98447
G1 X94.294 Y107.379 E13.99535
G1 X94.295 Y117.145 E14.25521
G1 X95.275 Y117.145 E14.28128
G1 X95.275 Y110.765 E14.45104
G1 X95.354 Y110.605 E14.45579
G1 X95.475 Y110.565 E14.45918
G1 X97.44 Y110.565 E14.51146
G1 X97.561 Y110.604 E14.51485
G1 X97.64 Y110.765 E14.51962
G1 X97.641 Y117.145 E14.68938
G0 F6000 X98.131 Y116.655
;TYPE:WALL-INNER
G1 F413.8 X98.131 Y113.71 E14.803
G1 F413.1 X98.13 Y110.765 E14.91682
G1 F1500 E11.41682
G0 F6000 X94.785 Y110.765
G1 F1500 E14.91682
G1 F413.8 X94.785 Y116.655 E15.14407
G1 F1500 E11.64407
G0 F6000 X97.409 Y106.879
G1 F1500 E15.14407
G1 F529.8 X97.409 Y105.414 E15.18821
G1 F532.2 X97.409 Y103.949 E15.23216
G1 F1500 E11.73216
G0 F6000 X97.056 Y109
;TYPE:SKIN
G1 F1500 E15.23216
G1 F583.9 X97.056 Y108.541 E15.24471
G1 X96.842 Y108.589 E15.25071
G1 X95.861 Y108.587 E15.27753
G1 X95.859 Y109 E15.28882
G1 X97.056 Y109 E15.32155
G1 F1500 E11.82155
G0 F6000 X101.246 Y104.258
;TYPE:WALL-INNER
G1 F1500 E15.32155
G1 F433.2 X102.191 Y103.313 E15.3708
G1 X101.247 Y103.313 E15.40559
G1 X101.246 Y104.258 E15.44041
G1 F1500 E11.94041
G0 F6000 X100.809 Y109.266
G1 F1500 E15.44041
G1 F477.1 X100.981 Y108.798 E15.4571
G1 F457.1 X101.465 Y108.312 E15.48105
G1 F466 X101.241 Y108.088 E15.4919
G1 F550.5 X101.11 Y107.693 E15.50397
G1 F659.3 X101.109 Y106.91 E15.52293
G1 F663 X101.108 Y106.127 E15.54178
G1 F668.5 X101.107 Y105.344 E15.56048
G1 F633.2 X101.26 Y104.918 E15.5719
G1 F600 X102.851 Y103.327 E15.63176
G1 F626.6 X103.176 Y103.177 E15.64088
G1 F659.3 X103.959 Y103.176 E15.65984
G1 F663 X104.742 Y103.175 E15.6787
G1 F668.5 X105.525 Y103.174 E15.6974
G1 F607.6 X105.771 Y103.239 E15.70408
G1 F511.7 X106.017 Y103.306 E15.71204
G1 F465.1 X106.245 Y103.532 E15.72305
G1 F456.3 X106.73 Y103.047 E15.74705
G1 F471.5 X107.088 Y102.88 E15.76043
G1 X106.669 Y102.899 E15.77463
G1 F456.3 X106.245 Y102.899 E15.78947
G1 F473.4 X106.154 Y102.88 E15.7926
G1 F527.5 X105.84 Y102.848 E15.80215
G1 F615.4 X105.526 Y102.815 E15.81035
G1 F668.5 X104.732 Y102.815 E15.82931
G1 F663 X103.938 Y102.815 E15.84843
G1 F659.3 X103.144 Y102.816 E15.86765
G1 F626.6 X102.648 Y102.836 E15.8803
G1 F600 X100.77 Y102.836 E15.93027
G1 X100.769 Y104.715 E15.98027
G1 F617 X100.759 Y105.029 E15.9884
G1 F652.2 X100.748 Y105.343 E15.99609
G1 F668.5 X100.748 Y106.137 E16.01505
G1 F663 X100.748 Y106.931 E16.03417
G1 F659.3 X100.749 Y107.725 E16.05339
G1 F606.1 X100.781 Y107.972 E16.05995
G1 F525.2 X100.813 Y108.22 E16.06756
G1 F474.3 X100.831 Y108.312 E16.07071
G1 F457.1 X100.831 Y108.736 E16.08552
G1 F466.9 X100.82 Y109.001 E16.09459
G1 F487.8 X100.809 Y109.266 E16.10327
G1 F1500 E12.60327
G0 F6000 X106.429 Y116.134
G1 F1500 E16.10327
G1 F600 X106.209 Y116.005 E16.11005
G1 X101.569 Y111.366 E16.28464
G1 X101.568 Y116.134 E16.4115
G1 X106.429 Y116.134 E16.54084
G1 F1500 E13.04084
G0 F6000 X107.97 Y116.133
G1 F1500 E16.54084
G1 F600 X114.066 Y116.133 E16.70305
G1 X114.066 Y110.037 E16.86525
