;FLAVOR:Marlin
;TIME:2052
;Filament used: 0.415593m
;Layer height: 0.16
;MINX:20.599
;MINY:49.039
;MINZ:0.16
;MAXX:74.71
;MAXY:86.339
;MAXZ:10.88
;Generated with Cura_SteamEngine main
M82 ;absolute extrusion mode
; Ender 3 Custom Start G-code
G92 E0 ; Reset Extruder
G28 ; Home all axes
M104 S120 ; Start heating up the nozzle most of the way
M190 S72.0 ; Start heating the bed, wait until target temperature reached
M109 S250.0 ; Finish heating the nozzle
G1 Z2.0 F3000 ; Move Z Axis up little to prevent scratching of Heat Bed
G1 X0.1 Y20 Z0.3 F5000.0 ; Move to start position
G1 X0.1 Y200.0 Z0.3 F1500.0 E15 ; Draw the first line
G1 X0.4 Y200.0 Z0.3 F5000.0 ; Move to side a little
G1 X0.4 Y20 Z0.3 F1500.0 E30 ; Draw the second line
G92 E0 ; Reset Extruder
G1 Z2.0 F3000 ; Move Z Axis up little to prevent scratching of Heat Bed
G1 X5 Y20 Z0.3 F5000.0 ; Move over to prevent blob squish
G92 E0
G92 E0
G1 F1500 E-6.5
;LAYER_COUNT:68
;LAYER:0
M107
G0 F6000 X27.638 Y50.802 Z0.16
G0 X21.373 Y59.819
;TYPE:SKIRT
G1 F1500 E0
G1 F600 X21.584 Y58.693 E0.03048
G1 X21.796 Y57.779 E0.05545
G1 X22.085 Y56.887 E0.0804
G1 X22.449 Y56.023 E0.10534
G1 X22.886 Y55.192 E0.13033
G1 X23.391 Y54.402 E0.15527
G1 X23.962 Y53.658 E0.18023
G1 X24.594 Y52.966 E0.20516
G1 X25.283 Y52.329 E0.23013
G1 X26.024 Y51.754 E0.25509
G1 X26.811 Y51.244 E0.28004
G1 X27.638 Y50.802 E0.30499
G1 X28.5 Y50.433 E0.32994
G1 X29.391 Y50.138 E0.35491
G1 X30.303 Y49.921 E0.37986
G1 X31.286 Y49.776 E0.4063
G1 X33.557 Y49.546 E0.46703
G1 X35.233 Y49.319 E0.51204
G1 X36.746 Y49.134 E0.55259
G1 X37.973 Y49.049 E0.58532
G1 X38.804 Y49.039 E0.60743
G1 X51.839 Y49.04 E0.95427
G1 X52.733 Y49.054 E0.97806
G1 X53.669 Y49.109 E1.00301
G1 X54.597 Y49.245 E1.02797
G1 X55.811 Y49.548 E1.06126
G1 X57.187 Y49.976 E1.0996
G1 X59.689 Y50.705 E1.16894
G1 X62.123 Y51.34 E1.23587
G1 X64.784 Y51.952 E1.30853
G1 X65.893 Y52.19 E1.33871
G1 X66.801 Y52.425 E1.36366
G1 X67.685 Y52.737 E1.38861
G1 X68.54 Y53.124 E1.41358
G1 X69.359 Y53.581 E1.43853
G1 X70.135 Y54.107 E1.46348
G1 X70.864 Y54.697 E1.48843
G1 X71.54 Y55.347 E1.51339
G1 X72.159 Y56.052 E1.53835
G1 X72.609 Y56.65 E1.55826
G1 X73.128 Y57.432 E1.58324
G1 X73.578 Y58.255 E1.60819
G1 X73.956 Y59.113 E1.63314
G1 X74.26 Y60 E1.65809
G1 X74.487 Y60.91 E1.68305
G1 X74.636 Y61.836 E1.708
G1 X74.71 Y63.224 E1.74499
G1 X74.706 Y63.636 E1.75595
G1 X74.611 Y64.978 E1.79175
G1 X74.484 Y65.934 E1.81741
G1 X74.358 Y66.792 E1.84048
G1 X74.058 Y69.329 E1.90846
G1 X73.831 Y71.845 E1.97568
G1 X73.783 Y72.637 E1.99679
G1 X73.682 Y74.047 E2.0344
G1 X73.575 Y74.979 E2.05936
G1 X73.389 Y75.898 E2.08431
G1 X73.126 Y76.798 E2.10926
G1 X72.787 Y77.672 E2.1342
G1 X72.374 Y78.515 E2.15918
G1 X71.892 Y79.319 E2.18412
G1 X71.342 Y80.079 E2.20909
G1 X70.73 Y80.79 E2.23405
G1 X70.06 Y81.445 E2.25898
G1 X69.336 Y82.042 E2.28395
G1 X68.564 Y82.574 E2.30889
G1 X67.749 Y83.039 E2.33386
G1 X66.898 Y83.433 E2.35881
G1 X66.016 Y83.752 E2.38377
G1 X65.11 Y83.996 E2.40874
G1 X64.571 Y84.102 E2.42335
G1 X63.888 Y84.219 E2.44179
G1 X62.388 Y84.456 E2.4822
G1 X59.926 Y84.914 E2.54883
G1 X57.458 Y85.446 E2.61601
G1 X55.212 Y85.993 E2.67752
G1 X54.293 Y86.182 E2.70248
G1 X53.362 Y86.293 E2.72743
G1 X52.708 Y86.323 E2.74485
G1 X51.891 Y86.336 E2.76659
G1 X38.818 Y86.339 E3.11444
G1 X37.95 Y86.328 E3.13754
G1 X37.014 Y86.275 E3.16248
G1 X36.086 Y86.142 E3.18743
G1 X35.034 Y85.892 E3.2162
G1 X32.409 Y85.129 E3.28893
G1 X29.849 Y84.464 E3.35931
G1 X28.99 Y84.254 E3.38284
G1 X28.09 Y83.992 E3.40778
G1 X27.215 Y83.655 E3.43273
G1 X26.372 Y83.244 E3.45769
G1 X25.567 Y82.762 E3.48265
G1 X24.806 Y82.214 E3.5076
G1 X24.094 Y81.604 E3.53255
G1 X23.437 Y80.934 E3.55752
G1 X22.839 Y80.211 E3.58249
G1 X22.305 Y79.44 E3.60744
G1 X21.839 Y78.627 E3.63237
G1 X21.444 Y77.776 E3.65734
G1 X21.123 Y76.895 E3.68229
G1 X20.877 Y75.99 E3.70724
G1 X20.71 Y75.067 E3.7322
G1 X20.613 Y73.912 E3.76304
G1 X20.599 Y73.282 E3.77981
G1 X20.599 Y65.247 E3.9936
G1 X20.61 Y64.541 E4.01239
G1 X20.665 Y63.604 E4.03737
G1 X20.825 Y62.545 E4.06586
G1 X21.373 Y59.819 E4.13985
G1 F1500 E-2.36015
G0 F6000 X21.399 Y65.259
G1 F1500 E4.13985
G1 F600 X21.41 Y64.553 E4.15864
G1 X21.464 Y63.652 E4.18265
G1 X21.609 Y62.702 E4.20822
G1 X22.174 Y59.892 E4.28449
G1 X22.371 Y58.84 E4.31297
G1 X22.576 Y57.961 E4.33698
G1 X22.859 Y57.103 E4.36102
G1 X23.216 Y56.274 E4.38504
G1 X23.645 Y55.479 E4.40908
G1 X24.143 Y54.726 E4.4331
G1 X24.706 Y54.019 E4.45714
G1 X25.329 Y53.365 E4.48118
G1 X26.007 Y52.769 E4.5052
G1 X26.735 Y52.235 E4.52922
G1 X27.508 Y51.767 E4.55327
G1 X28.319 Y51.37 E4.57729
G1 X29.162 Y51.046 E4.60132
G1 X30.03 Y50.798 E4.62534
G1 X30.917 Y50.628 E4.64937
G1 X31.367 Y50.572 E4.66144
G1 X33.653 Y50.34 E4.72258
G1 X35.34 Y50.112 E4.76787
G1 X36.846 Y49.928 E4.80824
G1 X37.983 Y49.849 E4.83857
G1 X38.804 Y49.839 E4.86042
G1 X52.011 Y49.841 E5.21183
G1 X52.72 Y49.853 E5.2307
G1 X53.621 Y49.909 E5.25472
G1 X54.514 Y50.043 E5.27874
G1 X55.574 Y50.311 E5.30784
G1 X57.013 Y50.758 E5.34793
G1 X59.474 Y51.475 E5.41614
G1 X61.952 Y52.122 E5.48428
G1 X64.568 Y52.724 E5.55571
G1 X65.725 Y52.972 E5.58719
G1 X66.599 Y53.2 E5.61123
G1 X67.449 Y53.505 E5.63525
G1 X68.269 Y53.884 E5.65929
G1 X69.052 Y54.333 E5.68331
G1 X69.793 Y54.851 E5.70736
G1 X70.484 Y55.431 E5.73137
G1 X71.122 Y56.071 E5.75541
G1 X71.897 Y57.023 E5.78808
G1 X72.46 Y57.874 E5.81523
G1 X72.89 Y58.668 E5.83925
G1 X73.247 Y59.498 E5.86329
G1 X73.53 Y60.355 E5.88731
G1 X73.736 Y61.235 E5.91136
G1 X73.863 Y62.129 E5.93538
G1 X73.911 Y63.216 E5.96433
G1 X73.907 Y63.628 E5.9753
G1 X73.818 Y64.872 E6.00848
G1 X73.671 Y65.972 E6.03801
G1 X73.561 Y66.719 E6.0581
G1 X73.263 Y69.232 E6.12544
G1 X73.035 Y71.761 E6.193
G1 X72.985 Y72.58 E6.21483
G1 X72.884 Y73.99 E6.25245
G1 X72.78 Y74.887 E6.27648
G1 X72.596 Y75.771 E6.3005
G1 X72.336 Y76.636 E6.32453
G1 X71.999 Y77.474 E6.34857
G1 X71.59 Y78.279 E6.37259
G1 X71.112 Y79.045 E6.39662
G1 X70.567 Y79.765 E6.42064
G1 X69.961 Y80.435 E6.44468
G1 X69.298 Y81.048 E6.46871
G1 X68.583 Y81.6 E6.49274
G1 X67.823 Y82.087 E6.51676
G1 X67.022 Y82.505 E6.5408
G1 X66.187 Y82.85 E6.56484
G1 X65.326 Y83.12 E6.58885
G1 X64.436 Y83.314 E6.61309
G1 X63.9 Y83.406 E6.62756
G1 X62.301 Y83.659 E6.67063
G1 X59.755 Y84.133 E6.73954
G1 X57.277 Y84.667 E6.80699
G1 X55.017 Y85.217 E6.86888
G1 X54.132 Y85.398 E6.89292
G1 X53.235 Y85.5 E6.91694
G1 X52.695 Y85.523 E6.93132
G1 X51.878 Y85.536 E6.95306
G1 X38.818 Y85.539 E7.30056
G1 X37.962 Y85.528 E7.32334
G1 X37.06 Y85.475 E7.34738
G1 X36.167 Y85.343 E7.3714
G1 X35.257 Y85.123 E7.39631
G1 X32.655 Y84.366 E7.46842
G1 X30.012 Y83.681 E7.54107
G1 X29.181 Y83.477 E7.56383
G1 X28.314 Y83.223 E7.58787
G1 X27.473 Y82.894 E7.6119
G1 X26.664 Y82.492 E7.63594
G1 X25.895 Y82.02 E7.65995
G1 X25.17 Y81.481 E7.68399
G1 X24.495 Y80.881 E7.70802
G1 X23.876 Y80.223 E7.73205
G1 X23.318 Y79.513 E7.75608
G1 X22.825 Y78.756 E7.78012
G1 X22.401 Y77.959 E7.80414
G1 X22.048 Y77.127 E7.82819
G1 X21.771 Y76.268 E7.8522
G1 X21.571 Y75.387 E7.87624
G1 X21.45 Y74.492 E7.90027
G1 X21.413 Y73.887 E7.9164
G1 X21.399 Y73.282 E7.9325
G1 X21.399 Y65.259 E8.14598
G0 F6000 X20.999 Y65.253
G1 F600 X21.01 Y64.547 E8.16477
G1 X21.065 Y63.628 E8.18926
G1 X21.217 Y62.623 E8.21631
G1 X21.791 Y59.767 E8.29382
G1 X21.978 Y58.767 E8.32089
G1 X22.186 Y57.87 E8.34539
G1 X22.472 Y56.995 E8.36989
G1 X22.833 Y56.148 E8.39438
G1 X23.266 Y55.335 E8.41889
G1 X23.767 Y54.563 E8.44338
G1 X24.334 Y53.838 E8.46787
G1 X24.962 Y53.164 E8.49238
G1 X25.645 Y52.547 E8.51687
G1 X26.38 Y51.993 E8.54136
G1 X27.16 Y51.503 E8.56587
G1 X27.98 Y51.084 E8.59038
G1 X28.832 Y50.737 E8.61485
G1 X29.712 Y50.465 E8.63936
G1 X30.612 Y50.271 E8.66386
G1 X31.326 Y50.174 E8.68303
G1 X33.619 Y49.941 E8.74436
G1 X35.286 Y49.716 E8.78912
G1 X36.796 Y49.531 E8.8296
G1 X37.978 Y49.449 E8.86112
G1 X38.804 Y49.439 E8.8831
G1 X51.839 Y49.44 E9.22994
G1 X52.726 Y49.454 E9.25354
G1 X53.645 Y49.509 E9.27804
G1 X54.556 Y49.644 E9.30254
G1 X55.693 Y49.93 E9.33374
G1 X57.082 Y50.362 E9.37244
G1 X59.582 Y51.09 E9.44173
G1 X62.038 Y51.731 E9.50927
G1 X64.676 Y52.338 E9.58129
G1 X65.809 Y52.581 E9.61213
G1 X66.7 Y52.813 E9.63662
G1 X67.568 Y53.121 E9.66113
G1 X68.405 Y53.504 E9.68562
G1 X69.206 Y53.958 E9.71012
G1 X69.965 Y54.479 E9.73462
G1 X70.675 Y55.065 E9.75911
G1 X71.332 Y55.709 E9.78359
G1 X72.217 Y56.781 E9.82058
G1 X72.794 Y57.653 E9.8484
G1 X73.234 Y58.462 E9.8729
G1 X73.602 Y59.306 E9.8974
G1 X73.895 Y60.178 E9.92188
G1 X74.112 Y61.073 E9.94639
G1 X74.25 Y61.983 E9.97088
G1 X74.311 Y63.22 E10.00383
G1 X74.307 Y63.632 E10.01479
G1 X74.215 Y64.925 E10.04928
G1 X74.088 Y65.881 E10.07494
G1 X73.955 Y66.787 E10.09931
G1 X73.66 Y69.279 E10.16608
G1 X73.434 Y71.788 E10.23311
G1 X73.384 Y72.608 E10.25497
G1 X73.283 Y74.018 E10.29258
G1 X73.177 Y74.933 E10.31709
G1 X72.993 Y75.835 E10.34159
G1 X72.731 Y76.717 E10.36607
G1 X72.393 Y77.574 E10.39058
G1 X71.982 Y78.398 E10.41508
G1 X71.501 Y79.183 E10.43958
G1 X70.954 Y79.924 E10.46409
G1 X70.345 Y80.614 E10.48857
G1 X69.678 Y81.249 E10.51308
G1 X68.959 Y81.823 E10.53756
G1 X68.192 Y82.333 E10.56207
G1 X67.385 Y82.775 E10.58655
G1 X66.541 Y83.144 E10.61106
G1 X65.669 Y83.44 E10.63556
G1 X64.503 Y83.708 E10.6674
G1 X63.825 Y83.824 E10.6857
G1 X62.33 Y84.06 E10.72597
G1 X59.84 Y84.524 E10.79336
G1 X57.367 Y85.057 E10.86068
G1 X55.114 Y85.605 E10.92237
G1 X54.212 Y85.79 E10.94687
G1 X53.298 Y85.896 E10.97136
G1 X52.702 Y85.923 E10.98723
G1 X51.885 Y85.936 E11.00897
G1 X38.818 Y85.939 E11.35666
G1 X37.956 Y85.928 E11.3796
G1 X37.037 Y85.875 E11.40409
G1 X36.126 Y85.743 E11.42859
G1 X35.146 Y85.508 E11.4554
G1 X32.525 Y84.746 E11.52803
G1 X29.895 Y84.064 E11.60032
G1 X29.085 Y83.865 E11.62252
G1 X28.202 Y83.608 E11.64698
G1 X27.343 Y83.274 E11.67151
G1 X26.518 Y82.868 E11.69597
G1 X25.73 Y82.391 E11.72048
G1 X24.987 Y81.848 E11.74497
G1 X24.293 Y81.242 E11.76949
G1 X23.655 Y80.578 E11.79399
G1 X23.077 Y79.862 E11.81847
G1 X22.563 Y79.098 E11.84297
G1 X22.118 Y78.292 E11.86747
G1 X21.744 Y77.451 E11.89196
G1 X21.444 Y76.58 E11.91647
G1 X21.222 Y75.687 E11.94096
G1 X21.077 Y74.778 E11.96545
G1 X21.013 Y73.9 E11.98887
G1 X20.999 Y73.282 E12.00532
G1 X20.999 Y65.253 E12.21896
G1 F1500 E5.71896
;MESH:void_switch-v9.stl
G0 F6000 X30.933 Y65.253
G0 X32.018 Y65.253
G0 X35.325 Y66.091
G1 F1500 E12.21896
G0 F6000 X35.325 Y66.116
;TYPE:WALL-INNER
G1 F600 X35.325 Y65.162 E12.24434
G1 X35.095 Y65.109 E12.25062
G1 X34.914 Y64.98 E12.25654
G1 X34.732 Y65.109 E12.26247
G1 X34.419 Y65.211 E12.27123
G1 X33.48 Y65.211 E12.29622
G1 X33.161 Y65.16 E12.30481
G1 X32.933 Y65.035 E12.31173
G1 X32.796 Y65.124 E12.31608
G1 X32.598 Y65.166 E12.32146
G1 X32.596 Y66.119 E12.34682
G1 X32.979 Y65.991 E12.35757
G1 X34.944 Y65.991 E12.40985
G1 X35.325 Y66.116 E12.42052
G0 F6000 X34.874 Y65.54
G1 F538.1 X34.463 Y65.601 E12.43285
G1 F620.2 X33.971 Y65.601 E12.44551
G1 F628.3 X33.479 Y65.601 E12.45802
G1 F575.5 X33.025 Y65.564 E12.47065
G0 F6000 X35.372 Y66.563
G0 X35.634 Y66.991
G1 F447.8 X35.679 Y66.646 E12.48306
G1 F539.3 X35.725 Y66.301 E12.49336
G1 F600 X35.725 Y64.872 E12.53138
G1 X35.689 Y64.811 E12.53327
G1 X35.538 Y64.811 E12.53728
G1 X35.272 Y64.75 E12.54455
G1 X35.116 Y64.639 E12.54964
G1 F562.1 X34.913 Y64.265 E12.56173
G1 X34.712 Y64.639 E12.57379
G1 F600 X34.555 Y64.75 E12.5789
G1 X34.369 Y64.811 E12.58411
G1 X33.48 Y64.811 E12.60777
G1 X33.288 Y64.78 E12.61294
G1 X33.078 Y64.658 E12.6194
G1 X32.933 Y64.365 E12.6281
G1 X32.788 Y64.658 E12.6368
G1 X32.632 Y64.759 E12.64175
G1 X32.386 Y64.811 E12.64844
G1 X32.234 Y64.811 E12.65248
G1 X32.198 Y64.894 E12.65489
G1 X32.196 Y66.301 E12.69232
G1 F539.3 X32.242 Y66.646 E12.70263
G1 F448.6 X32.289 Y66.991 E12.71502
G1 X32.453 Y66.751 E12.72536
G1 F539.3 X32.617 Y66.511 E12.73397
G1 F600 X32.979 Y66.391 E12.74412
G1 X34.944 Y66.391 E12.7964
G1 X35.307 Y66.51 E12.80657
G1 F539.3 X35.47 Y66.75 E12.81515
G1 F447.8 X35.634 Y66.991 E12.82555
G1 F1500 E6.32555
G0 F6000 X35.855 Y73.107
G1 F1500 E12.82555
G0 F6000 X36.125 Y73.377
;TYPE:WALL-OUTER
G1 F600 X36.125 Y64.765 E13.0547
G1 X35.92 Y64.411 E13.06558
G1 X35.538 Y64.411 E13.07575
G1 X35.397 Y64.354 E13.07979
G1 X35.338 Y64.229 E13.08347
G1 X35.337 Y60.911 E13.17176
G1 X34.489 Y60.911 E13.19432
G1 X34.489 Y64.229 E13.28261
G1 X34.43 Y64.354 E13.28628
G1 X34.324 Y64.409 E13.28946
G1 X33.433 Y64.411 E13.31317
G1 F506.3 X33.206 Y64.235 E13.32223
G1 F438 X33.206 Y60.984 E13.44073
G1 F438.8 X32.66 Y60.984 E13.4606
G1 F438 X32.66 Y64.235 E13.57911
G1 F506.3 X32.447 Y64.411 E13.58782
G1 F600 X32.003 Y64.411 E13.59964
G1 X31.798 Y64.765 E13.61052
G1 X31.798 Y64.894 E13.61395
G1 X31.799 Y73.377 E13.83967
G1 X32.779 Y73.377 E13.86575
G1 X32.779 Y66.991 E14.03567
G1 X32.858 Y66.831 E14.04041
G1 X32.979 Y66.791 E14.0438
G1 X34.944 Y66.791 E14.09609
G1 X35.065 Y66.83 E14.09947
G1 X35.144 Y66.991 E14.10424
G1 X35.145 Y73.377 E14.27416
G1 X36.125 Y73.377 E14.30024
G0 F6000 X35.635 Y72.887
;TYPE:WALL-INNER
G1 F413.8 X35.635 Y69.939 E14.41398
G1 F413.1 X35.634 Y66.991 E14.52791
G0 F6000 X34.913 Y65.111
G0 X34.913 Y64.265
G1 F529.8 X34.913 Y62.8 E14.57206
G1 F532.2 X34.913 Y61.335 E14.61601
G0 F6000 X34.717 Y64.639
G0 X33.957 Y64.643
G0 X32.289 Y66.991
G1 F413.8 X32.289 Y72.887 E14.84349
G1 F1500 E8.34349
G0 F6000 X32.551 Y66.563
G0 X35.372 Y66.563
G0 X35.911 Y73.163
G0 X38.094 Y73.163
G0 X39.247 Y73.766
G0 X43.883 Y73.937
G1 F1500 E14.84349
G1 F600 X43.747 Y73.859 E14.84766
G1 X39.075 Y69.185 E15.0235
G1 X39.075 Y73.938 E15.14997
G1 X43.883 Y73.937 E15.2779
G0 F6000 X44.575 Y74.018
G0 X51.571 Y73.937
G1 F600 X51.571 Y67.959 E15.43697
G1 X51.491 Y68.095 E15.44116
G1 X48.872 Y70.715 E15.53973
G1 X48.524 Y70.892 E15.55012
G1 X48.348 Y71.24 E15.5605
G1 X45.729 Y73.859 E15.65905
G1 X45.594 Y73.937 E15.6632
G1 X51.571 Y73.937 E15.82224
G0 F6000 X51.671 Y67.105
G0 X51.571 Y66.25
G1 F600 X51.571 Y61.441 E15.9502
G1 X46.819 Y61.441 E16.07664
G1 X51.491 Y66.114 E16.25246
G1 X51.571 Y66.25 E16.25666
G0 F6000 X51.627 Y66.734
G0 X51.971 Y74.337
G1 F600 X51.971 Y68.128 E16.42187
G1 F589.7 X51.964 Y67.859 E16.42915
G1 F568.7 X51.957 Y67.59 E16.43671
G1 F550.5 X51.95 Y67.321 E16.44451
G1 F540.5 X51.949 Y66.89 E16.45724
G1 F550.5 X51.956 Y66.62 E16.46508
G1 F568.7 X51.963 Y66.35 E16.47266
G1 F589.7 X51.971 Y66.08 E16.47997
G1 F600 X51.971 Y61.041 E16.61405
G1 X45.853 Y61.041 E16.77684
G1 X51.208 Y66.397 E16.97836
G1 F592.6 X51.358 Y66.637 E16.98599
G1 F576.9 X51.509 Y66.877 E16.99383
G1 F568.7 X51.509 Y67.332 E17.00661
G1 F576.9 X51.359 Y67.572 E17.01444
G1 F592.6 X51.208 Y67.812 E17.02208
G1 F600 X48.716 Y70.305 E17.11587
G1 X48.449 Y70.497 E17.12462
G1 X48.204 Y70.572 E17.13144
G1 X48.129 Y70.817 E17.13825
G1 X47.938 Y71.084 E17.14699
G1 X45.446 Y73.576 E17.24076
G1 F592.6 X45.206 Y73.726 E17.24839
G1 F576.9 X44.965 Y73.876 E17.25624
G1 F568.7 X44.511 Y73.876 E17.26899
G1 F576.9 X44.271 Y73.726 E17.27682
G1 F592.6 X44.03 Y73.576 E17.28447
G1 F600 X38.675 Y68.219 E17.48601
G1 X38.675 Y74.338 E17.64883
G1 X43.715 Y74.337 E17.78293
G1 F589.7 X43.985 Y74.331 E17.79024
G1 F568.7 X44.255 Y74.324 E17.79782
G1 F549.2 X44.525 Y74.317 E17.80567
G1 F540.5 X44.953 Y74.316 E17.81832
G1 F550.5 X45.222 Y74.322 E17.82612
G1 F568.7 X45.491 Y74.329 E17.83367
G1 F589.7 X45.76 Y74.336 E17.84096
G1 F600 X51.971 Y74.337 E18.00622
G0 F6000 X52.371 Y74.737
G1 F600 X52.371 Y60.641 E18.38129
G1 X45.278 Y60.641 E18.57002
G1 F563.4 X45.008 Y60.665 E18.5777
G1 F502.1 X44.738 Y60.69 E18.58632
G1 F531 X45.164 Y60.917 E18.60084
G1 F600 X50.925 Y66.68 E18.81766
G1 F601.5 X51.078 Y66.942 E18.82571
G1 X51.079 Y67.268 E18.83436
G1 F600 X50.925 Y67.53 E18.84245
G1 X48.433 Y70.023 E18.93624
G1 X48.137 Y70.185 E18.94522
G1 X47.743 Y70.111 E18.95589
G1 X47.817 Y70.505 E18.96655
G1 X47.655 Y70.801 E18.97553
G1 X45.163 Y73.293 E19.06931
G1 F601.5 X44.901 Y73.445 E19.07735
G1 X44.576 Y73.446 E19.08597
G1 X44.313 Y73.293 E19.09405
G1 F600 X38.55 Y67.53 E19.31091
G1 F526.3 X38.328 Y67.218 E19.32252
G1 X38.274 Y67.644 E19.33555
G1 F600 X38.275 Y74.738 E19.5243
G1 X52.371 Y74.737 E19.89937
G0 F6000 X52.101 Y74.467
G0 X45.764 Y73.89
G0 X44.738 Y73.474
