;FLAVOR:Marlin
;TIME:1759
;Filament used: 0.503842m
;Layer height: 0.16
;MINX:78.091
;MINY:91.502
;MINZ:0.16
;MAXX:139.081
;MAXY:128.498
;MAXZ:10.56
;Generated with Cura_SteamEngine main
M82 ;absolute extrusion mode
; Ender 3 Custom Start G-code
G92 E0 ; Reset Extruder
G28 ; Home all axes
M104 S120 ; Start heating up the nozzle most of the way
M190 S68.0 ; Start heating the bed, wait until target temperature reached
M109 S250.0 ; Finish heating the nozzle
G1 Z2.0 F3000 ; Move Z Axis up little to prevent scratching of Heat Bed
G1 X0.1 Y20 Z0.3 F5000.0 ; Move to start position
G1 X0.1 Y200.0 Z0.3 F1500.0 E15 ; Draw the first line
G1 X0.4 Y200.0 Z0.3 F5000.0 ; Move to side a little
G1 X0.4 Y20 Z0.3 F1500.0 E30 ; Draw the second line
G92 E0 ; Reset Extruder
G1 Z2.0 F3000 ; Move Z Axis up little to prevent scratching of Heat Bed
G1 X5 Y20 Z0.3 F5000.0 ; Move over to prevent blob squish
G92 E0
G92 E0
G1 F2100 E-4
;LAYER_COUNT:66
;LAYER:0
M107
G0 F6000 X82.744 Y94.632 Z0.16
G0 X78.87 Y102.073
;TYPE:SKIRT
G1 F2100 E0
G1 F600 X79.066 Y101.008 E0.02881
G1 X79.275 Y100.094 E0.05376
G1 X79.561 Y99.201 E0.07871
G1 X79.922 Y98.335 E0.10368
G1 X80.356 Y97.503 E0.12864
G1 X80.859 Y96.712 E0.15359
G1 X81.427 Y95.966 E0.17853
G1 X82.057 Y95.271 E0.20349
G1 X82.744 Y94.632 E0.22846
G1 X83.483 Y94.054 E0.25342
G1 X84.268 Y93.542 E0.27836
G1 X85.094 Y93.098 E0.30331
G1 X85.955 Y92.726 E0.32827
G1 X86.844 Y92.428 E0.35322
G1 X87.756 Y92.208 E0.37818
G1 X88.683 Y92.066 E0.40313
G1 X89.56 Y92.005 E0.42652
G1 X90.223 Y91.99 E0.44417
G1 X92.94 Y91.99 E0.51646
G1 X93.078 Y91.982 E0.52014
G1 X94.034 Y91.986 E0.54558
G1 X96.562 Y91.925 E0.61287
G1 X99.055 Y91.794 E0.67929
G1 X102.025 Y91.549 E0.75859
G1 X102.743 Y91.514 E0.77771
G1 X103.522 Y91.502 E0.79844
G1 X116.342 Y91.504 E1.13956
G1 X117.255 Y91.519 E1.16386
G1 X118.191 Y91.576 E1.18881
G1 X119.119 Y91.712 E1.21376
G1 X120.192 Y91.974 E1.24315
G1 X120.974 Y92.207 E1.26486
G1 X123.509 Y92.921 E1.33494
G1 X125.918 Y93.526 E1.40103
G1 X128.439 Y94.086 E1.46974
G1 X129.993 Y94.392 E1.51189
G1 X130.905 Y94.612 E1.53685
G1 X131.794 Y94.91 E1.5618
G1 X132.655 Y95.282 E1.58675
G1 X133.481 Y95.726 E1.61171
G1 X134.223 Y96.208 E1.63525
G1 X134.439 Y96.361 E1.64229
G1 X135.181 Y96.935 E1.66725
G1 X135.871 Y97.57 E1.6922
G1 X136.504 Y98.262 E1.71716
G1 X137.076 Y99.005 E1.74211
G1 X137.583 Y99.795 E1.76708
G1 X138.02 Y100.624 E1.79202
G1 X138.386 Y101.488 E1.81699
G1 X138.676 Y102.38 E1.84194
G1 X138.889 Y103.293 E1.86689
G1 X139.024 Y104.221 E1.89184
G1 X139.081 Y105.436 E1.92421
G1 X139.077 Y105.882 E1.93607
G1 X138.989 Y107.174 E1.97053
G1 X138.932 Y107.621 E1.98252
G1 X138.674 Y109.44 E2.03141
G1 X138.39 Y111.933 E2.09817
G1 X138.177 Y114.436 E2.16501
G1 X138.116 Y115.491 E2.19313
G1 X138.052 Y116.396 E2.21727
G1 X137.946 Y117.328 E2.24223
G1 X137.761 Y118.247 E2.26717
G1 X137.498 Y119.148 E2.29215
G1 X137.16 Y120.022 E2.31708
G1 X136.748 Y120.865 E2.34205
G1 X136.266 Y121.67 E2.36701
G1 X135.717 Y122.43 E2.39196
G1 X135.106 Y123.141 E2.4169
G1 X134.436 Y123.798 E2.44187
G1 X133.713 Y124.395 E2.46682
G1 X132.941 Y124.928 E2.49178
G1 X132.127 Y125.393 E2.51672
G1 X131.276 Y125.788 E2.54169
G1 X130.395 Y126.108 E2.56663
G1 X129.489 Y126.353 E2.5916
G1 X128.65 Y126.507 E2.6143
G1 X127.71 Y126.643 E2.63957
G1 X125.152 Y127.046 E2.70847
G1 X122.675 Y127.509 E2.77552
G1 X119.388 Y128.231 E2.86507
G1 X118.464 Y128.393 E2.89003
G1 X117.249 Y128.485 E2.92245
G1 X116.479 Y128.498 E2.94294
G1 X103.441 Y128.495 E3.28986
G1 X102.733 Y128.484 E3.3087
G1 X101.508 Y128.396 E3.34138
G1 X100.925 Y128.321 E3.35702
G1 X98.331 Y128.027 E3.42648
G1 X95.794 Y127.812 E3.49423
G1 X93.341 Y127.673 E3.5596
G1 X90.27 Y127.607 E3.64134
G1 X90.089 Y127.595 E3.64616
G1 X88.951 Y127.58 E3.67645
G1 X88.015 Y127.527 E3.70139
G1 X87.086 Y127.395 E3.72636
G1 X86.173 Y127.184 E3.75129
G1 X85.28 Y126.896 E3.77626
G1 X84.415 Y126.534 E3.80121
G1 X83.584 Y126.098 E3.82618
G1 X82.794 Y125.594 E3.85111
G1 X82.049 Y125.024 E3.87607
G1 X81.355 Y124.393 E3.90103
G1 X80.718 Y123.704 E3.926
G1 X80.142 Y122.965 E3.95093
G1 X79.631 Y122.178 E3.97589
G1 X79.188 Y121.351 E4.00086
G1 X78.818 Y120.49 E4.02579
G1 X78.522 Y119.6 E4.05075
G1 X78.304 Y118.688 E4.0757
G1 X78.163 Y117.76 E4.10068
G1 X78.105 Y116.905 E4.12348
G1 X78.091 Y116.277 E4.14019
G1 X78.091 Y107.526 E4.37304
G1 X78.102 Y106.82 E4.39183
G1 X78.157 Y105.883 E4.4168
G1 X78.317 Y104.824 E4.4453
G1 X78.87 Y102.073 E4.51996
G1 F2100 E0.51996
G0 F6000 X78.891 Y107.538
G1 F2100 E4.51996
G1 F600 X78.902 Y106.832 E4.53875
G1 X78.956 Y105.931 E4.56277
G1 X79.101 Y104.981 E4.58834
G1 X79.663 Y102.183 E4.66427
G1 X79.853 Y101.153 E4.69214
G1 X80.055 Y100.273 E4.71617
G1 X80.335 Y99.414 E4.74021
G1 X80.69 Y98.584 E4.76423
G1 X81.116 Y97.788 E4.78825
G1 X81.612 Y97.032 E4.81231
G1 X82.172 Y96.324 E4.83633
G1 X82.793 Y95.668 E4.86036
G1 X83.469 Y95.07 E4.88438
G1 X84.196 Y94.533 E4.90843
G1 X84.967 Y94.063 E4.93245
G1 X85.777 Y93.664 E4.95648
G1 X86.619 Y93.337 E4.98051
G1 X87.486 Y93.086 E5.00453
G1 X88.373 Y92.913 E5.02857
G1 X89.583 Y92.804 E5.0609
G1 X90.223 Y92.79 E5.07793
G1 X92.817 Y92.79 E5.14696
G1 X93.075 Y92.782 E5.15382
G1 X94.05 Y92.786 E5.17977
G1 X96.587 Y92.724 E5.24729
G1 X99.132 Y92.591 E5.3151
G1 X102.091 Y92.347 E5.3941
G1 X102.756 Y92.313 E5.41182
G1 X103.347 Y92.303 E5.42755
G1 X116.342 Y92.304 E5.77332
G1 X117.24 Y92.319 E5.79722
G1 X118.142 Y92.375 E5.82126
G1 X119.035 Y92.511 E5.8453
G1 X119.964 Y92.741 E5.87076
G1 X120.74 Y92.972 E5.89231
G1 X123.308 Y93.695 E5.96329
G1 X125.735 Y94.305 E6.02988
G1 X128.275 Y94.869 E6.09911
G1 X129.838 Y95.177 E6.1415
G1 X130.716 Y95.39 E6.16554
G1 X131.571 Y95.681 E6.18957
G1 X132.397 Y96.046 E6.2136
G1 X133.187 Y96.483 E6.23762
G1 X133.761 Y96.861 E6.25591
G1 X133.977 Y97.014 E6.26295
G1 X134.69 Y97.568 E6.28698
G1 X135.351 Y98.183 E6.311
G1 X135.956 Y98.854 E6.33504
G1 X136.498 Y99.576 E6.35906
G1 X136.975 Y100.343 E6.38309
G1 X137.382 Y101.149 E6.40712
G1 X137.716 Y101.988 E6.43115
G1 X137.974 Y102.854 E6.45519
G1 X138.155 Y103.738 E6.4792
G1 X138.257 Y104.636 E6.50325
G1 X138.281 Y105.428 E6.52433
G1 X138.277 Y105.874 E6.5362
G1 X138.195 Y107.073 E6.56818
G1 X138.118 Y107.667 E6.58411
G1 X137.885 Y109.305 E6.62814
G1 X137.591 Y111.883 E6.69718
G1 X137.378 Y114.395 E6.76426
G1 X137.318 Y115.435 E6.79198
G1 X137.254 Y116.34 E6.81612
G1 X137.15 Y117.237 E6.84014
G1 X136.968 Y118.121 E6.86416
G1 X136.708 Y118.986 E6.88819
G1 X136.372 Y119.825 E6.91224
G1 X135.964 Y120.63 E6.93625
G1 X135.486 Y121.396 E6.96028
G1 X134.942 Y122.117 E6.98431
G1 X134.336 Y122.787 E7.00835
G1 X133.674 Y123.401 E7.03237
G1 X132.96 Y123.954 E7.0564
G1 X132.2 Y124.441 E7.08042
G1 X131.399 Y124.86 E7.10447
G1 X130.565 Y125.206 E7.1285
G1 X129.704 Y125.477 E7.15252
G1 X128.535 Y125.715 E7.18426
G1 X127.639 Y125.844 E7.20835
G1 X124.984 Y126.262 E7.27986
G1 X122.519 Y126.723 E7.34659
G1 X119.217 Y127.449 E7.43655
G1 X118.327 Y127.604 E7.46058
G1 X117.232 Y127.685 E7.4898
G1 X116.479 Y127.698 E7.50984
G1 X103.454 Y127.695 E7.85641
G1 X102.746 Y127.684 E7.87525
G1 X101.61 Y127.603 E7.90555
G1 X100.983 Y127.523 E7.92237
G1 X98.42 Y127.232 E7.99101
G1 X95.87 Y127.016 E8.0591
G1 X93.375 Y126.874 E8.12559
G1 X90.287 Y126.808 E8.20778
G1 X90.097 Y126.795 E8.21285
G1 X88.962 Y126.78 E8.24305
G1 X88.061 Y126.728 E8.26706
G1 X87.167 Y126.596 E8.29111
G1 X86.289 Y126.386 E8.31513
G1 X85.433 Y126.099 E8.33915
G1 X84.605 Y125.737 E8.3632
G1 X83.813 Y125.304 E8.38721
G1 X83.062 Y124.802 E8.41125
G1 X82.358 Y124.236 E8.43529
G1 X81.708 Y123.609 E8.45932
G1 X81.115 Y122.928 E8.48334
G1 X80.585 Y122.197 E8.50737
G1 X80.122 Y121.421 E8.53141
G1 X79.729 Y120.608 E8.55544
G1 X79.409 Y119.764 E8.57946
G1 X79.166 Y118.894 E8.60349
G1 X79 Y118.006 E8.62753
G1 X78.904 Y116.882 E8.65754
G1 X78.891 Y116.277 E8.67365
G1 X78.891 Y107.538 E8.90617
G0 F6000 X78.491 Y107.532
G1 F600 X78.502 Y106.826 E8.92496
G1 X78.557 Y105.907 E8.94946
G1 X78.709 Y104.902 E8.9765
G1 X79.261 Y102.158 E9.05098
G1 X79.459 Y101.08 E9.08014
G1 X79.665 Y100.183 E9.10463
G1 X79.948 Y99.307 E9.12913
G1 X80.306 Y98.459 E9.15362
G1 X80.736 Y97.645 E9.17811
G1 X81.235 Y96.871 E9.20262
G1 X81.8 Y96.144 E9.22712
G1 X82.425 Y95.468 E9.25161
G1 X83.107 Y94.849 E9.27612
G1 X83.84 Y94.292 E9.30062
G1 X84.618 Y93.8 E9.32511
G1 X85.436 Y93.378 E9.3496
G1 X86.288 Y93.029 E9.3741
G1 X87.167 Y92.754 E9.39861
G1 X88.066 Y92.557 E9.42309
G1 X88.979 Y92.439 E9.44759
G1 X89.571 Y92.405 E9.46337
G1 X90.223 Y92.39 E9.48072
G1 X92.899 Y92.39 E9.55192
G1 X93.076 Y92.382 E9.55664
G1 X94.041 Y92.386 E9.58231
G1 X96.592 Y92.324 E9.65021
G1 X99.078 Y92.194 E9.71645
G1 X102.058 Y91.948 E9.79601
G1 X102.75 Y91.914 E9.81445
G1 X103.522 Y91.902 E9.83499
G1 X116.342 Y91.904 E10.17611
G1 X117.248 Y91.919 E10.20022
G1 X118.167 Y91.975 E10.22472
G1 X119.077 Y92.112 E10.2492
G1 X120.078 Y92.357 E10.27662
G1 X120.88 Y92.595 E10.29888
G1 X123.417 Y93.31 E10.36902
G1 X125.839 Y93.919 E10.43547
G1 X128.312 Y94.468 E10.50287
G1 X129.916 Y94.784 E10.54637
G1 X130.81 Y95.001 E10.57085
G1 X131.683 Y95.295 E10.59536
G1 X132.526 Y95.664 E10.61985
G1 X133.335 Y96.104 E10.64435
G1 X133.992 Y96.534 E10.66524
G1 X134.208 Y96.687 E10.67228
G1 X134.935 Y97.251 E10.69677
G1 X135.611 Y97.877 E10.72128
G1 X136.23 Y98.558 E10.74577
G1 X136.788 Y99.291 E10.77028
G1 X137.279 Y100.069 E10.79476
G1 X137.702 Y100.887 E10.81926
G1 X138.052 Y101.739 E10.84377
G1 X138.326 Y102.618 E10.86827
G1 X138.524 Y103.517 E10.89276
G1 X138.642 Y104.43 E10.91726
G1 X138.681 Y105.432 E10.94394
G1 X138.677 Y105.878 E10.95581
G1 X138.592 Y107.124 E10.98904
G1 X138.535 Y107.571 E11.00103
G1 X138.28 Y109.37 E11.04938
G1 X137.993 Y111.891 E11.11689
G1 X137.778 Y114.415 E11.18429
G1 X137.717 Y115.463 E11.21222
G1 X137.653 Y116.368 E11.23636
G1 X137.548 Y117.282 E11.26084
G1 X137.364 Y118.185 E11.28536
G1 X137.103 Y119.067 E11.30984
G1 X136.766 Y119.924 E11.33434
G1 X136.356 Y120.748 E11.35883
G1 X135.876 Y121.534 E11.38334
G1 X135.329 Y122.275 E11.40784
G1 X134.721 Y122.966 E11.43233
G1 X134.055 Y123.601 E11.45682
G1 X133.336 Y124.176 E11.48132
G1 X132.57 Y124.687 E11.50582
G1 X131.762 Y125.129 E11.53032
G1 X130.919 Y125.5 E11.55483
G1 X130.048 Y125.796 E11.57931
G1 X129.153 Y126.015 E11.60382
G1 X128.592 Y126.111 E11.61897
G1 X127.68 Y126.243 E11.64349
G1 X125.047 Y126.657 E11.71441
G1 X122.612 Y127.113 E11.78032
G1 X119.302 Y127.84 E11.8705
G1 X118.395 Y127.998 E11.89499
G1 X117.241 Y128.085 E11.92579
G1 X116.479 Y128.098 E11.94606
G1 X103.447 Y128.095 E12.29282
G1 X102.739 Y128.084 E12.31166
G1 X101.559 Y127.999 E12.34314
G1 X100.954 Y127.922 E12.35937
G1 X98.374 Y127.629 E12.42846
G1 X95.852 Y127.415 E12.49581
G1 X93.371 Y127.274 E12.56193
G1 X90.279 Y127.208 E12.64422
G1 X90.083 Y127.195 E12.64944
G1 X88.957 Y127.18 E12.67941
G1 X88.038 Y127.128 E12.7039
G1 X87.126 Y126.996 E12.72842
G1 X86.23 Y126.785 E12.75291
G1 X85.356 Y126.498 E12.77739
G1 X84.509 Y126.135 E12.80191
G1 X83.698 Y125.701 E12.82638
G1 X82.927 Y125.198 E12.85088
G1 X82.202 Y124.63 E12.87538
G1 X81.53 Y124.001 E12.89988
G1 X80.914 Y123.316 E12.92439
G1 X80.361 Y122.58 E12.94888
G1 X79.873 Y121.799 E12.97339
G1 X79.455 Y120.979 E12.99788
G1 X79.11 Y120.125 E13.02238
G1 X78.84 Y119.245 E13.04688
G1 X78.648 Y118.345 E13.07136
G1 X78.534 Y117.431 E13.09587
G1 X78.505 Y116.894 E13.11018
G1 X78.491 Y116.277 E13.1266
G1 X78.491 Y107.532 E13.35929
G1 F2100 E9.35929
;MESH:void_switch-v53-mount-vc-stem.stl
G0 F6000 X92.341 Y108.494
;TYPE:WALL-INNER
G1 F2100 E13.35929
G1 F434.8 X92.341 Y107.844 E13.38316
G1 F437.2 X91.975 Y107.961 E13.39719
G1 F441.2 X90.854 Y107.957 E13.43776
G1 F442.8 X90.562 Y107.882 E13.44863
G1 X90.562 Y108.498 E13.47084
G1 F442 X91.155 Y108.497 E13.49225
G1 F438.8 X91.748 Y108.496 E13.51383
G1 F436.4 X92.341 Y108.494 E13.53553
G0 F6000 X92.817 Y109.095
G1 F600 X92.817 Y107.441 E13.57954
G1 X92.587 Y107.388 E13.58582
G1 X92.405 Y107.259 E13.59175
G1 X92.223 Y107.388 E13.59769
G1 X91.902 Y107.49 E13.60665
G1 X90.892 Y107.488 E13.63353
G1 X90.563 Y107.403 E13.64257
G1 X90.426 Y107.314 E13.64691
G1 X90.289 Y107.403 E13.65126
G1 X90.091 Y107.445 E13.65665
G1 X90.088 Y109.098 E13.70063
G1 X90.471 Y108.97 E13.71137
G1 X92.436 Y108.97 E13.76366
G1 X92.817 Y109.095 E13.77433
G0 F6000 X93.126 Y109.97
G1 F447.8 X93.171 Y109.625 E13.78673
G1 F539.3 X93.217 Y109.28 E13.79704
G1 F600 X93.217 Y107.151 E13.85369
G1 X93.181 Y107.09 E13.85557
G1 X93.029 Y107.09 E13.85961
G1 X92.763 Y107.029 E13.86688
G1 X92.607 Y106.918 E13.87197
G1 F563.4 X92.405 Y106.544 E13.88402
G1 X92.203 Y106.918 E13.89606
G1 F600 X92.047 Y107.029 E13.90116
G1 X91.853 Y107.09 E13.90657
G1 X90.924 Y107.089 E13.93129
G1 X90.727 Y107.038 E13.9367
G1 X90.571 Y106.937 E13.94165
G1 X90.426 Y106.642 E13.95039
G1 X90.28 Y106.937 E13.95915
G1 X90.125 Y107.038 E13.96407
G1 X89.878 Y107.09 E13.97079
G1 X89.726 Y107.09 E13.97483
G1 X89.69 Y107.151 E13.97672
G1 X89.688 Y109.28 E14.03337
G1 F539.3 X89.734 Y109.625 E14.04367
G1 F448.6 X89.781 Y109.97 E14.05606
G1 X89.945 Y109.73 E14.06641
G1 F539.3 X90.109 Y109.49 E14.07501
G1 F600 X90.471 Y109.37 E14.08516
G1 X92.436 Y109.37 E14.13744
G1 X92.799 Y109.489 E14.14761
G1 F539.3 X92.962 Y109.729 E14.1562
G1 F447.8 X93.126 Y109.97 E14.16659
G1 F2100 E10.16659
G0 F6000 X93.617 Y116.39
;TYPE:WALL-OUTER
G1 F2100 E14.16659
G1 F600 X93.617 Y107.044 E14.41527
G1 X93.412 Y106.69 E14.42615
G1 X93.029 Y106.69 E14.43634
G1 X92.888 Y106.633 E14.44039
G1 X92.829 Y106.508 E14.44407
G1 X92.829 Y103.19 E14.53235
G1 X91.981 Y103.19 E14.55492
G1 X91.981 Y106.508 E14.6432
G1 X91.922 Y106.633 E14.64688
G1 X91.814 Y106.688 E14.65011
G1 X90.912 Y106.69 E14.67411
G1 F505.3 X90.699 Y106.514 E14.68284
G1 F437.2 X90.699 Y104.888 E14.74222
G1 F438.8 X90.699 Y103.262 E14.80138
G1 X90.152 Y103.263 E14.82129
G1 X90.152 Y104.889 E14.88045
G1 F437.2 X90.152 Y106.515 E14.93983
G1 F505.3 X89.941 Y106.69 E14.94849
G1 F600 X89.495 Y106.69 E14.96036
G1 X89.29 Y107.044 E14.97125
G1 X89.291 Y116.39 E15.21992
G1 X90.271 Y116.39 E15.246
G1 X90.271 Y109.97 E15.41682
G1 X90.35 Y109.81 E15.42157
G1 X90.471 Y109.77 E15.42496
G1 X92.436 Y109.77 E15.47725
G1 X92.557 Y109.809 E15.48063
G1 X92.636 Y109.97 E15.4854
G1 X92.637 Y116.39 E15.65623
G1 X93.617 Y116.39 E15.6823
G0 F6000 X93.127 Y115.9
;TYPE:WALL-INNER
G1 F413.8 X93.127 Y112.935 E15.7967
G1 F413.1 X93.126 Y109.97 E15.91129
G1 F2100 E11.91129
G0 F6000 X89.781 Y109.97
G1 F2100 E15.91129
G1 F413.8 X89.781 Y115.9 E16.14008
G1 F2100 E12.14008
G0 F6000 X92.405 Y106.544
G1 F2100 E16.14008
G1 F532.2 X92.405 Y105.079 E16.18403
G1 F534.5 X92.405 Y103.614 E16.22779
G1 F2100 E12.22779
;MESH:void_switch-v53-mount-vc.stl
G0 F6000 X99.744 Y108.526
;TYPE:WALL-INNER
G1 F2100 E16.22779
G1 F434.8 X99.744 Y107.876 E16.25165
G1 F437.2 X99.378 Y107.993 E16.26569
G1 F441.2 X98.256 Y107.989 E16.30629
G1 F442.8 X97.964 Y107.914 E16.31716
G1 X97.964 Y108.53 E16.33937
G1 F442 X98.557 Y108.529 E16.36079
G1 F438.8 X99.15 Y108.528 E16.38236
G1 F436.4 X99.743 Y108.527 E16.40406
G0 F6000 X100.22 Y109.127
G1 F600 X100.22 Y107.473 E16.44807
G1 X99.989 Y107.42 E16.45438
G1 X99.807 Y107.291 E16.46031
G1 X99.625 Y107.42 E16.46625
G1 X99.304 Y107.522 E16.47521
G1 X98.294 Y107.52 E16.50208
G1 X97.965 Y107.435 E16.51113
G1 X97.828 Y107.346 E16.51547
G1 X97.691 Y107.435 E16.51982
G1 X97.493 Y107.477 E16.52521
G1 X97.49 Y109.13 E16.56919
G1 X97.873 Y109.002 E16.57993
G1 X99.839 Y109.002 E16.63224
G1 X100.22 Y109.127 E16.64291
G0 F6000 X100.529 Y110.002
G1 F447.8 X100.574 Y109.657 E16.65532
G1 F539.3 X100.62 Y109.312 E16.66562
G1 F600 X100.62 Y107.185 E16.72222
G1 X100.583 Y107.122 E16.72416
G1 X100.431 Y107.122 E16.72821
G1 X100.166 Y107.061 E16.73544
G1 X100.009 Y106.95 E16.74056
G1 F563.4 X99.807 Y106.576 E16.7526
G1 X99.605 Y106.95 E16.76465
G1 F600 X99.448 Y107.061 E16.76976
G1 X99.256 Y107.122 E16.77512
G1 X98.326 Y107.121 E16.79987
G1 X98.129 Y107.07 E16.80529
G1 X97.973 Y106.969 E16.81023
G1 X97.828 Y106.674 E16.81898
G1 X97.682 Y106.969 E16.82773
G1 X97.527 Y107.07 E16.83266
G1 X97.28 Y107.122 E16.83937
