;FLAVOR:Marlin
;TIME:1517
;Filament used: 0.410189m
;Layer height: 0.16
;MINX:124.727
;MINY:118.258
;MINZ:0.16
;MAXX:178.838
;MAXY:155.557
;MAXZ:10.56
;Generated with Cura_SteamEngine main
M82 ;absolute extrusion mode
; Ender 3 Custom Start G-code
G92 E0 ; Reset Extruder
G28 ; Home all axes
M104 S120 ; Start heating up the nozzle most of the way
M190 S68.0 ; Start heating the bed, wait until target temperature reached
M109 S252.0 ; Finish heating the nozzle
G1 Z2.0 F3000 ; Move Z Axis up little to prevent scratching of Heat Bed
G1 X0.1 Y20 Z0.3 F5000.0 ; Move to start position
G1 X0.1 Y200.0 Z0.3 F1500.0 E15 ; Draw the first line
G1 X0.4 Y200.0 Z0.3 F5000.0 ; Move to side a little
G1 X0.4 Y20 Z0.3 F1500.0 E30 ; Draw the second line
G92 E0 ; Reset Extruder
G1 Z2.0 F3000 ; Move Z Axis up little to prevent scratching of Heat Bed
G1 X5 Y20 Z0.3 F5000.0 ; Move over to prevent blob squish
G92 E0
G92 E0
G1 F1500 E-6.5
;LAYER_COUNT:66
;LAYER:0
M107
G0 F6000 X128.723 Y122.636 Z0.16
G0 X125.51 Y129.443
;TYPE:SKIRT
G1 F1500 E0
G1 F900 X125.713 Y128.363 E0.02924
G1 X125.925 Y127.45 E0.05418
G1 X126.214 Y126.557 E0.07915
G1 X126.578 Y125.693 E0.1041
G1 X127.015 Y124.863 E0.12906
G1 X127.52 Y124.073 E0.15401
G1 X128.091 Y123.329 E0.17896
G1 X128.723 Y122.636 E0.20392
G1 X129.412 Y122 E0.22887
G1 X130.153 Y121.425 E0.25382
G1 X130.94 Y120.915 E0.27878
G1 X131.768 Y120.473 E0.30375
G1 X132.63 Y120.104 E0.3287
G1 X133.52 Y119.81 E0.35364
G1 X134.641 Y119.554 E0.38424
G1 X135.259 Y119.447 E0.40092
G1 X137.771 Y118.978 E0.46892
G1 X139.95 Y118.514 E0.5282
G1 X140.875 Y118.358 E0.55316
G1 X142.065 Y118.274 E0.5849
G1 X142.881 Y118.261 E0.60662
G1 X155.954 Y118.258 E0.95446
G1 X156.843 Y118.27 E0.97812
G1 X157.779 Y118.325 E1.00307
G1 X158.707 Y118.459 E1.02802
G1 X159.621 Y118.671 E1.05298
G1 X160.187 Y118.845 E1.06874
G1 X161.653 Y119.346 E1.10996
G1 X164.06 Y120.124 E1.17727
G1 X166.466 Y120.825 E1.24395
G1 X169.042 Y121.497 E1.31479
G1 X170.226 Y121.787 E1.34722
G1 X171.127 Y122.049 E1.37219
G1 X172.002 Y122.386 E1.39714
G1 X172.845 Y122.797 E1.42209
G1 X173.449 Y123.149 E1.44069
G1 X173.671 Y123.288 E1.44766
G1 X174.444 Y123.819 E1.47262
G1 X175.168 Y124.414 E1.49755
G1 X175.84 Y125.069 E1.52252
G1 X176.453 Y125.778 E1.54746
G1 X177.004 Y126.537 E1.57241
G1 X177.488 Y127.341 E1.59738
G1 X177.902 Y128.182 E1.62233
G1 X178.243 Y129.056 E1.64729
G1 X178.508 Y129.956 E1.67225
G1 X178.695 Y130.875 E1.69721
G1 X178.804 Y131.806 E1.72215
G1 X178.832 Y132.462 E1.73962
G1 X178.838 Y132.906 E1.75143
G1 X178.811 Y133.844 E1.7764
G1 X178.732 Y134.589 E1.79634
G1 X178.332 Y137.432 E1.87273
G1 X178.057 Y139.909 E1.93904
G1 X177.853 Y142.341 E2.00398
G1 X177.811 Y142.934 E2.0198
G1 X177.704 Y143.866 E2.04476
G1 X177.519 Y144.785 E2.0697
G1 X177.256 Y145.685 E2.09465
G1 X176.917 Y146.559 E2.1196
G1 X176.504 Y147.402 E2.14457
G1 X176.022 Y148.206 E2.16952
G1 X175.473 Y148.966 E2.19446
G1 X174.861 Y149.677 E2.21942
G1 X174.19 Y150.333 E2.24439
G1 X173.466 Y150.929 E2.26935
G1 X172.694 Y151.462 E2.29431
G1 X171.88 Y151.927 E2.31925
G1 X171.029 Y152.321 E2.3442
G1 X170.147 Y152.641 E2.36917
G1 X169.009 Y152.934 E2.40044
G1 X168.174 Y153.102 E2.4231
G1 X166.975 Y153.328 E2.45556
G1 X164.468 Y153.872 E2.52382
G1 X162.083 Y154.461 E2.58919
G1 X159.936 Y155.057 E2.64848
G1 X159.39 Y155.198 E2.66348
G1 X158.473 Y155.393 E2.68843
G1 X157.543 Y155.51 E2.71337
G1 X156.813 Y155.546 E2.73282
G1 X156.113 Y155.557 E2.75144
G1 X142.777 Y155.556 E3.10629
G1 X142.079 Y155.546 E3.12486
G1 X140.846 Y155.459 E3.15775
G1 X140.301 Y155.389 E3.17237
G1 X137.809 Y155.106 E3.23911
G1 X134.817 Y154.855 E3.319
G1 X133.887 Y154.736 E3.34395
G1 X132.97 Y154.539 E3.3689
G1 X132.073 Y154.265 E3.39386
G1 X131.203 Y153.915 E3.41881
G1 X130.365 Y153.493 E3.44378
G1 X129.567 Y153 E3.46873
G1 X128.814 Y152.442 E3.49367
G1 X128.111 Y151.821 E3.51863
G1 X127.463 Y151.143 E3.54359
G1 X126.876 Y150.412 E3.56853
G1 X126.352 Y149.633 E3.59351
G1 X125.898 Y148.813 E3.61845
G1 X125.514 Y147.957 E3.64341
G1 X125.205 Y147.072 E3.66836
G1 X124.973 Y146.163 E3.69332
G1 X124.819 Y145.238 E3.71827
G1 X124.741 Y144.214 E3.7456
G1 X124.727 Y143.586 E3.76231
G1 X124.727 Y134.918 E3.99295
G1 X124.738 Y134.212 E4.01174
G1 X124.793 Y133.275 E4.03671
G1 X124.953 Y132.216 E4.06521
G1 X125.51 Y129.443 E4.14047
G1 F1500 E-2.35953
G0 F6000 X125.527 Y134.93
G1 F1500 E4.14047
G1 F900 X125.538 Y134.224 E4.15925
G1 X125.592 Y133.323 E4.18327
G1 X125.737 Y132.373 E4.20884
G1 X126.299 Y129.576 E4.28475
G1 X126.499 Y128.511 E4.31359
G1 X126.705 Y127.631 E4.33763
G1 X126.987 Y126.774 E4.36164
G1 X127.345 Y125.944 E4.38569
G1 X127.774 Y125.15 E4.4097
G1 X128.272 Y124.396 E4.43375
G1 X128.835 Y123.69 E4.45777
G1 X129.458 Y123.036 E4.48181
G1 X130.136 Y122.44 E4.50583
G1 X130.865 Y121.906 E4.52987
G1 X131.637 Y121.439 E4.55388
G1 X132.449 Y121.042 E4.57793
G1 X133.292 Y120.718 E4.60196
G1 X134.16 Y120.47 E4.62598
G1 X134.778 Y120.343 E4.64277
G1 X135.308 Y120.251 E4.65708
G1 X137.958 Y119.756 E4.72881
G1 X140.116 Y119.297 E4.78752
G1 X141.007 Y119.148 E4.81155
G1 X142.078 Y119.074 E4.84012
G1 X142.894 Y119.061 E4.86183
G1 X155.954 Y119.058 E5.20934
G1 X156.83 Y119.07 E5.23265
G1 X157.732 Y119.124 E5.25669
G1 X158.625 Y119.257 E5.28071
G1 X159.931 Y119.603 E5.31666
G1 X161.413 Y120.11 E5.35834
G1 X163.801 Y120.881 E5.42511
G1 X166.251 Y121.596 E5.49302
G1 X168.906 Y122.288 E5.56602
G1 X170.036 Y122.565 E5.59698
G1 X170.903 Y122.818 E5.62101
G1 X171.744 Y123.147 E5.64504
G1 X172.553 Y123.549 E5.66908
G1 X173.246 Y123.966 E5.6906
G1 X173.989 Y124.478 E5.71461
G1 X174.685 Y125.055 E5.73866
G1 X175.326 Y125.691 E5.76269
G1 X175.909 Y126.38 E5.7867
G1 X176.428 Y127.119 E5.81073
G1 X176.88 Y127.901 E5.83477
G1 X177.262 Y128.72 E5.85881
G1 X177.569 Y129.569 E5.88283
G1 X177.8 Y130.442 E5.90686
G1 X177.953 Y131.332 E5.93089
G1 X178.032 Y132.473 E5.96132
G1 X178.038 Y132.917 E5.97314
G1 X178.01 Y133.82 E5.99718
G1 X177.939 Y134.477 E6.01476
G1 X177.542 Y137.298 E6.09056
G1 X177.257 Y139.867 E6.15934
G1 X177.065 Y142.149 E6.22027
G1 X177.013 Y142.877 E6.23969
G1 X176.909 Y143.774 E6.26372
G1 X176.726 Y144.658 E6.28774
G1 X176.465 Y145.523 E6.31178
G1 X176.129 Y146.361 E6.3358
G1 X175.72 Y147.166 E6.35983
G1 X175.242 Y147.932 E6.38385
G1 X174.697 Y148.653 E6.4079
G1 X174.091 Y149.322 E6.43192
G1 X173.428 Y149.936 E6.45596
G1 X172.714 Y150.488 E6.47998
G1 X171.953 Y150.975 E6.50402
G1 X171.153 Y151.393 E6.52803
G1 X170.318 Y151.738 E6.55207
G1 X169.457 Y152.008 E6.57608
G1 X168.851 Y152.15 E6.59265
G1 X168.016 Y152.318 E6.61531
G1 X166.807 Y152.546 E6.64804
G1 X164.318 Y153.086 E6.71581
G1 X161.871 Y153.69 E6.78288
G1 X159.92 Y154.233 E6.83676
G1 X159.19 Y154.423 E6.85683
G1 X158.307 Y154.61 E6.88085
G1 X157.41 Y154.718 E6.90489
G1 X156.8 Y154.746 E6.92114
G1 X156.1 Y154.757 E6.93977
G1 X142.789 Y154.756 E7.29395
G1 X142.091 Y154.746 E7.31252
G1 X140.948 Y154.665 E7.34301
G1 X140.503 Y154.608 E7.35495
G1 X137.83 Y154.304 E7.42653
G1 X134.884 Y154.057 E7.50519
G1 X133.988 Y153.942 E7.52923
G1 X133.106 Y153.748 E7.55326
G1 X132.245 Y153.477 E7.57727
G1 X131.411 Y153.13 E7.60131
G1 X130.61 Y152.712 E7.62535
G1 X129.851 Y152.224 E7.64936
G1 X129.137 Y151.671 E7.67339
G1 X128.475 Y151.056 E7.69743
G1 X127.87 Y150.386 E7.72145
G1 X127.326 Y149.665 E7.74549
G1 X126.848 Y148.898 E7.76953
G1 X126.441 Y148.092 E7.79356
G1 X126.106 Y147.254 E7.81757
G1 X125.846 Y146.389 E7.8416
G1 X125.664 Y145.504 E7.86565
G1 X125.54 Y144.191 E7.90074
G1 X125.527 Y143.586 E7.91684
G1 X125.527 Y134.93 E8.14716
G0 F6000 X125.127 Y134.924
G1 F900 X125.138 Y134.218 E8.16595
G1 X125.193 Y133.299 E8.19044
G1 X125.345 Y132.294 E8.21749
G1 X125.906 Y129.502 E8.29326
G1 X126.106 Y128.437 E8.3221
G1 X126.315 Y127.54 E8.3466
G1 X126.601 Y126.665 E8.3711
G1 X126.962 Y125.818 E8.3956
G1 X127.395 Y125.006 E8.42008
G1 X127.896 Y124.234 E8.44457
G1 X128.463 Y123.508 E8.46908
G1 X129.091 Y122.835 E8.49357
G1 X129.775 Y122.218 E8.51808
G1 X130.509 Y121.664 E8.54255
G1 X131.29 Y121.175 E8.56707
G1 X132.109 Y120.755 E8.59156
G1 X132.962 Y120.408 E8.61606
G1 X133.842 Y120.137 E8.64056
G1 X134.709 Y119.949 E8.66417
G1 X135.244 Y119.856 E8.67862
G1 X137.849 Y119.37 E8.74913
G1 X140.033 Y118.905 E8.80854
G1 X140.941 Y118.753 E8.83304
G1 X142.071 Y118.674 E8.86318
G1 X142.887 Y118.661 E8.88489
G1 X155.954 Y118.658 E9.23258
G1 X156.836 Y118.67 E9.25605
G1 X157.755 Y118.724 E9.28055
G1 X158.666 Y118.858 E9.30505
G1 X159.562 Y119.07 E9.32955
G1 X160.059 Y119.224 E9.34339
G1 X161.533 Y119.728 E9.38484
G1 X163.931 Y120.502 E9.45189
G1 X166.359 Y121.211 E9.51919
G1 X168.974 Y121.893 E9.5911
G1 X170.131 Y122.176 E9.62279
G1 X171.015 Y122.434 E9.6473
G1 X171.873 Y122.767 E9.67179
G1 X172.699 Y123.173 E9.69628
G1 X173.236 Y123.488 E9.71284
G1 X173.458 Y123.627 E9.71981
G1 X174.217 Y124.149 E9.74432
G1 X174.927 Y124.735 E9.76882
G1 X175.584 Y125.38 E9.79331
G1 X176.182 Y126.08 E9.81781
G1 X176.717 Y126.829 E9.8423
G1 X177.185 Y127.621 E9.86678
G1 X177.583 Y128.452 E9.8913
G1 X177.907 Y129.313 E9.91577
G1 X178.155 Y130.2 E9.94028
G1 X178.325 Y131.105 E9.96478
G1 X178.432 Y132.468 E10.00116
G1 X178.438 Y132.912 E10.01298
G1 X178.41 Y133.832 E10.03747
G1 X178.335 Y134.533 E10.05623
G1 X177.936 Y137.365 E10.13232
G1 X177.658 Y139.871 E10.19941
G1 X177.459 Y142.249 E10.26291
G1 X177.412 Y142.905 E10.28041
G1 X177.307 Y143.82 E10.30491
G1 X177.122 Y144.722 E10.32941
G1 X176.86 Y145.604 E10.3539
G1 X176.523 Y146.461 E10.3784
G1 X176.112 Y147.285 E10.4029
G1 X175.632 Y148.07 E10.42738
G1 X175.085 Y148.811 E10.45189
G1 X174.476 Y149.501 E10.47638
G1 X173.809 Y150.136 E10.50088
G1 X173.09 Y150.711 E10.52538
G1 X172.323 Y151.221 E10.54989
G1 X171.516 Y151.663 E10.57437
G1 X170.672 Y152.033 E10.59889
G1 X169.8 Y152.328 E10.62338
G1 X168.93 Y152.542 E10.64722
G1 X168.095 Y152.71 E10.66989
G1 X166.895 Y152.936 E10.70238
G1 X164.393 Y153.479 E10.7705
G1 X161.969 Y154.078 E10.83694
G1 X160.027 Y154.618 E10.89057
G1 X159.29 Y154.81 E10.91084
G1 X158.39 Y155.002 E10.93532
G1 X157.476 Y155.114 E10.95982
G1 X156.807 Y155.146 E10.97765
G1 X156.107 Y155.157 E10.99627
G1 X142.783 Y155.156 E11.3508
G1 X142.085 Y155.146 E11.36937
G1 X140.897 Y155.062 E11.40106
G1 X140.402 Y154.999 E11.41434
G1 X137.821 Y154.705 E11.48346
G1 X134.85 Y154.456 E11.56279
G1 X133.937 Y154.339 E11.58728
G1 X133.038 Y154.144 E11.61176
G1 X132.158 Y153.871 E11.63627
G1 X131.306 Y153.523 E11.66076
G1 X130.487 Y153.102 E11.68527
G1 X129.708 Y152.612 E11.70975
G1 X128.974 Y152.056 E11.73425
G1 X128.291 Y151.438 E11.75876
G1 X127.664 Y150.764 E11.78326
G1 X127.099 Y150.038 E11.80773
G1 X126.598 Y149.265 E11.83224
G1 X126.166 Y148.452 E11.85674
G1 X125.807 Y147.604 E11.88124
G1 X125.522 Y146.729 E11.90573
G1 X125.315 Y145.832 E11.93022
G1 X125.186 Y144.92 E11.95473
G1 X125.141 Y144.203 E11.97385
G1 X125.127 Y143.586 E11.99027
G1 X125.127 Y134.924 E12.22075
G1 F1500 E5.72075
;MESH:void_switch-v29.stl
G0 F6000 X137.127 Y136.091
;TYPE:WALL-INNER
G1 F1500 E12.22075
G1 F900 X139.053 Y136.092 E12.272
G1 X139.053 Y135.132 E12.29754
G1 X138.558 Y135.282 E12.3113
G1 X137.549 Y135.282 E12.33815
G1 X137.127 Y135.182 E12.34969
G1 X137.127 Y136.091 E12.37388
G0 F6000 X136.724 Y136.62
G1 F900 X137.107 Y136.492 E12.38462
G1 X139.073 Y136.492 E12.43693
G1 X139.453 Y136.618 E12.44759
G1 X139.453 Y134.833 E12.49508
G1 X139.223 Y134.78 E12.50136
G1 X139.042 Y134.651 E12.50728
G1 X138.86 Y134.78 E12.51321
G1 X138.517 Y134.882 E12.52273
G1 X137.566 Y134.882 E12.54804
G1 X137.199 Y134.795 E12.55807
G1 X137.062 Y134.706 E12.56242
G1 X136.925 Y134.795 E12.56677
G1 X136.727 Y134.837 E12.57215
G1 X136.724 Y136.62 E12.61959
G0 F6000 X136.417 Y137.492
G1 F672.9 X136.581 Y137.252 E12.62994
G1 F809 X136.745 Y137.012 E12.63854
G1 F900 X137.107 Y136.892 E12.64869
G1 X139.073 Y136.892 E12.701
G1 X139.434 Y137.011 E12.71112
G1 F809 X139.598 Y137.251 E12.71972
G1 F672.9 X139.763 Y137.492 E12.73012
G1 X139.808 Y137.147 E12.7425
G1 F809 X139.853 Y136.802 E12.7528
G1 F900 X139.853 Y134.546 E12.81283
G1 X139.816 Y134.482 E12.81479
G1 X139.666 Y134.482 E12.81878
G1 X139.4 Y134.421 E12.82604
G1 X139.244 Y134.31 E12.83114
G1 F843.1 X139.041 Y133.936 E12.84323
G1 X138.84 Y134.31 E12.85529
G1 F900 X138.683 Y134.421 E12.8604
G1 X138.492 Y134.478 E12.86571
G1 X137.583 Y134.482 E12.88989
G1 X137.363 Y134.43 E12.89591
G1 X137.207 Y134.329 E12.90085
G1 X137.062 Y134.034 E12.9096
G1 X136.916 Y134.329 E12.91836
G1 X136.761 Y134.43 E12.92328
G1 X136.514 Y134.482 E12.93
G1 X136.363 Y134.482 E12.93401
G1 X136.326 Y134.546 E12.93598
G1 X136.324 Y136.802 E12.99601
G1 F809 X136.37 Y137.147 E13.00631
G1 F672.9 X136.417 Y137.492 E13.0187
G1 F1500 E6.5187
G0 F6000 X135.927 Y143.702
;TYPE:WALL-OUTER
G1 F1500 E13.0187
G1 F900 X136.907 Y143.702 E13.04478
G1 X136.907 Y137.492 E13.21002
G1 X136.986 Y137.332 E13.21476
G1 X137.107 Y137.292 E13.21815
G1 X139.073 Y137.292 E13.27047
G1 X139.194 Y137.331 E13.27385
G1 X139.273 Y137.492 E13.27862
G1 X139.273 Y143.702 E13.44386
G1 X140.253 Y143.702 E13.46993
G1 X140.253 Y134.438 E13.71643
G1 X140.046 Y134.082 E13.72739
G1 X139.666 Y134.082 E13.7375
G1 X139.525 Y134.025 E13.74155
G1 X139.466 Y133.9 E13.74522
G1 X139.465 Y130.582 E13.83351
G1 X138.617 Y130.582 E13.85607
G1 X138.617 Y133.9 E13.94436
G1 X138.558 Y134.025 E13.94804
G1 X138.442 Y134.081 E13.95146
G1 X137.548 Y134.082 E13.97525
G1 F757.9 X137.335 Y133.906 E13.98398
G1 F655.7 X137.335 Y132.28 E14.04336
G1 F658.1 X137.335 Y130.654 E14.10253
G1 X136.788 Y130.655 E14.12243
G1 X136.788 Y132.281 E14.1816
G1 F655.7 X136.788 Y133.907 E14.24098
G1 F757.9 X136.577 Y134.082 E14.24964
G1 F900 X136.133 Y134.082 E14.26145
G1 X135.926 Y134.438 E14.27241
G1 X135.927 Y143.702 E14.51891
G0 F6000 X136.417 Y143.212
;TYPE:WALL-INNER
G1 F620.7 X136.417 Y137.492 E14.73959
G1 F1500 E8.23959
G0 F6000 X139.763 Y137.492
G1 F1500 E14.73959
G1 F620.7 X139.763 Y143.212 E14.96028
G1 F1500 E8.46028
G0 F6000 X139.041 Y133.936
G1 F1500 E14.96028
G1 F794.7 X139.041 Y132.471 E15.00443
G1 F798.2 X139.041 Y131.006 E15.04838
G1 F1500 E8.54838
G0 F6000 X138.643 Y135.682
;TYPE:SKIN
G1 F1500 E15.04838
G1 F724.3 X138.087 Y135.684 E15.06676
G1 F733.2 X137.531 Y135.686 E15.08492
G1 F1500 E8.58492
G0 F6000 X142.883 Y131.309
;TYPE:WALL-INNER
G1 F1500 E15.08492
G1 F637.2 X143.848 Y130.342 E15.13627
G1 X142.883 Y130.342 E15.17253
G1 X142.883 Y131.309 E15.20888
G1 F1500 E8.70888
G0 F6000 X142.473 Y136.309
G1 F1500 E15.20888
G1 F656.9 X142.668 Y135.831 E15.2277
G1 F653.4 X143.142 Y135.357 E15.25227
G1 F667.9 X142.899 Y135.114 E15.26459
G1 F794.7 X142.764 Y134.706 E15.27754
G1 F954.9 X142.763 Y133.93 E15.297
G1 F960 X142.761 Y133.154 E15.31636
G1 F965.1 X142.76 Y132.378 E15.33561
G1 F932.6 X142.92 Y131.952 E15.34729
G1 F900 X144.495 Y130.377 E15.40656
G1 F927.8 X144.818 Y130.222 E15.41581
G1 F960 X145.983 Y130.22 E15.44487
G1 F967.7 X147.148 Y130.217 E15.4737
G1 F880.2 X147.399 Y130.284 E15.48077
G1 F739.2 X147.652 Y130.352 E15.48925
G1 F669.1 X147.9 Y130.6 E15.5018
G1 F653.4 X148.375 Y130.125 E15.52643
G1 F652.2 X148.736 Y129.936 E15.54139
G1 X147.9 Y129.934 E15.57209
G1 F684.4 X147.785 Y129.912 E15.57618
G1 F767.6 X147.466 Y129.879 E15.58619
G1 F893.3 X147.147 Y129.845 E15.59479
G1 F970.4 X144.92 Y129.845 E15.64975
G1 F952.4 X144.6 Y129.852 E15.6578
G1 F918.4 X144.28 Y129.86 E15.66614
G1 F900 X142.401 Y129.86 E15.71614
G1 X142.401 Y131.737 E15.76608
G1 F916 X142.394 Y132.057 E15.77445
G1 F949.9 X142.387 Y132.377 E15.78252
G1 F965.1 X142.387 Y133.164 E15.80205
G1 F960 X142.387 Y133.951 E15.82168
G1 F954.9 X142.388 Y134.738 E15.84142
G1 F878 X142.42 Y134.99 E15.84834
G1 F762.7 X142.453 Y135.243 E15.85635
G1 F683.1 X142.476 Y135.357 E15.86043
G1 F656.9 X142.473 Y136.309 E15.89513
G1 F1500 E9.39513
G0 F6000 X143.2 Y143.157
G1 F1500 E15.89513
G1 F900 X148.121 Y143.158 E16.02607
G1 X147.861 Y143.007 E16.03407
G1 X143.202 Y138.346 E16.20943
G1 X143.2 Y143.157 E16.33744
G1 F1500 E9.83744
G0 F6000 X149.583 Y143.158
G1 F1500 E16.33744
G1 F900 X155.698 Y143.157 E16.50015
G1 X155.698 Y137.043 E16.66283
G1 X155.548 Y137.299 E16.67072
