;FLAVOR:Marlin
;TIME:2310
;Filament used: 0.499143m
;Layer height: 0.16
;MINX:71.044
;MINY:91.352
;MINZ:0.16
;MAXX:134.015
;MAXY:128.648
;MAXZ:10.56
;Generated with Cura_SteamEngine main
M82 ;absolute extrusion mode
; Ender 3 Custom Start G-code
G92 E0 ; Reset Extruder
G28 ; Home all axes
M104 S120 ; Start heating up the nozzle most of the way
M190 S68.0 ; Start heating the bed, wait until target temperature reached
M109 S248.0 ; Finish heating the nozzle
G1 Z2.0 F3000 ; Move Z Axis up little to prevent scratching of Heat Bed
G1 X0.1 Y20 Z0.3 F5000.0 ; Move to start position
G1 X0.1 Y200.0 Z0.3 F1500.0 E15 ; Draw the first line
G1 X0.4 Y200.0 Z0.3 F5000.0 ; Move to side a little
G1 X0.4 Y20 Z0.3 F1500.0 E30 ; Draw the second line
G92 E0 ; Reset Extruder
G1 Z2.0 F3000 ; Move Z Axis up little to prevent scratching of Heat Bed
G1 X5 Y20 Z0.3 F5000.0 ; Move over to prevent blob squish
G92 E0
G92 E0
G1 F1500 E-3.5
;LAYER_COUNT:66
;LAYER:0
M107
G0 F6000 X75.74 Y94.711 Z0.16
G0 X71.957 Y101.467
;TYPE:SKIRT
G1 F1500 E0
G1 F600 X72.032 Y101.07 E0.01075
G1 X72.245 Y100.157 E0.0357
G1 X72.536 Y99.265 E0.06066
G1 X72.901 Y98.401 E0.08562
G1 X73.338 Y97.571 E0.11058
G1 X73.845 Y96.782 E0.13553
G1 X74.417 Y96.039 E0.16048
G1 X75.05 Y95.347 E0.18544
G1 X75.74 Y94.711 E0.2104
G1 X76.481 Y94.137 E0.23534
G1 X77.269 Y93.628 E0.26031
G1 X78.097 Y93.188 E0.28525
G1 X78.959 Y92.82 E0.31019
G1 X79.85 Y92.526 E0.33516
G1 X80.763 Y92.31 E0.36012
G1 X81.691 Y92.172 E0.38509
G1 X82.201 Y92.131 E0.3987
G1 X82.799 Y92.097 E0.41464
G1 X84.568 Y92.021 E0.46175
G1 X87.074 Y91.843 E0.5286
G1 X88.927 Y91.658 E0.57815
G1 X89.428 Y91.616 E0.59153
G1 X90.023 Y91.583 E0.60738
G1 X90.547 Y91.569 E0.62133
G1 X93.518 Y91.531 E0.70039
G1 X96.935 Y91.373 E0.79141
G1 X97.973 Y91.352 E0.81903
G1 X111.313 Y91.355 E1.17398
G1 X112.013 Y91.366 E1.19261
G1 X112.949 Y91.421 E1.21756
G1 X113.877 Y91.555 E1.24251
G1 X114.957 Y91.816 E1.27207
G1 X115.963 Y92.115 E1.3
G1 X117.127 Y92.481 E1.33246
G1 X119.534 Y93.164 E1.39904
G1 X121.957 Y93.777 E1.46554
G1 X123.955 Y94.231 E1.52006
G1 X125.072 Y94.472 E1.55046
G1 X125.979 Y94.709 E1.57541
G1 X126.863 Y95.022 E1.60036
G1 X127.81 Y95.451 E1.62802
G1 X128.721 Y95.961 E1.6558
G1 X129.497 Y96.488 E1.68076
G1 X130.226 Y97.078 E1.70572
G1 X130.902 Y97.729 E1.73069
G1 X131.519 Y98.434 E1.75562
G1 X132.075 Y99.19 E1.78059
G1 X132.564 Y99.99 E1.80553
G1 X133.07 Y101.015 E1.83595
G1 X133.44 Y101.981 E1.86347
G1 X133.701 Y102.881 E1.88841
G1 X133.885 Y103.801 E1.91337
G1 X133.989 Y104.733 E1.93832
G1 X134.015 Y105.588 E1.96109
G1 X134.012 Y105.921 E1.96995
G1 X133.924 Y107.213 E2.0044
G1 X133.867 Y107.66 E2.01639
G1 X133.61 Y109.463 E2.06485
G1 X133.323 Y111.98 E2.13226
G1 X133.11 Y114.469 E2.19873
G1 X133.07 Y115.176 E2.21757
G1 X132.986 Y116.364 E2.24926
G1 X132.88 Y117.296 E2.27422
G1 X132.694 Y118.215 E2.29917
G1 X132.431 Y119.116 E2.32414
G1 X132.092 Y119.99 E2.34909
G1 X131.68 Y120.833 E2.37405
G1 X131.198 Y121.637 E2.39899
G1 X130.648 Y122.397 E2.42396
G1 X130.037 Y123.108 E2.4489
G1 X129.366 Y123.764 E2.47387
G1 X128.643 Y124.36 E2.4988
G1 X127.871 Y124.893 E2.52376
G1 X127.056 Y125.358 E2.54873
G1 X126.205 Y125.752 E2.57368
G1 X125.324 Y126.072 E2.59862
G1 X124.418 Y126.316 E2.62359
G1 X123.765 Y126.442 E2.64128
G1 X121.605 Y126.79 E2.6995
G1 X119.124 Y127.255 E2.76666
G1 X116.651 Y127.791 E2.83399
G1 X115.846 Y127.992 E2.85607
G1 X115.662 Y128.03 E2.86107
G1 X114.382 Y128.336 E2.89609
G1 X113.462 Y128.515 E2.92103
G1 X112.529 Y128.615 E2.94599
G1 X112.027 Y128.636 E2.95936
G1 X111.285 Y128.648 E2.97911
G1 X97.965 Y128.647 E3.33353
G1 X97.248 Y128.636 E3.35261
G1 X96.162 Y128.565 E3.38157
G1 X93.242 Y128.23 E3.45977
G1 X90.774 Y128.02 E3.52568
G1 X88.234 Y127.877 E3.59337
G1 X85.697 Y127.805 E3.6609
G1 X82.609 Y127.801 E3.74307
G1 X81.911 Y127.792 E3.76164
G1 X80.975 Y127.74 E3.78658
G1 X80.046 Y127.608 E3.81155
G1 X79.132 Y127.398 E3.83651
G1 X78.239 Y127.111 E3.86146
G1 X77.374 Y126.748 E3.88642
G1 X76.543 Y126.314 E3.91137
G1 X75.752 Y125.81 E3.93633
G1 X75.007 Y125.24 E3.96129
G1 X74.313 Y124.609 E3.98624
G1 X73.676 Y123.922 E4.01117
G1 X73.099 Y123.182 E4.03614
G1 X72.587 Y122.396 E4.0611
G1 X72.144 Y121.569 E4.08606
G1 X71.773 Y120.708 E4.11101
G1 X71.477 Y119.818 E4.13596
G1 X71.258 Y118.906 E4.16092
G1 X71.117 Y117.979 E4.18587
G1 X71.058 Y117.132 E4.20846
G1 X71.044 Y116.502 E4.22523
G1 X71.044 Y107.895 E4.45425
G1 X71.055 Y107.223 E4.47213
G1 X71.111 Y106.287 E4.49708
G1 X71.24 Y105.389 E4.52122
G1 X71.402 Y104.519 E4.54476
G1 X71.611 Y103.476 E4.57307
G1 X71.957 Y101.467 E4.62731
G1 F1500 E1.12731
G0 F6000 X71.844 Y107.908
G1 F1500 E4.62731
G1 F600 X71.855 Y107.236 E4.64519
G1 X71.91 Y106.335 E4.66921
G1 X72.026 Y105.536 E4.6907
G1 X72.188 Y104.666 E4.71424
G1 X72.395 Y103.633 E4.74228
G1 X72.743 Y101.616 E4.79674
G1 X72.818 Y101.219 E4.80749
G1 X73.025 Y100.339 E4.83154
G1 X73.309 Y99.482 E4.85556
G1 X73.667 Y98.653 E4.87959
G1 X74.098 Y97.859 E4.90363
G1 X74.596 Y97.106 E4.92765
G1 X75.16 Y96.401 E4.95167
G1 X75.784 Y95.748 E4.97571
G1 X76.463 Y95.152 E4.99975
G1 X77.192 Y94.619 E5.02378
G1 X77.965 Y94.153 E5.04779
G1 X78.777 Y93.757 E5.07183
G1 X79.62 Y93.434 E5.09585
G1 X80.489 Y93.187 E5.11989
G1 X81.376 Y93.018 E5.14391
G1 X82.248 Y92.929 E5.16724
G1 X82.834 Y92.896 E5.18285
G1 X84.623 Y92.819 E5.2305
G1 X87.142 Y92.64 E5.2977
G1 X88.994 Y92.456 E5.34722
G1 X89.495 Y92.414 E5.36059
G1 X90.046 Y92.382 E5.37528
G1 X90.385 Y92.372 E5.3843
G1 X93.536 Y92.331 E5.46815
G1 X96.972 Y92.172 E5.55968
G1 X97.797 Y92.153 E5.58163
G1 X111.3 Y92.155 E5.94092
G1 X112 Y92.166 E5.95955
G1 X112.902 Y92.22 E5.98359
G1 X113.795 Y92.354 E6.00762
G1 X114.73 Y92.583 E6.03324
G1 X115.723 Y92.878 E6.0608
G1 X116.879 Y93.242 E6.09305
G1 X119.33 Y93.937 E6.16083
G1 X121.827 Y94.569 E6.22937
G1 X123.735 Y95.002 E6.28143
G1 X124.903 Y95.254 E6.31322
G1 X125.777 Y95.484 E6.33727
G1 X126.626 Y95.79 E6.36128
G1 X127.454 Y96.168 E6.3855
G1 X128.329 Y96.66 E6.41221
G1 X129.074 Y97.17 E6.43623
G1 X129.771 Y97.744 E6.46026
G1 X130.414 Y98.378 E6.48429
G1 X130.999 Y99.066 E6.50832
G1 X131.521 Y99.804 E6.53237
G1 X131.975 Y100.584 E6.55638
G1 X132.34 Y101.346 E6.57886
G1 X132.693 Y102.267 E6.60511
G1 X132.94 Y103.136 E6.62915
G1 X133.109 Y104.023 E6.65317
G1 X133.199 Y104.922 E6.67721
G1 X133.215 Y105.581 E6.69475
G1 X133.212 Y105.914 E6.70361
G1 X133.13 Y107.112 E6.73556
G1 X133.073 Y107.559 E6.74755
G1 X132.816 Y109.362 E6.79601
G1 X132.527 Y111.89 E6.86372
G1 X132.311 Y114.425 E6.93141
G1 X132.271 Y115.131 E6.95023
G1 X132.188 Y116.307 E6.9816
G1 X132.084 Y117.204 E7.00563
G1 X131.901 Y118.089 E7.02967
G1 X131.641 Y118.953 E7.05368
G1 X131.305 Y119.792 E7.07773
G1 X130.896 Y120.597 E7.10175
G1 X130.418 Y121.363 E7.12578
G1 X129.873 Y122.084 E7.14983
G1 X129.267 Y122.753 E7.17384
G1 X128.605 Y123.367 E7.19787
G1 X127.89 Y123.919 E7.2219
G1 X127.13 Y124.406 E7.24592
G1 X126.329 Y124.824 E7.26996
G1 X125.495 Y125.17 E7.29399
G1 X124.633 Y125.44 E7.31802
G1 X123.637 Y125.652 E7.34512
G1 X121.456 Y126.004 E7.4039
G1 X118.985 Y126.467 E7.47079
G1 X116.483 Y127.009 E7.53891
G1 X115.653 Y127.216 E7.56167
G1 X115.468 Y127.254 E7.5667
G1 X114.196 Y127.558 E7.6015
G1 X113.309 Y127.729 E7.62553
G1 X112.012 Y127.836 E7.66016
G1 X111.285 Y127.848 E7.67951
G1 X97.978 Y127.847 E8.03358
G1 X97.261 Y127.836 E8.05266
G1 X96.254 Y127.77 E8.07951
G1 X93.335 Y127.435 E8.15769
G1 X90.818 Y127.221 E8.22491
G1 X88.265 Y127.077 E8.29294
G1 X85.721 Y127.005 E8.36066
G1 X82.619 Y127.001 E8.4432
G1 X81.921 Y126.992 E8.46177
G1 X81.02 Y126.941 E8.48579
G1 X80.126 Y126.809 E8.50983
G1 X79.248 Y126.6 E8.53385
G1 X78.391 Y126.313 E8.5579
G1 X77.564 Y125.952 E8.58191
G1 X76.771 Y125.519 E8.60595
G1 X76.02 Y125.018 E8.62997
G1 X75.316 Y124.452 E8.654
G1 X74.665 Y123.826 E8.67803
G1 X74.072 Y123.145 E8.70206
G1 X73.542 Y122.414 E8.72609
G1 X73.078 Y121.639 E8.75012
G1 X72.684 Y120.826 E8.77416
G1 X72.364 Y119.982 E8.79818
G1 X72.12 Y119.112 E8.82222
G1 X71.954 Y118.224 E8.84626
G1 X71.858 Y117.107 E8.87609
G1 X71.844 Y116.502 E8.89219
G1 X71.844 Y107.908 E9.12086
G0 F6000 X71.444 Y107.902
G1 F600 X71.455 Y107.23 E9.13874
G1 X71.51 Y106.311 E9.16324
G1 X71.633 Y105.463 E9.18604
G1 X71.795 Y104.593 E9.20959
G1 X72.003 Y103.557 E9.2377
G1 X72.35 Y101.541 E9.29213
G1 X72.425 Y101.144 E9.30288
G1 X72.635 Y100.248 E9.32737
G1 X72.922 Y99.373 E9.35187
G1 X73.284 Y98.527 E9.37636
G1 X73.718 Y97.715 E9.40086
G1 X74.221 Y96.943 E9.42537
G1 X74.789 Y96.219 E9.44986
G1 X75.417 Y95.546 E9.47435
G1 X76.102 Y94.93 E9.49886
G1 X76.837 Y94.376 E9.52335
G1 X77.618 Y93.888 E9.54786
G1 X78.438 Y93.47 E9.57235
G1 X79.291 Y93.124 E9.59684
G1 X80.171 Y92.854 E9.62133
G1 X81.071 Y92.661 E9.64582
G1 X82.224 Y92.53 E9.6767
G1 X82.653 Y92.505 E9.68813
G1 X84.578 Y92.422 E9.7394
G1 X87.107 Y92.241 E9.80687
G1 X88.96 Y92.057 E9.85641
G1 X89.461 Y92.015 E9.86979
G1 X90.034 Y91.983 E9.88506
G1 X90.552 Y91.969 E9.89885
G1 X93.512 Y91.931 E9.97762
G1 X96.953 Y91.772 E10.06927
G1 X97.973 Y91.752 E10.09642
G1 X111.307 Y91.755 E10.45121
G1 X112.007 Y91.766 E10.46984
G1 X112.926 Y91.821 E10.49433
G1 X113.836 Y91.955 E10.51881
G1 X114.844 Y92.199 E10.5464
G1 X115.663 Y92.441 E10.56913
G1 X117.003 Y92.861 E10.60649
G1 X119.432 Y93.55 E10.67367
G1 X121.887 Y94.171 E10.74105
G1 X123.879 Y94.624 E10.79541
G1 X124.988 Y94.863 E10.8256
G1 X125.878 Y95.096 E10.85008
G1 X126.745 Y95.406 E10.87458
G1 X127.632 Y95.81 E10.90051
G1 X128.525 Y96.311 E10.92776
G1 X129.286 Y96.829 E10.95225
G1 X129.999 Y97.412 E10.97676
G1 X130.659 Y98.054 E11.00126
G1 X131.26 Y98.751 E11.02574
G1 X131.799 Y99.497 E11.05023
G1 X132.271 Y100.288 E11.07474
G1 X132.704 Y101.18 E11.10112
G1 X133.067 Y102.124 E11.12804
G1 X133.321 Y103.009 E11.15253
G1 X133.497 Y103.913 E11.17704
G1 X133.594 Y104.828 E11.20152
G1 X133.615 Y105.584 E11.22165
G1 X133.612 Y105.917 E11.23051
G1 X133.527 Y107.163 E11.26374
G1 X133.47 Y107.61 E11.27573
G1 X133.216 Y109.393 E11.32365
G1 X132.921 Y111.972 E11.39272
G1 X132.71 Y114.446 E11.45879
G1 X132.66 Y115.312 E11.48187
G1 X132.587 Y116.336 E11.50918
G1 X132.482 Y117.25 E11.53366
G1 X132.298 Y118.152 E11.55816
G1 X132.036 Y119.035 E11.58267
G1 X131.698 Y119.892 E11.60718
G1 X131.288 Y120.716 E11.63167
G1 X130.807 Y121.501 E11.65616
G1 X130.261 Y122.242 E11.68065
G1 X129.652 Y122.932 E11.70514
G1 X128.985 Y123.567 E11.72965
G1 X128.266 Y124.142 E11.75414
G1 X127.5 Y124.652 E11.77863
G1 X126.692 Y125.094 E11.80314
G1 X125.849 Y125.464 E11.82763
G1 X124.977 Y125.759 E11.85213
G1 X123.701 Y126.047 E11.88693
G1 X121.553 Y126.393 E11.94482
G1 X119.03 Y126.866 E12.01312
G1 X116.567 Y127.4 E12.08018
G1 X115.749 Y127.604 E12.10261
G1 X115.568 Y127.641 E12.10753
G1 X114.289 Y127.947 E12.14252
G1 X113.385 Y128.122 E12.16702
G1 X112.019 Y128.236 E12.2035
G1 X111.285 Y128.248 E12.22303
G1 X97.971 Y128.247 E12.57729
G1 X97.254 Y128.236 E12.59637
G1 X96.208 Y128.168 E12.62426
G1 X93.288 Y127.833 E12.70247
G1 X90.761 Y127.618 E12.76995
G1 X88.269 Y127.477 E12.83636
G1 X85.708 Y127.405 E12.90453
G1 X82.614 Y127.401 E12.98686
G1 X81.916 Y127.392 E13.00543
G1 X80.997 Y127.34 E13.02992
G1 X80.086 Y127.209 E13.05441
G1 X79.19 Y126.999 E13.0789
G1 X78.315 Y126.712 E13.1034
G1 X77.468 Y126.35 E13.12791
G1 X76.656 Y125.916 E13.15241
G1 X75.885 Y125.414 E13.17689
G1 X75.16 Y124.846 E13.20139
G1 X74.487 Y124.217 E13.22591
G1 X73.872 Y123.533 E13.25038
G1 X73.318 Y122.798 E13.27487
G1 X72.83 Y122.017 E13.29937
G1 X72.411 Y121.197 E13.32388
G1 X72.065 Y120.344 E13.34837
G1 X71.795 Y119.464 E13.37286
G1 X71.602 Y118.563 E13.39738
G1 X71.488 Y117.65 E13.42186
G1 X71.458 Y117.12 E13.43599
G1 X71.444 Y116.502 E13.45243
G1 X71.444 Y107.902 E13.68126
G1 F1500 E10.18126
;MESH:void_switch-v49-stem.stl
G0 F6000 X85.37 Y108.862
;TYPE:WALL-INNER
G1 F1500 E13.68126
G1 F600 X85.37 Y107.852 E13.70814
G1 X84.864 Y108.002 E13.72218
G1 X83.885 Y108.002 E13.74823
G1 X83.443 Y107.901 E13.76029
G1 X83.443 Y108.862 E13.78587
G1 X85.37 Y108.862 E13.83714
G0 F6000 X85.77 Y109.388
G1 F600 X85.77 Y107.674 E13.88275
G1 X85.699 Y107.552 E13.8865
G1 X85.54 Y107.5 E13.89095
G1 X85.359 Y107.371 E13.89687
G1 X85.177 Y107.5 E13.9028
G1 X84.844 Y107.597 E13.91203
G1 X83.896 Y107.602 E13.93726
G1 X83.515 Y107.515 E13.94765
G1 X83.378 Y107.426 E13.952
G1 X83.114 Y107.553 E13.9598
G1 X83.044 Y107.673 E13.96349
G1 X83.041 Y109.39 E14.00918
G1 X83.424 Y109.262 E14.01992
G1 X85.39 Y109.262 E14.07224
G1 X85.77 Y109.388 E14.08289
G0 F6000 X86.08 Y110.262
G1 F448.6 X86.125 Y109.917 E14.09527
G1 F539.3 X86.17 Y109.572 E14.10557
G1 F600 X86.17 Y107.566 E14.15894
G1 X85.956 Y107.198 E14.17027
G1 X85.717 Y107.141 E14.17681
G1 X85.561 Y107.03 E14.1819
G1 F562.1 X85.358 Y106.656 E14.19399
G1 X85.157 Y107.03 E14.20605
G1 F600 X85 Y107.141 E14.21117
G1 X84.8 Y107.199 E14.21671
G1 X83.907 Y107.202 E14.24047
G1 X83.679 Y107.15 E14.24669
G1 X83.523 Y107.049 E14.25164
G1 X83.378 Y106.756 E14.26034
G1 X83.233 Y107.049 E14.26903
G1 X83.036 Y107.167 E14.27514
G1 X82.857 Y107.198 E14.27998
G1 X82.644 Y107.566 E14.29129
G1 X82.641 Y109.572 E14.34467
G1 F539.3 X82.687 Y109.917 E14.35497
G1 F448.6 X82.734 Y110.262 E14.36736
G1 X82.898 Y110.022 E14.37771
G1 F539.3 X83.062 Y109.782 E14.38631
G1 F600 X83.424 Y109.662 E14.39646
G1 X85.39 Y109.662 E14.44877
G1 X85.751 Y109.781 E14.45888
G1 F539.3 X85.915 Y110.021 E14.46749
G1 F448.6 X86.08 Y110.262 E14.47788
G1 F1500 E10.97788
G0 F6000 X86.57 Y116.602
;TYPE:WALL-OUTER
G1 F1500 E14.47788
G1 F600 X86.57 Y107.458 E14.72119
G1 X86.188 Y106.802 E14.74139
G1 X85.894 Y106.782 E14.74923
G1 X85.783 Y106.62 E14.75445
G1 X85.782 Y103.302 E14.84274
G1 X84.934 Y103.302 E14.8653
G1 X84.934 Y106.62 E14.95359
G1 X84.875 Y106.745 E14.95727
G1 X84.756 Y106.801 E14.96077
G1 X83.864 Y106.802 E14.9845
G1 F506.3 X83.651 Y106.626 E14.99321
G1 F438 X83.651 Y103.375 E15.11172
G1 F438.8 X83.105 Y103.375 E15.13159
G1 F438 X83.105 Y106.626 E15.2501
G1 F506.3 X82.9 Y106.791 E15.25839
G1 F600 X82.624 Y106.802 E15.26574
G1 X82.244 Y107.458 E15.28592
G1 X82.244 Y116.602 E15.52922
G1 X83.224 Y116.602 E15.5553
G1 X83.224 Y110.262 E15.72399
G1 X83.303 Y110.102 E15.72874
G1 X83.424 Y110.062 E15.73213
G1 X85.39 Y110.062 E15.78444
G1 X85.511 Y110.101 E15.78783
G1 X85.59 Y110.262 E15.7926
G1 X85.59 Y116.602 E15.96129
G1 X86.57 Y116.602 E15.98737
G0 F6000 X86.08 Y116.112
;TYPE:WALL-INNER
G1 F413.8 X86.08 Y110.262 E16.21307
G1 F1500 E12.71307
G0 F6000 X82.734 Y110.262
G1 F1500 E16.21307
G1 F413.8 X82.734 Y116.112 E16.43877
G1 F1500 E12.93877
G0 F6000 X85.358 Y106.656
G1 F1500 E16.43877
G1 F529.8 X85.358 Y105.191 E16.48292
G1 F532.2 X85.358 Y103.726 E16.52687
G1 F1500 E13.02687
G0 F6000 X84.937 Y108.429
;TYPE:SKIN
G1 F1500 E16.52687
G1 F442 X83.873 Y108.432 E16.5653
G1 F1500 E13.0653
;MESH:void_switch-v49-stem.stl(1)
G0 F6000 X92.88 Y108.328
;TYPE:WALL-INNER
G1 F1500 E16.5653
G1 F600 X92.88 Y107.321 E16.5921
G1 X92.376 Y107.468 E16.60607
G1 X91.395 Y107.468 E16.63217
G1 X90.954 Y107.367 E16.64421
G1 X90.953 Y108.328 E16.66978
G1 X92.88 Y108.328 E16.72105
G0 F6000 X93.28 Y108.853
G1 F600 X93.28 Y107.139 E16.76666
G1 X93.21 Y107.019 E16.77036
G1 X93.051 Y106.966 E16.77481
G1 X92.872 Y106.839 E16.78065
G1 X92.693 Y106.966 E16.78649
G1 X92.357 Y107.063 E16.7958
G1 X91.407 Y107.068 E16.82108
G1 X91.026 Y106.981 E16.83148
G1 X90.889 Y106.892 E16.83582
G1 X90.624 Y107.019 E16.84364
G1 X90.554 Y107.14 E16.84736
G1 X90.551 Y108.856 E16.89302
G1 X90.934 Y108.728 E16.90377
G1 X92.899 Y108.728 E16.95605
G1 X93.28 Y108.853 E16.96672
G0 F6000 X93.589 Y109.728
G1 F447.8 X93.634 Y109.383 E16.97913
G1 F539.3 X93.68 Y109.038 E16.98943
G1 F600 X93.68 Y107.032 E17.0428
G1 X93.466 Y106.664 E17.05413
G1 X93.228 Y106.607 E17.06064
G1 X93.072 Y106.496 E17.06574
G1 F567.4 X92.872 Y106.122 E17.07767
G1 X92.672 Y106.496 E17.08961
G1 F600 X92.516 Y106.607 E17.0947
G1 X92.315 Y106.665 E17.10027
G1 X91.418 Y106.668 E17.12413
G1 X91.19 Y106.616 E17.13036
G1 X91.034 Y106.515 E17.1353
G1 X90.889 Y106.22 E17.14405
G1 X90.743 Y106.515 E17.15281
G1 X90.546 Y106.633 E17.15892
G1 X90.367 Y106.664 E17.16375
