;FLAVOR:Marlin
;TIME:2106
;Filament used: 0.463907m
;Layer height: 0.16
;MINX:83.085
;MINY:90.018
;MINZ:0.2
;MAXX:137.204
;MAXY:132.334
;MAXZ:10.92
;Generated with Cura_SteamEngine 4.12.1
M140 S70
M105
M190 S70
M104 S250
M105
M109 S250
M82 ;absolute extrusion mode
; Ender 3 Custom Start G-code
G92 E0 ; Reset Extruder
G28 ; Home all axes
G1 Z2.0 F3000 ; Move Z Axis up little to prevent scratching of Heat Bed
G1 X0.1 Y20 Z0.3 F5000.0 ; Move to start position
G1 X0.1 Y200.0 Z0.3 F1500.0 E15 ; Draw the first line
G1 X0.4 Y200.0 Z0.3 F5000.0 ; Move to side a little
G1 X0.4 Y20 Z0.3 F1500.0 E30 ; Draw the second line
G92 E0 ; Reset Extruder
G1 Z2.0 F3000 ; Move Z Axis up little to prevent scratching of Heat Bed
G1 X5 Y20 Z0.3 F5000.0 ; Move over to prevent blob squish
G92 E0
G92 E0
G1 F1500 E-6.5
;LAYER_COUNT:68
;LAYER:0
M107
G0 F6000 X87.742 Y94.665 Z0.2
;TYPE:SKIRT
G1 F1500 E0
G1 F600 X88.482 Y94.088 E0.03121
G1 X89.268 Y93.577 E0.06239
G1 X90.095 Y93.134 E0.0936
G1 X90.956 Y92.763 E0.12478
G1 X91.846 Y92.467 E0.15597
G1 X92.767 Y92.247 E0.18747
G1 X92.916 Y92.218 E0.19252
G1 X93.92 Y92.07 E0.22627
G1 X96.252 Y91.836 E0.30422
G1 X98.451 Y91.545 E0.378
G1 X99.154 Y91.459 E0.40156
G1 X99.797 Y91.4 E0.42303
G1 X99.892 Y91.394 E0.4262
G1 X100.362 Y91.374 E0.44184
G1 X101.449 Y91.352 E0.47801
G1 X101.672 Y91.35 E0.48542
G1 X103.506 Y91.35 E0.54642
G1 X106.114 Y91.313 E0.63317
G1 X108.636 Y91.206 E0.71713
G1 X111.131 Y91.029 E0.80032
G1 X113.629 Y90.781 E0.88382
G1 X116.157 Y90.458 E0.96858
G1 X118.135 Y90.155 E1.03514
G1 X119.068 Y90.052 E1.06636
G1 X119.593 Y90.03 E1.08383
G1 X120.176 Y90.019 E1.10323
G1 X120.56 Y90.018 E1.116
G1 X120.873 Y90.023 E1.12641
G1 X121.809 Y90.078 E1.1576
G1 X122.737 Y90.213 E1.18879
G1 X123.65 Y90.426 E1.21997
G1 X124.542 Y90.716 E1.25117
G1 X125.406 Y91.081 E1.28236
G1 X126.236 Y91.518 E1.31356
G1 X127.023 Y92.023 E1.34466
G1 X127.491 Y92.352 E1.36369
G1 X127.753 Y92.542 E1.37445
G1 X127.987 Y92.717 E1.38417
G1 X128.242 Y92.913 E1.39487
G1 X128.987 Y93.505 E1.42652
G1 X131.025 Y95.077 E1.51212
G1 X131.39 Y95.341 E1.52711
G1 X131.543 Y95.462 E1.53359
G1 X132.685 Y96.31 E1.5809
G1 X133.414 Y96.901 E1.61212
G1 X134.089 Y97.551 E1.64329
G1 X134.707 Y98.257 E1.67449
G1 X135.262 Y99.013 E1.70569
G1 X135.765 Y99.838 E1.73782
G1 X135.836 Y99.967 E1.74272
G1 X136.253 Y100.807 E1.77391
G1 X136.596 Y101.68 E1.80511
G1 X136.864 Y102.579 E1.83631
G1 X137.055 Y103.497 E1.8675
G1 X137.167 Y104.428 E1.89869
G1 X137.197 Y105.051 E1.91943
G1 X137.204 Y105.401 E1.93107
G1 X137.183 Y106.339 E1.96228
G1 X137.123 Y106.973 E1.98346
G1 X137.061 Y107.463 E1.99989
G1 X136.783 Y109.458 E2.06688
G1 X136.507 Y111.961 E2.15064
G1 X136.299 Y114.485 E2.23487
G1 X136.22 Y115.92 E2.28267
G1 X136.177 Y116.535 E2.30318
G1 X136.07 Y117.467 E2.33438
G1 X135.884 Y118.386 E2.36556
G1 X135.62 Y119.286 E2.39676
G1 X135.28 Y120.16 E2.42795
G1 X134.867 Y121.002 E2.45914
G1 X134.384 Y121.806 E2.49034
G1 X133.834 Y122.565 E2.52151
G1 X133.221 Y123.276 E2.55274
G1 X132.55 Y123.931 E2.58393
G1 X131.826 Y124.527 E2.61512
G1 X131.054 Y125.059 E2.6463
G1 X130.239 Y125.523 E2.67749
G1 X129.387 Y125.916 E2.7087
G1 X128.506 Y126.235 E2.73986
G1 X127.6 Y126.478 E2.77106
G1 X126.766 Y126.631 E2.79926
G1 X125.813 Y126.767 E2.83128
G1 X123.275 Y127.167 E2.91674
G1 X120.817 Y127.627 E2.99991
G1 X117.731 Y128.312 E3.10505
G1 X117.487 Y128.363 E3.11334
G1 X115.693 Y128.719 E3.17417
G1 X113.153 Y129.265 E3.26058
G1 X110.719 Y129.86 E3.34392
G1 X108.267 Y130.534 E3.4285
G1 X105.852 Y131.271 E3.51248
G1 X104.327 Y131.776 E3.56591
G1 X104.15 Y131.831 E3.57208
G1 X103.243 Y132.07 E3.60327
G1 X102.32 Y132.232 E3.63444
G1 X101.082 Y132.324 E3.67573
G1 X100.577 Y132.333 E3.69253
G1 X100.211 Y132.334 E3.7047
G1 X99.952 Y132.33 E3.71332
G1 X99.016 Y132.275 E3.7445
G1 X98.088 Y132.141 E3.77569
G1 X97.174 Y131.929 E3.8069
G1 X96.61 Y131.756 E3.82652
G1 X95.734 Y131.421 E3.85771
G1 X94.89 Y131.014 E3.88888
G1 X93.776 Y130.328 E3.93239
G1 X93.375 Y130.047 E3.94868
G1 X93.122 Y129.864 E3.95906
G1 X92.911 Y129.707 E3.96781
G1 X92.387 Y129.293 E3.99002
G1 X91.974 Y128.943 E4.00803
G1 X90.466 Y127.64 E4.07431
G1 X87.975 Y125.622 E4.18094
G1 X87.32 Y125.11 E4.20859
G1 X86.606 Y124.501 E4.2398
G1 X85.947 Y123.834 E4.27099
G1 X85.347 Y123.113 E4.30219
G1 X84.811 Y122.344 E4.33336
G1 X84.342 Y121.531 E4.36458
G1 X83.944 Y120.682 E4.39577
G1 X83.62 Y119.802 E4.42696
G1 X83.372 Y118.898 E4.45813
G1 X83.202 Y117.975 E4.48935
G1 X83.1 Y116.763 E4.5298
G1 X83.09 Y116.418 E4.54128
G1 X83.085 Y116.099 E4.55189
G1 X83.086 Y107.572 E4.8355
G1 X83.096 Y106.87 E4.85886
G1 X83.149 Y105.934 E4.89004
G1 X83.281 Y105.013 E4.92098
G1 X83.363 Y104.577 E4.93574
G1 X83.819 Y102.3 E5.01297
G1 X84.054 Y101.035 E5.05577
G1 X84.265 Y100.121 E5.08697
G1 X84.552 Y99.228 E5.11817
G1 X84.915 Y98.363 E5.14937
G1 X85.35 Y97.532 E5.18056
G1 X85.854 Y96.741 E5.21176
G1 X86.423 Y95.996 E5.24294
G1 X87.054 Y95.302 E5.27413
G1 X87.742 Y94.665 E5.30532
G0 F6000 X88.105 Y94.883
G1 F600 X88.839 Y94.327 E5.33595
G1 X89.618 Y93.836 E5.36657
G1 X90.437 Y93.415 E5.3972
G1 X91.289 Y93.067 E5.42781
G1 X92.168 Y92.794 E5.45842
G1 X92.844 Y92.639 E5.48149
G1 X92.993 Y92.61 E5.48654
G1 X93.96 Y92.468 E5.51905
G1 X96.31 Y92.232 E5.5976
G1 X98.5 Y91.942 E5.67108
G1 X99.203 Y91.856 E5.69463
G1 X99.822 Y91.799 E5.71531
G1 X99.917 Y91.793 E5.71848
G1 X100.371 Y91.774 E5.73359
G1 X101.458 Y91.752 E5.76975
G1 X101.672 Y91.75 E5.77687
G1 X103.512 Y91.75 E5.83807
G1 X106.137 Y91.713 E5.92538
G1 X108.645 Y91.606 E6.00888
G1 X111.162 Y91.428 E6.0928
G1 X113.686 Y91.178 E6.17716
G1 X116.189 Y90.857 E6.26109
G1 X118.196 Y90.55 E6.32862
G1 X119.111 Y90.45 E6.35924
G1 X119.601 Y90.43 E6.37555
G1 X120.184 Y90.419 E6.39494
G1 X120.553 Y90.418 E6.40721
G1 X120.866 Y90.423 E6.41763
G1 X121.785 Y90.478 E6.44825
G1 X122.696 Y90.612 E6.47887
G1 X123.592 Y90.825 E6.5095
G1 X124.466 Y91.115 E6.54013
G1 X125.311 Y91.479 E6.57073
G1 X126.122 Y91.915 E6.60136
G1 X126.793 Y92.35 E6.62796
G1 X127.261 Y92.679 E6.64698
G1 X127.513 Y92.862 E6.65734
G1 X127.747 Y93.037 E6.66706
G1 X127.993 Y93.227 E6.6774
G1 X128.701 Y93.789 E6.70746
G1 X130.791 Y95.402 E6.79527
G1 X131.155 Y95.665 E6.81021
G1 X131.291 Y95.773 E6.81598
G1 X132.447 Y96.631 E6.86387
G1 X133.161 Y97.212 E6.89448
G1 X133.823 Y97.852 E6.92511
G1 X134.427 Y98.547 E6.95573
G1 X134.967 Y99.292 E6.98634
G1 X135.414 Y100.031 E7.01506
G1 X135.485 Y100.16 E7.01996
G1 X135.894 Y100.985 E7.05059
G1 X136.229 Y101.842 E7.08119
G1 X136.489 Y102.726 E7.11184
G1 X136.671 Y103.628 E7.14244
G1 X136.774 Y104.543 E7.17307
G1 X136.797 Y105.059 E7.19025
G1 X136.804 Y105.409 E7.20189
G1 X136.782 Y106.329 E7.2325
G1 X136.726 Y106.924 E7.25238
G1 X136.686 Y107.247 E7.2632
G1 X136.388 Y109.387 E7.33506
G1 X136.108 Y111.924 E7.41996
G1 X135.902 Y114.43 E7.50359
G1 X135.821 Y115.898 E7.55249
G1 X135.778 Y116.506 E7.57276
G1 X135.672 Y117.42 E7.60337
G1 X135.487 Y118.322 E7.63399
G1 X135.224 Y119.205 E7.66463
G1 X134.886 Y120.061 E7.69524
G1 X134.475 Y120.885 E7.72587
G1 X133.994 Y121.67 E7.75649
G1 X133.446 Y122.41 E7.78712
G1 X132.837 Y123.1 E7.81773
G1 X132.169 Y123.734 E7.84836
G1 X131.45 Y124.308 E7.87896
G1 X130.683 Y124.818 E7.90959
G1 X129.875 Y125.259 E7.94021
G1 X129.031 Y125.628 E7.97085
G1 X128.159 Y125.922 E8.00145
G1 X127.265 Y126.14 E8.03206
G1 X126.709 Y126.235 E8.05082
G1 X125.771 Y126.369 E8.08234
G1 X123.17 Y126.779 E8.16991
G1 X120.746 Y127.232 E8.25193
G1 X117.644 Y127.921 E8.35762
G1 X117.409 Y127.971 E8.36561
G1 X115.598 Y128.33 E8.42702
G1 X113.045 Y128.878 E8.51386
G1 X110.624 Y129.471 E8.59677
G1 X108.183 Y130.142 E8.68097
G1 X105.735 Y130.889 E8.76609
G1 X104.407 Y131.33 E8.81264
G1 X104.031 Y131.449 E8.82575
G1 X103.141 Y131.683 E8.85636
G1 X102.234 Y131.84 E8.88698
G1 X101.075 Y131.924 E8.92563
G1 X100.57 Y131.933 E8.94242
G1 X100.217 Y131.934 E8.95416
G1 X99.958 Y131.93 E8.96278
G1 X99.039 Y131.876 E8.9934
G1 X98.128 Y131.742 E9.02403
G1 X97.233 Y131.53 E9.05462
G1 X96.737 Y131.376 E9.07189
G1 X95.877 Y131.047 E9.10252
G1 X95.049 Y130.645 E9.13313
G1 X94.006 Y130.001 E9.1739
G1 X93.605 Y129.72 E9.19019
G1 X93.36 Y129.543 E9.20024
G1 X93.149 Y129.386 E9.20899
G1 X92.645 Y128.987 E9.23037
G1 X92.235 Y128.64 E9.24823
G1 X90.729 Y127.339 E9.31442
G1 X88.222 Y125.308 E9.42174
G1 X87.566 Y124.795 E9.44943
G1 X86.866 Y124.197 E9.48005
G1 X86.221 Y123.54 E9.51068
G1 X85.635 Y122.83 E9.5413
G1 X85.112 Y122.072 E9.57193
G1 X84.658 Y121.271 E9.60255
G1 X84.275 Y120.434 E9.63316
G1 X83.966 Y119.567 E9.66378
G1 X83.733 Y118.676 E9.69441
G1 X83.578 Y117.769 E9.72501
G1 X83.499 Y116.751 E9.75897
G1 X83.489 Y116.406 E9.77045
G1 X83.485 Y116.099 E9.78066
G1 X83.486 Y107.578 E10.06407
G1 X83.496 Y106.876 E10.08743
G1 X83.549 Y105.957 E10.11804
G1 X83.674 Y105.087 E10.14728
G1 X83.755 Y104.656 E10.16186
G1 X84.209 Y102.387 E10.23883
G1 X84.447 Y101.108 E10.2821
G1 X84.655 Y100.211 E10.31272
G1 X84.939 Y99.335 E10.34335
G1 X85.298 Y98.487 E10.37398
G1 X85.73 Y97.674 E10.4046
G1 X86.23 Y96.901 E10.43522
G1 X86.796 Y96.175 E10.46584
G1 X87.422 Y95.5 E10.49646
G1 X88.105 Y94.883 E10.52707
G0 F6000 X88.467 Y95.103
G1 F600 X89.194 Y94.568 E10.55709
G1 X89.966 Y94.1 E10.58712
G1 X90.777 Y93.701 E10.61718
G1 X91.619 Y93.376 E10.6472
G1 X92.92 Y93.032 E10.69196
G1 X93.069 Y93.003 E10.69701
G1 X94 Y92.866 E10.7283
G1 X96.372 Y92.628 E10.80759
G1 X98.548 Y92.339 E10.8806
G1 X99.251 Y92.253 E10.90416
G1 X99.847 Y92.198 E10.92407
G1 X99.942 Y92.192 E10.92723
G1 X100.379 Y92.174 E10.94178
G1 X101.466 Y92.152 E10.97794
G1 X101.672 Y92.15 E10.98479
G1 X103.518 Y92.15 E11.04619
G1 X106.124 Y92.113 E11.13287
G1 X108.692 Y92.004 E11.21836
G1 X111.194 Y91.827 E11.30179
G1 X113.706 Y91.578 E11.38575
G1 X116.295 Y91.246 E11.47256
G1 X118.256 Y90.946 E11.53855
G1 X119.154 Y90.849 E11.56859
G1 X119.609 Y90.83 E11.58373
G1 X120.192 Y90.819 E11.60313
G1 X120.547 Y90.818 E11.61493
G1 X120.86 Y90.823 E11.62535
G1 X121.761 Y90.878 E11.65537
G1 X122.655 Y91.012 E11.68544
G1 X123.532 Y91.224 E11.71545
G1 X124.388 Y91.513 E11.74549
G1 X125.214 Y91.877 E11.77552
G1 X126.006 Y92.312 E11.80557
G1 X126.563 Y92.678 E11.82774
G1 X127.031 Y93.007 E11.84677
G1 X127.274 Y93.183 E11.85674
G1 X127.508 Y93.358 E11.86646
G1 X127.744 Y93.54 E11.87638
G1 X128.491 Y94.134 E11.90812
G1 X130.547 Y95.719 E11.99446
G1 X130.921 Y95.99 E12.00982
G1 X131.048 Y96.091 E12.01522
G1 X132.208 Y96.952 E12.06327
G1 X132.909 Y97.522 E12.09332
G1 X133.556 Y98.152 E12.12336
G1 X134.145 Y98.836 E12.15338
G1 X134.672 Y99.57 E12.18343
G1 X135.064 Y100.224 E12.20879
G1 X135.135 Y100.353 E12.21369
G1 X135.535 Y101.162 E12.24371
G1 X135.862 Y102.004 E12.27375
G1 X136.113 Y102.872 E12.3038
G1 X136.286 Y103.758 E12.33383
G1 X136.397 Y105.067 E12.37752
G1 X136.404 Y105.417 E12.38916
G1 X136.382 Y106.32 E12.41921
G1 X136.329 Y106.875 E12.43775
G1 X136.268 Y107.352 E12.45374
G1 X135.993 Y109.324 E12.51997
G1 X135.711 Y111.88 E12.6055
G1 X135.5 Y114.451 E12.6913
G1 X135.41 Y116.048 E12.7445
G1 X135.379 Y116.477 E12.7588
G1 X135.275 Y117.374 E12.78884
G1 X135.091 Y118.258 E12.81887
G1 X134.829 Y119.123 E12.84893
G1 X134.493 Y119.961 E12.87896
G1 X134.083 Y120.766 E12.90901
G1 X133.604 Y121.531 E12.93903
G1 X133.059 Y122.251 E12.96906
G1 X132.452 Y122.92 E12.99911
G1 X131.789 Y123.533 E13.02914
G1 X131.074 Y124.085 E13.05918
G1 X130.313 Y124.571 E13.08921
G1 X129.512 Y124.988 E13.11925
G1 X128.677 Y125.333 E13.1493
G1 X127.815 Y125.603 E13.17934
G1 X126.653 Y125.839 E13.21878
G1 X125.708 Y125.974 E13.25053
G1 X123.112 Y126.383 E13.33794
G1 X120.67 Y126.84 E13.42057
G1 X117.557 Y127.531 E13.52663
G1 X117.331 Y127.578 E13.53431
G1 X115.502 Y127.941 E13.59632
G1 X113.005 Y128.477 E13.68127
G1 X110.495 Y129.091 E13.76721
G1 X108.075 Y129.756 E13.85068
G1 X105.607 Y130.509 E13.93651
G1 X104.09 Y131.012 E13.98966
G1 X103.913 Y131.067 E13.99583
G1 X103.039 Y131.296 E14.02588
G1 X102.149 Y131.448 E14.05591
G1 X101.068 Y131.524 E14.09195
G1 X100.563 Y131.533 E14.10875
G1 X100.223 Y131.534 E14.12006
G1 X99.964 Y131.53 E14.12867
G1 X99.063 Y131.476 E14.1587
G1 X98.17 Y131.342 E14.18873
G1 X96.896 Y131.008 E14.23254
G1 X96.863 Y130.997 E14.23369
G1 X96.02 Y130.673 E14.26373
G1 X95.209 Y130.277 E14.29375
G1 X94.235 Y129.673 E14.33187
G1 X93.834 Y129.392 E14.34815
G1 X93.599 Y129.222 E14.3578
G1 X93.388 Y129.065 E14.36655
G1 X92.903 Y128.681 E14.38712
G1 X92.497 Y128.337 E14.40482
G1 X91.012 Y127.054 E14.47009
G1 X88.436 Y124.967 E14.58036
G1 X87.813 Y124.48 E14.60666
G1 X87.126 Y123.892 E14.63674
G1 X86.495 Y123.247 E14.66675
G1 X85.923 Y122.548 E14.69679
G1 X85.415 Y121.801 E14.72684
G1 X84.975 Y121.012 E14.75688
G1 X84.607 Y120.188 E14.7869
G1 X84.313 Y119.334 E14.81694
G1 X84.096 Y118.457 E14.84699
G1 X83.957 Y117.565 E14.87701
G1 X83.899 Y116.74 E14.90452
G1 X83.889 Y116.395 E14.916
G1 X83.885 Y116.099 E14.92585
G1 X83.886 Y107.584 E15.20906
G1 X83.896 Y106.882 E15.23241
G1 X83.949 Y105.98 E15.26246
G1 X84.067 Y105.16 E15.29001
G1 X84.148 Y104.734 E15.30444
G1 X84.603 Y102.46 E15.38157
G1 X84.841 Y101.181 E15.42484
G1 X85.045 Y100.301 E15.45488
G1 X85.326 Y99.443 E15.48491
G1 X85.682 Y98.613 E15.51495
G1 X86.11 Y97.818 E15.54498
G1 X86.606 Y97.063 E15.57503
G1 X87.168 Y96.356 E15.60507
G1 X87.79 Y95.701 E15.63511
G1 X88.467 Y95.103 E15.66515
G1 F1500 E9.16515
G0 F6000 X119.975 Y102.146
G1 F1500 E15.66515
G1 F600 X120.159 Y102.012 E15.67272
G1 X120.383 Y102.012 E15.68017
G1 X120.567 Y102.146 E15.68774
G1 X120.637 Y102.36 E15.69523
G1 X120.567 Y102.574 E15.70272
G1 X120.383 Y102.708 E15.71029
G1 X120.159 Y102.708 E15.71774
G1 X119.975 Y102.574 E15.72531
G1 X119.905 Y102.36 E15.7328
G1 X119.975 Y102.146 E15.74029
G0 F6000 X119.634 Y101.899
G1 F600 X120.028 Y101.612 E15.7565
G1 X120.514 Y101.612 E15.77267
G1 X120.908 Y101.899 E15.78888
G1 X121.058 Y102.36 E15.80501
G1 X120.908 Y102.821 E15.82113
G1 X120.514 Y103.108 E15.83734
G1 X120.028 Y103.108 E15.85351
G1 X119.634 Y102.821 E15.86972
G1 X119.484 Y102.36 E15.88584
G1 X119.634 Y101.899 E15.90197
G0 F6000 X119.294 Y101.652
G1 F600 X119.899 Y101.212 E15.92685
G1 X120.643 Y101.212 E15.95159
G1 X121.248 Y101.652 E15.97648
G1 X121.479 Y102.36 E16.00125
G1 X121.248 Y103.068 E16.02602
G1 X120.643 Y103.508 E16.0509
G1 X119.899 Y103.508 E16.07564
G1 X119.294 Y103.068 E16.10052
G1 X119.063 Y102.36 E16.12529
G1 X119.294 Y101.652 E16.15006
G0 F6000 X106.165 Y106.733
G1 F600 X105.996 Y107.252 E16.16822
G1 X104.784 Y108.252 E16.22048
G1 X104.253 Y108.252 E16.23814
G1 X103.83 Y107.945 E16.25552
G1 X103.682 Y107.004 E16.28721
G1 X104.081 Y106.282 E16.31464
G1 X104.998 Y105.903 E16.34764
G1 X105.56 Y105.903 E16.36634
G1 X105.998 Y106.221 E16.38434
G1 X106.165 Y106.733 E16.40225
G0 F6000 X105.743 Y106.733
G1 F600 X105.651 Y107.017 E16.41218
G1 X104.639 Y107.852 E16.45582
G1 X104.382 Y107.852 E16.46437
G1 X104.199 Y107.719 E16.47189
G1 X104.098 Y107.077 E16.49351
G1 X104.363 Y106.598 E16.51171
G1 X105.076 Y106.303 E16.53738
G1 X105.431 Y106.303 E16.54918
G1 X105.657 Y106.467 E16.55847
G1 X105.743 Y106.733 E16.56777
G0 F6000 X105.301 Y106.703
G1 F600 X105.307 Y106.784 E16.57047
G1 X104.554 Y107.404 E16.60291
G1 X104.515 Y107.151 E16.61143
G1 X104.646 Y106.914 E16.62043
G1 X105.156 Y106.703 E16.63879
G1 X105.301 Y106.703 E16.64361
G0 F6000 X101.336 Y119.521
G1 F600 X101.537 Y120.139 E16.66523
G1 X101.336 Y120.757 E16.68684
G1 X100.807 Y121.141 E16.70859
G1 X100.159 Y121.141 E16.73014
G1 X99.63 Y120.757 E16.75188
G1 X99.429 Y120.139 E16.77349
G1 X99.63 Y119.521 E16.79511
G1 X100.159 Y119.137 E16.81685
G1 X100.807 Y119.137 E16.8384
G1 X101.336 Y119.521 E16.86014
G0 F6000 X100.995 Y119.767
G1 F600 X101.116 Y120.139 E16.87315
G1 X100.995 Y120.511 E16.88617
G1 X100.678 Y120.741 E16.89919
G1 X100.288 Y120.741 E16.91216
G1 X99.971 Y120.511 E16.92519
G1 X99.85 Y120.139 E16.9382
G1 X99.971 Y119.767 E16.95121
G1 X100.288 Y119.537 E16.96424
G1 X100.678 Y119.537 E16.97721
G1 X100.995 Y119.767 E16.99024
G0 F6000 X100.655 Y120.015
G1 F600 X100.696 Y120.139 E16.99458
G1 X100.655 Y120.263 E16.99892
G1 X100.548 Y120.341 E17.00333
