;FLAVOR:Marlin
;TIME:2490
;Filament used: 0.450488m
;Layer height: 0.16
;MINX:25.736
;MINY:32.86
;MINZ:0.16
;MAXX:79.848
;MAXY:70.16
;MAXZ:10.88
;Generated with Cura_SteamEngine 4.12.1
M140 S72
M105
M190 S72
M104 S250
M105
M109 S250
M82 ;absolute extrusion mode
; Ender 3 Custom Start G-code
G92 E0 ; Reset Extruder
G28 ; Home all axes
G1 Z2.0 F3000 ; Move Z Axis up little to prevent scratching of Heat Bed
G1 X0.1 Y20 Z0.3 F5000.0 ; Move to start position
G1 X0.1 Y200.0 Z0.3 F1500.0 E15 ; Draw the first line
G1 X0.4 Y200.0 Z0.3 F5000.0 ; Move to side a little
G1 X0.4 Y20 Z0.3 F1500.0 E30 ; Draw the second line
G92 E0 ; Reset Extruder
G1 Z2.0 F3000 ; Move Z Axis up little to prevent scratching of Heat Bed
G1 X5 Y20 Z0.3 F5000.0 ; Move over to prevent blob squish
G92 E0
G92 E0
G1 F1380 E-5.5
;LAYER_COUNT:68
;LAYER:0
M107
G0 F6000 X30.419 Y36.151 Z0.16
;TYPE:SKIRT
G1 F1380 E0
G1 F600 X31.159 Y35.576 E0.02494
G1 X31.946 Y35.065 E0.0499
G1 X32.774 Y34.624 E0.07486
G1 X33.636 Y34.255 E0.09981
G1 X34.526 Y33.96 E0.12476
G1 X35.438 Y33.742 E0.14971
G1 X36.426 Y33.597 E0.17628
G1 X38.952 Y33.341 E0.24384
G1 X40.989 Y33.084 E0.29847
G1 X41.698 Y32.986 E0.31751
G1 X42.405 Y32.911 E0.33643
G1 X42.555 Y32.9 E0.34043
G1 X43.194 Y32.872 E0.35745
G1 X44.089 Y32.86 E0.38127
G1 X57.076 Y32.862 E0.72683
G1 X57.786 Y32.872 E0.74572
G1 X58.722 Y32.925 E0.77067
G1 X59.352 Y33.006 E0.78757
G1 X59.453 Y33.022 E0.79029
G1 X60.811 Y33.327 E0.82732
G1 X62.467 Y33.811 E0.87323
G1 X64.95 Y34.491 E0.94173
G1 X67.421 Y35.094 E1.00941
G1 X69.88 Y35.619 E1.07631
G1 X70.382 Y35.714 E1.08991
G1 X70.954 Y35.834 E1.10546
G1 X71.862 Y36.069 E1.13041
G1 X72.747 Y36.381 E1.15538
G1 X73.602 Y36.767 E1.18034
G1 X74.421 Y37.224 E1.2053
G1 X75.197 Y37.749 E1.23023
G1 X75.927 Y38.339 E1.2552
G1 X76.339 Y38.722 E1.27017
G1 X76.513 Y38.892 E1.27664
G1 X77.156 Y39.575 E1.3016
G1 X77.737 Y40.311 E1.32655
G1 X78.254 Y41.094 E1.35152
G1 X78.703 Y41.917 E1.37646
G1 X79.079 Y42.776 E1.40141
G1 X79.381 Y43.664 E1.42637
G1 X79.65 Y44.8 E1.45743
G1 X79.673 Y44.927 E1.46087
G1 X79.801 Y45.856 E1.48582
G1 X79.848 Y47.018 E1.51676
G1 X79.845 Y47.27 E1.52347
G1 X79.762 Y48.498 E1.55622
G1 X79.709 Y48.912 E1.56733
G1 X79.423 Y50.966 E1.62251
G1 X79.144 Y53.501 E1.69036
G1 X78.941 Y55.971 E1.75631
G1 X78.862 Y57.42 E1.79492
G1 X78.819 Y58.038 E1.8114
G1 X78.712 Y58.969 E1.83634
G1 X78.526 Y59.889 E1.86131
G1 X78.263 Y60.789 E1.88626
G1 X77.924 Y61.663 E1.91121
G1 X77.511 Y62.505 E1.93616
G1 X77.029 Y63.31 E1.96113
G1 X76.479 Y64.07 E1.98609
G1 X75.867 Y64.78 E2.01103
G1 X75.197 Y65.436 E2.03598
G1 X74.473 Y66.032 E2.06093
G1 X73.701 Y66.565 E2.08589
G1 X72.886 Y67.03 E2.11086
G1 X72.035 Y67.424 E2.13581
G1 X71.153 Y67.743 E2.16077
G1 X70.248 Y67.987 E2.18571
G1 X69.404 Y68.141 E2.20854
G1 X68.403 Y68.284 E2.23544
G1 X65.837 Y68.688 E2.30456
G1 X63.338 Y69.156 E2.37221
G1 X60.923 Y69.677 E2.43795
G1 X60.117 Y69.861 E2.45994
G1 X59.195 Y70.031 E2.48489
G1 X57.891 Y70.136 E2.5197
G1 X56.835 Y70.158 E2.5478
G1 X56.606 Y70.16 E2.5539
G1 X43.833 Y70.159 E2.89376
G1 X43.112 Y70.148 E2.91295
G1 X42.212 Y70.097 E2.93693
G1 X42.171 Y70.093 E2.93803
G1 X41.091 Y69.933 E2.96708
G1 X40.295 Y69.774 E2.98868
G1 X38.925 Y69.482 E3.02595
G1 X35.178 Y68.819 E3.1272
G1 X34.995 Y68.789 E3.13214
G1 X34.076 Y68.6 E3.1571
G1 X33.177 Y68.334 E3.18205
G1 X32.303 Y67.992 E3.20702
G1 X31.462 Y67.577 E3.23197
G1 X30.66 Y67.092 E3.25691
G1 X29.901 Y66.541 E3.28187
G1 X29.192 Y65.926 E3.30684
G1 X28.539 Y65.254 E3.33177
G1 X27.945 Y64.528 E3.35673
G1 X27.414 Y63.755 E3.38168
G1 X26.952 Y62.939 E3.40664
G1 X26.561 Y62.086 E3.4316
G1 X26.244 Y61.204 E3.45654
G1 X26.003 Y60.297 E3.48151
G1 X25.84 Y59.374 E3.50645
G1 X25.75 Y58.268 E3.53598
G1 X25.741 Y57.976 E3.54375
G1 X25.736 Y57.638 E3.55274
G1 X25.736 Y49.068 E3.78078
G1 X25.747 Y48.362 E3.79956
G1 X25.802 Y47.425 E3.82454
G1 X25.962 Y46.365 E3.85306
G1 X26.518 Y43.598 E3.92816
G1 X26.721 Y42.516 E3.95745
G1 X26.933 Y41.602 E3.98242
G1 X27.222 Y40.71 E4.00737
G1 X27.586 Y39.845 E4.03234
G1 X28.022 Y39.015 E4.05728
G1 X28.527 Y38.225 E4.08223
G1 X29.098 Y37.481 E4.10719
G1 X29.73 Y36.788 E4.13214
G1 X30.419 Y36.151 E4.15711
G0 F6000 X30.781 Y36.37
G1 F600 X31.516 Y35.815 E4.18162
G1 X32.296 Y35.325 E4.20613
G1 X33.115 Y34.906 E4.2306
G1 X33.968 Y34.559 E4.25511
G1 X34.847 Y34.287 E4.27959
G1 X35.747 Y34.092 E4.30409
G1 X36.466 Y33.995 E4.3234
G1 X38.963 Y33.742 E4.39018
G1 X41.177 Y33.463 E4.44955
G1 X41.753 Y33.383 E4.46503
G1 X42.435 Y33.31 E4.48328
G1 X42.585 Y33.299 E4.48728
G1 X43.2 Y33.272 E4.50366
G1 X44.089 Y33.26 E4.52732
G1 X57.07 Y33.262 E4.87272
G1 X57.78 Y33.272 E4.89161
G1 X58.699 Y33.325 E4.9161
G1 X59.29 Y33.402 E4.93196
G1 X59.391 Y33.418 E4.93468
G1 X60.699 Y33.711 E4.97035
G1 X62.375 Y34.201 E5.01681
G1 X64.864 Y34.882 E5.08547
G1 X67.315 Y35.48 E5.1526
G1 X69.8 Y36.011 E5.22022
G1 X70.308 Y36.107 E5.23397
G1 X70.871 Y36.225 E5.24928
G1 X71.762 Y36.456 E5.27377
G1 X72.629 Y36.764 E5.29825
G1 X73.467 Y37.147 E5.32277
G1 X74.268 Y37.6 E5.34725
G1 X75.027 Y38.121 E5.37175
G1 X76.06 Y39.008 E5.40798
G1 X76.234 Y39.178 E5.41445
G1 X76.864 Y39.849 E5.43894
G1 X77.433 Y40.573 E5.46344
G1 X77.937 Y41.343 E5.48793
G1 X78.373 Y42.154 E5.51243
G1 X78.737 Y43 E5.53693
G1 X79.026 Y43.874 E5.56143
G1 X79.256 Y44.871 E5.58865
G1 X79.279 Y44.998 E5.59209
G1 X79.404 Y45.91 E5.61658
G1 X79.448 Y47.013 E5.64595
G1 X79.445 Y47.265 E5.65266
G1 X79.365 Y48.449 E5.68423
G1 X79.313 Y48.857 E5.69518
G1 X79.023 Y50.938 E5.75108
G1 X78.749 Y53.423 E5.81761
G1 X78.539 Y55.992 E5.88619
G1 X78.451 Y57.576 E5.9284
G1 X78.42 Y58.009 E5.93995
G1 X78.314 Y58.924 E5.96446
G1 X78.13 Y59.826 E5.98896
G1 X77.868 Y60.708 E6.01344
G1 X77.53 Y61.565 E6.03795
G1 X77.119 Y62.389 E6.06245
G1 X76.639 Y63.174 E6.08694
G1 X76.092 Y63.914 E6.11142
G1 X75.482 Y64.605 E6.13595
G1 X74.816 Y65.239 E6.16041
G1 X74.096 Y65.814 E6.18493
G1 X73.33 Y66.324 E6.20942
G1 X72.522 Y66.765 E6.23391
G1 X71.679 Y67.135 E6.25841
G1 X70.807 Y67.43 E6.2829
G1 X69.912 Y67.649 E6.30742
G1 X69.347 Y67.745 E6.32267
G1 X68.361 Y67.886 E6.34917
G1 X65.732 Y68.3 E6.41998
G1 X63.294 Y68.756 E6.48598
G1 X60.828 Y69.288 E6.5531
G1 X60.028 Y69.471 E6.57494
G1 X59.122 Y69.637 E6.59945
G1 X57.883 Y69.736 E6.63252
G1 X56.827 Y69.758 E6.66062
G1 X56.606 Y69.76 E6.66651
G1 X43.839 Y69.759 E7.00621
G1 X43.118 Y69.748 E7.0254
G1 X42.251 Y69.699 E7.0485
G1 X42.21 Y69.695 E7.0496
G1 X41.169 Y69.541 E7.0776
G1 X40.378 Y69.382 E7.09907
G1 X39.045 Y69.098 E7.13533
G1 X35.194 Y68.416 E7.2394
G1 X35.058 Y68.394 E7.24306
G1 X34.157 Y68.208 E7.26754
G1 X33.275 Y67.945 E7.29203
G1 X32.419 Y67.606 E7.31653
G1 X31.595 Y67.194 E7.34104
G1 X30.811 Y66.712 E7.36553
G1 X30.071 Y66.164 E7.39003
G1 X29.382 Y65.554 E7.41452
G1 X28.748 Y64.886 E7.43902
G1 X28.174 Y64.166 E7.46352
G1 X27.665 Y63.399 E7.48801
G1 X27.225 Y62.59 E7.51252
G1 X26.856 Y61.747 E7.537
G1 X26.562 Y60.874 E7.56151
G1 X26.345 Y59.98 E7.58599
G1 X26.207 Y59.069 E7.61051
G1 X26.15 Y58.256 E7.63219
G1 X26.141 Y57.964 E7.63997
G1 X26.136 Y57.638 E7.64864
G1 X26.136 Y49.074 E7.87652
G1 X26.147 Y48.368 E7.8953
G1 X26.202 Y47.449 E7.9198
G1 X26.354 Y46.444 E7.94684
G1 X26.908 Y43.686 E8.0217
G1 X27.114 Y42.589 E8.0514
G1 X27.323 Y41.693 E8.07588
G1 X27.609 Y40.817 E8.1004
G1 X27.969 Y39.97 E8.12488
G1 X28.402 Y39.158 E8.14937
G1 X28.903 Y38.386 E8.17386
G1 X29.47 Y37.66 E8.19837
G1 X30.098 Y36.986 E8.22288
G1 X30.781 Y36.37 E8.24735
G0 F6000 X31.143 Y36.591
G1 F600 X31.871 Y36.057 E8.27138
G1 X32.644 Y35.589 E8.29542
G1 X33.455 Y35.192 E8.31945
G1 X34.297 Y34.868 E8.34345
G1 X35.166 Y34.619 E8.3675
G1 X36.053 Y34.449 E8.39154
G1 X36.506 Y34.393 E8.40368
G1 X39.013 Y34.139 E8.47073
G1 X41.199 Y33.864 E8.52935
G1 X41.808 Y33.779 E8.54571
G1 X42.464 Y33.709 E8.56327
G1 X42.614 Y33.698 E8.56727
G1 X43.206 Y33.672 E8.58304
G1 X44.089 Y33.66 E8.60653
G1 X57.065 Y33.662 E8.9518
G1 X57.775 Y33.672 E8.97069
G1 X58.676 Y33.725 E8.99471
G1 X59.227 Y33.797 E9.0095
G1 X59.328 Y33.813 E9.01222
G1 X60.587 Y34.095 E9.04655
G1 X62.294 Y34.594 E9.09387
G1 X64.735 Y35.262 E9.16121
G1 X67.234 Y35.872 E9.22965
G1 X69.77 Y36.413 E9.29865
G1 X70.234 Y36.501 E9.31121
G1 X70.474 Y36.549 E9.31773
G1 X70.787 Y36.616 E9.32624
G1 X71.661 Y36.844 E9.35028
G1 X72.511 Y37.148 E9.3743
G1 X73.331 Y37.527 E9.39833
G1 X74.115 Y37.976 E9.42237
G1 X74.855 Y38.493 E9.44639
G1 X75.78 Y39.294 E9.47895
G1 X75.954 Y39.464 E9.48542
G1 X76.572 Y40.123 E9.50946
G1 X77.128 Y40.834 E9.53348
G1 X77.62 Y41.592 E9.55752
G1 X78.042 Y42.39 E9.58154
G1 X78.393 Y43.222 E9.60557
G1 X78.668 Y44.082 E9.62959
G1 X78.863 Y44.942 E9.65306
G1 X78.886 Y45.069 E9.65649
G1 X79.007 Y45.964 E9.68052
G1 X79.048 Y47.008 E9.70832
G1 X79.045 Y47.26 E9.71503
G1 X78.968 Y48.399 E9.74541
G1 X78.917 Y48.802 E9.75621
G1 X78.628 Y50.876 E9.81193
G1 X78.348 Y53.417 E9.87995
G1 X78.142 Y55.937 E9.94723
G1 X78.063 Y57.376 E9.98558
G1 X78.021 Y57.98 E10.00169
G1 X77.917 Y58.877 E10.02571
G1 X77.733 Y59.762 E10.04977
G1 X77.473 Y60.626 E10.07377
G1 X77.136 Y61.465 E10.09783
G1 X76.727 Y62.27 E10.12186
G1 X76.249 Y63.036 E10.14588
G1 X75.704 Y63.756 E10.16991
G1 X75.098 Y64.426 E10.19395
G1 X74.435 Y65.039 E10.21797
G1 X73.721 Y65.591 E10.24199
G1 X72.96 Y66.078 E10.26603
G1 X72.159 Y66.496 E10.29007
G1 X71.325 Y66.841 E10.31408
G1 X70.463 Y67.111 E10.33812
G1 X69.291 Y67.349 E10.36994
G1 X68.298 Y67.491 E10.39663
G1 X65.674 Y67.904 E10.46731
G1 X63.2 Y68.367 E10.53428
G1 X60.749 Y68.896 E10.601
G1 X59.939 Y69.081 E10.6231
G1 X59.05 Y69.243 E10.64715
G1 X57.874 Y69.336 E10.67854
G1 X56.818 Y69.358 E10.70664
G1 X56.606 Y69.36 E10.71228
G1 X43.845 Y69.359 E11.05183
G1 X43.124 Y69.348 E11.07102
G1 X42.29 Y69.301 E11.09324
G1 X42.249 Y69.297 E11.09434
G1 X41.247 Y69.149 E11.12129
G1 X40.461 Y68.991 E11.14262
G1 X39.108 Y68.703 E11.17943
G1 X35.262 Y68.022 E11.28336
G1 X35.122 Y67.999 E11.28713
G1 X34.238 Y67.816 E11.31115
G1 X33.373 Y67.556 E11.33518
G1 X32.535 Y67.22 E11.35921
G1 X31.73 Y66.811 E11.38323
G1 X30.964 Y66.332 E11.40727
G1 X30.243 Y65.788 E11.4313
G1 X29.573 Y65.182 E11.45534
G1 X28.96 Y64.519 E11.47937
G1 X28.407 Y63.805 E11.5034
G1 X27.92 Y63.044 E11.52744
G1 X27.502 Y62.244 E11.55145
G1 X27.157 Y61.409 E11.57549
G1 X26.887 Y60.547 E11.59953
G1 X26.694 Y59.665 E11.62355
G1 X26.58 Y58.769 E11.64759
G1 X26.55 Y58.243 E11.6616
G1 X26.541 Y57.951 E11.66938
G1 X26.536 Y57.638 E11.67771
G1 X26.536 Y49.08 E11.90542
G1 X26.547 Y48.374 E11.92421
G1 X26.601 Y47.473 E11.94822
G1 X26.746 Y46.523 E11.97379
G1 X27.301 Y43.761 E12.04876
G1 X27.507 Y42.663 E12.07848
G1 X27.713 Y41.783 E12.10253
G1 X27.995 Y40.926 E12.12653
G1 X28.352 Y40.096 E12.15058
G1 X28.782 Y39.302 E12.1746
G1 X29.279 Y38.548 E12.19863
G1 X29.842 Y37.841 E12.22268
G1 X30.465 Y37.187 E12.24671
G1 X31.143 Y36.591 E12.27073
G1 F1380 E6.77073
;MESH:void_switch-0.16.stl
G0 F6000 X58.087 Y43.297
G0 X58.511 Y43.622
G0 X58.752 Y44.135
G0 X58.745 Y46.178
G0 X59.425 Y46.88
G0 X65.06 Y47.032
G0 X65.332 Y47.17
;TYPE:WALL-INNER
G1 F1380 E12.27073
G1 F600 X67.257 Y47.17 E12.32195
G1 X67.257 Y56.66 E12.57446
G1 X65.332 Y56.66 E12.62568
G1 X65.332 Y47.17 E12.87819
G0 F6000 X65.06 Y47.032
G0 X62.904 Y47.032
G0 X62.632 Y47.17
G1 F600 X62.632 Y56.66 E13.13071
G1 X60.707 Y56.66 E13.18193
G1 X60.707 Y47.17 E13.43444
G1 X62.632 Y47.17 E13.48566
G1 F1380 E7.98566
G0 F6000 X62.904 Y48.038
G0 X64.932 Y48.21
;TYPE:WALL-OUTER
G1 F1380 E13.48566
G1 F600 X64.932 Y47.16 E13.5136
G1 X63.032 Y47.16 E13.56415
G1 X63.032 Y48.21 E13.59209
G1 X64.932 Y48.21 E13.64265
G0 F6000 X65.372 Y48.521
G1 F1380 E8.14265
G0 F6000 X65.06 Y56.763
G1 F1380 E13.64265
G0 F6000 X64.932 Y56.935
G1 F600 X64.932 Y48.385 E13.87014
G1 X63.032 Y48.385 E13.9207
G1 X63.032 Y56.935 E14.1482
G1 X64.932 Y56.935 E14.19875
G1 F1380 E8.69875
G0 F6000 X64.932 Y56.86
G0 X67.487 Y56.89
G1 F1380 E14.19875
G0 F6000 X67.657 Y57.06
G1 F600 X60.307 Y57.06 E14.39432
G1 X60.307 Y48.604 E14.61932
G1 X60.138 Y48.665 E14.6241
G1 X59.983 Y48.241 E14.63612
G1 X60.307 Y48.123 E14.64529
G1 X60.307 Y47.17 E14.67065
G1 X59.383 Y47.17 E14.69523
G1 X59.312 Y47.126 E14.69746
G1 X59.307 Y47.102 E14.69811
G1 X59.308 Y46.834 E14.70524
G1 X59.362 Y46.772 E14.70743
G1 X59.383 Y46.77 E14.70799
G1 X68.589 Y46.77 E14.95294
G1 X68.656 Y46.828 E14.9553
G1 X68.657 Y47.105 E14.96267
G1 X68.599 Y47.169 E14.96497
G1 X67.657 Y47.17 E14.99003
G1 X67.657 Y48.123 E15.01539
G1 X67.982 Y48.241 E15.02459
G1 X67.827 Y48.665 E15.0366
G1 X67.657 Y48.605 E15.0414
G1 X67.657 Y57.06 E15.26637
G0 F6000 X67.487 Y56.89
G0 X66.857 Y56.26
;TYPE:WALL-INNER
G1 F600 X65.732 Y56.26 E15.29631
G1 X65.732 Y47.57 E15.52753
G1 X66.857 Y47.57 E15.55747
G1 X66.857 Y56.26 E15.78869
G0 F6000 X66.457 Y55.86
G1 F600 X66.132 Y55.86 E15.79734
G1 X66.132 Y47.97 E16.00728
G1 X66.457 Y47.97 E16.01592
G1 X66.457 Y55.86 E16.18692
G0 F6000 X65.06 Y56.763
G0 X62.904 Y56.763
G0 X62.232 Y56.26
G1 F600 X61.107 Y56.26 E16.21686
G1 X61.107 Y47.57 E16.44808
G1 X62.232 Y47.57 E16.47802
G1 X62.232 Y56.26 E16.70924
G0 F6000 X61.832 Y55.86
G1 F600 X61.507 Y55.86 E16.71789
G1 X61.507 Y47.97 E16.92783
G1 X61.832 Y47.97 E16.93648
G1 X61.832 Y55.86 E17.10748
G0 F6000 X60.43 Y48.432
G0 X60.26 Y48.38
;TYPE:SKIN
G1 F600 X60.467 Y48.304 E17.11042
G0 F6000 X60.507 Y48.344
G0 X67.476 Y48.25
G0 X67.478 Y48.245
G1 F600 X67.65 Y48.417 E17.11366
G1 F1380 E11.61366
G0 F6000 X67.658 Y48.395
G0 X62.904 Y48.557
G0 X60.427 Y50.92
G0 X57.689 Y50.918
G0 X49.91 Y57.26
G0 X43.41 Y50.92
;TYPE:WALL-INNER
G1 F1380 E17.11366
G1 F600 X43.41 Y49.492 E17.15166
G1 X43.41 Y46.775 E17.22395
G1 X43.41 Y44.46 E17.28555
G1 X45.723 Y44.46 E17.34709
G1 X48.44 Y44.46 E17.41939
G1 X49.87 Y44.46 E17.45744
G1 X48.958 Y45.373 E17.49177
G1 X48.44 Y44.854 E17.51129
G1 X45.723 Y44.854 E17.58267
G1 X43.802 Y46.775 E17.65496
G1 X43.802 Y49.492 E17.72599
G1 X44.321 Y50.01 E17.7455
G1 X43.41 Y50.92 E17.77976
G0 F6000 X43.41 Y51.002
G1 F600 X49.91 Y57.503 E18.02437
G1 X56.451 Y50.961 E18.27052
G1 X50.29 Y44.8 E18.50236
G1 X49.95 Y44.46 E18.51515
G1 X50.431 Y44.46 E18.52204
G1 X57.509 Y44.461 E18.71038
G1 X57.508 Y58.56 E19.08552
G1 X43.409 Y58.56 E19.46067
G1 X43.41 Y51.002 E19.66178
G0 F6000 X43.81 Y51.968
G1 F600 X49.91 Y58.069 E19.89133
G1 X57.017 Y50.961 E20.15879
G1 X51.256 Y45.2 E20.37557
G1 X50.916 Y44.86 E20.38836
G1 X51.397 Y44.86 E20.39526
G1 X57.109 Y44.861 E20.54724
G1 X57.109 Y50.961 E20.70955
G1 X57.108 Y58.16 E20.9011
G1 X49.91 Y58.16 E21.09263
G1 X43.809 Y58.16 E21.25496
G1 X43.81 Y51.968 E21.41972
G1 F1380 E15.91972
G0 F6000 X49.698 Y57.148
G1 F1380 E21.41972
G0 F6000 X49.91 Y56.937
;TYPE:WALL-OUTER
G1 F600 X52.615 Y54.232 E21.52151
G1 X52.332 Y53.949 E21.53216
G1 X52.897 Y53.383 E21.55344
G1 X53.18 Y53.666 E21.56409
G1 X55.885 Y50.961 E21.66588
G1 X49.91 Y44.986 E21.89071
G1 X48.958 Y45.939 E21.92655
G1 X48.274 Y45.254 E21.95231
G1 X45.889 Y45.254 E22.01577
G1 X44.202 Y46.941 E22.07925
G1 X44.202 Y49.326 E22.14271
G1 X44.887 Y50.01 E22.16847
G1 X43.935 Y50.961 E22.20428
G1 X49.91 Y56.937 E22.42913
G1 F1380 E16.92913
G0 F6000 X49.698 Y57.148
G0 X50.999 Y57.506
G0 X57.602 Y58.654
G1 F1380 E22.42913
G0 F6000 X57.843 Y58.848
G1 F600 X57.689 Y58.949 E22.43403
G1 X57.601 Y58.96 E22.43639
G1 X43.298 Y58.96 E22.81697
G1 X43.116 Y58.891 E22.82215
G1 X43.014 Y58.718 E22.82749
G1 X43.009 Y58.66 E22.82904
G1 X43.01 Y44.338 E23.21012
G1 X43.078 Y44.169 E23.21497
G1 X43.259 Y44.066 E23.22051
G1 X43.321 Y44.06 E23.22217
G1 X57.62 Y44.061 E23.60263
G1 X57.813 Y44.141 E23.60819
G1 X57.906 Y44.323 E23.61363
G1 X57.909 Y44.372 E23.61494
G1 X57.908 Y58.68 E23.99565
G1 X57.843 Y58.848 E24.00044
G0 F6000 X57.501 Y58.52
G0 X56.708 Y57.76
;TYPE:WALL-INNER
G1 F600 X51.266 Y57.76 E24.14524
G1 X50.785 Y57.76 E24.15804
G1 X51.125 Y57.42 E24.16492
G1 X56.368 Y52.176 E24.36223
G1 X56.708 Y51.836 E24.37502
G1 X56.708 Y52.317 E24.38191
G1 X56.708 Y57.76 E24.52674
G0 F6000 X49.035 Y57.76
G1 F600 X44.209 Y57.76 E24.65515
G1 X44.21 Y52.934 E24.78356
G1 X49.035 Y57.76 E24.96514
G0 F6000 X49.91 Y57.26
G0 X56.208 Y50.961
G0 X56.709 Y50.087
G1 F600 X56.369 Y49.747 E24.97794
