;FLAVOR:Marlin
;TIME:2527
;Filament used: 0.450757m
;Layer height: 0.16
;MINX:83.968
;MINY:148.54
;MINZ:0.16
;MAXX:138.081
;MAXY:185.84
;MAXZ:10.88
;Generated with Cura_SteamEngine 4.12.1
M140 S72
M105
M190 S72
M104 S252
M105
M109 S252
M82 ;absolute extrusion mode
; Ender 3 Custom Start G-code
G92 E0 ; Reset Extruder
G28 ; Home all axes
G1 Z2.0 F3000 ; Move Z Axis up little to prevent scratching of Heat Bed
G1 X0.1 Y20 Z0.3 F5000.0 ; Move to start position
G1 X0.1 Y200.0 Z0.3 F1500.0 E15 ; Draw the first line
G1 X0.4 Y200.0 Z0.3 F5000.0 ; Move to side a little
G1 X0.4 Y20 Z0.3 F1500.0 E30 ; Draw the second line
G92 E0 ; Reset Extruder
G1 Z2.0 F3000 ; Move Z Axis up little to prevent scratching of Heat Bed
G1 X5 Y20 Z0.3 F5000.0 ; Move over to prevent blob squish
G92 E0
G92 E0
G1 F1500 E-6.5
;LAYER_COUNT:68
;LAYER:0
M107
G0 F6000 X90.178 Y150.745 Z0.16
;TYPE:SKIRT
G1 F1500 E0
G1 F600 X91.006 Y150.304 E0.02496
G1 X91.868 Y149.935 E0.04991
G1 X92.758 Y149.64 E0.07486
G1 X93.67 Y149.422 E0.09981
G1 X94.546 Y149.289 E0.12339
G1 X94.931 Y149.246 E0.13369
G1 X97.107 Y149.027 E0.19188
G1 X99.064 Y148.781 E0.24437
G1 X99.818 Y148.677 E0.26462
G1 X100.474 Y148.607 E0.28217
G1 X100.785 Y148.583 E0.29047
G1 X101.471 Y148.551 E0.30875
G1 X102.321 Y148.54 E0.33136
G1 X115.308 Y148.542 E0.67692
G1 X116.018 Y148.552 E0.69582
G1 X116.954 Y148.605 E0.72076
G1 X118.22 Y148.807 E0.75487
G1 X118.416 Y148.85 E0.76021
G1 X119.144 Y149.036 E0.78021
G1 X120.496 Y149.432 E0.81769
G1 X122.944 Y150.11 E0.88528
G1 X125.376 Y150.71 E0.95193
G1 X128.208 Y151.321 E1.02902
G1 X128.936 Y151.465 E1.04877
G1 X129.848 Y151.686 E1.07374
G1 X130.737 Y151.983 E1.09867
G1 X131.99 Y152.555 E1.13532
G1 X132.224 Y152.68 E1.14238
G1 X133.032 Y153.156 E1.16734
G1 X133.796 Y153.7 E1.19229
G1 X134.511 Y154.307 E1.21725
G1 X135.171 Y154.973 E1.2422
G1 X135.773 Y155.692 E1.26715
G1 X136.311 Y156.46 E1.2921
G1 X136.782 Y157.272 E1.31708
G1 X137.182 Y158.12 E1.34202
G1 X137.508 Y158.999 E1.36697
G1 X137.812 Y160.152 E1.3987
G1 X137.853 Y160.35 E1.40408
G1 X138.004 Y161.275 E1.42901
G1 X138.076 Y162.21 E1.45397
G1 X138.081 Y162.719 E1.46751
G1 X138.078 Y162.957 E1.47384
G1 X137.992 Y164.197 E1.50692
G1 X137.938 Y164.618 E1.51821
G1 X137.657 Y166.641 E1.57256
G1 X137.377 Y169.181 E1.64055
G1 X137.174 Y171.652 E1.70652
G1 X137.095 Y173.1 E1.74511
G1 X137.052 Y173.718 E1.76159
G1 X136.945 Y174.649 E1.78653
G1 X136.759 Y175.569 E1.8115
G1 X136.496 Y176.469 E1.83645
G1 X136.157 Y177.343 E1.86139
G1 X135.744 Y178.185 E1.88635
G1 X135.262 Y178.99 E1.91131
G1 X134.712 Y179.75 E1.93627
G1 X134.1 Y180.46 E1.96122
G1 X133.43 Y181.116 E1.98617
G1 X132.706 Y181.712 E2.01112
G1 X131.934 Y182.245 E2.03608
G1 X131.119 Y182.71 E2.06105
G1 X130.268 Y183.104 E2.086
G1 X129.386 Y183.423 E2.11095
G1 X128.481 Y183.667 E2.13589
G1 X127.637 Y183.821 E2.15872
G1 X126.636 Y183.964 E2.18563
G1 X124.07 Y184.368 E2.25475
G1 X121.571 Y184.836 E2.3224
G1 X119.156 Y185.357 E2.38813
G1 X118.35 Y185.541 E2.41013
G1 X117.428 Y185.711 E2.43508
G1 X116.124 Y185.816 E2.46989
G1 X115.067 Y185.838 E2.49802
G1 X114.838 Y185.84 E2.50411
G1 X102.065 Y185.839 E2.84398
G1 X101.344 Y185.828 E2.86316
G1 X100.444 Y185.777 E2.88715
G1 X100.403 Y185.773 E2.88824
G1 X99.292 Y185.607 E2.91813
G1 X98.169 Y185.379 E2.94862
G1 X97.417 Y185.216 E2.9691
G1 X94.928 Y184.749 E3.03648
G1 X93.2 Y184.466 E3.08307
G1 X92.282 Y184.275 E3.10802
G1 X91.383 Y184.007 E3.13298
G1 X90.51 Y183.663 E3.15795
G1 X89.67 Y183.246 E3.1829
G1 X88.869 Y182.759 E3.20785
G1 X88.111 Y182.206 E3.23281
G1 X87.404 Y181.59 E3.25776
G1 X86.752 Y180.916 E3.28271
G1 X86.159 Y180.189 E3.30768
G1 X85.631 Y179.414 E3.33263
G1 X85.171 Y178.597 E3.35758
G1 X84.781 Y177.744 E3.38253
G1 X84.466 Y176.861 E3.40748
G1 X84.228 Y175.954 E3.43243
G1 X84.067 Y175.03 E3.45739
G1 X83.978 Y173.873 E3.48826
G1 X83.971 Y173.58 E3.49606
G1 X83.968 Y173.318 E3.50303
G1 X83.968 Y164.748 E3.73106
G1 X83.979 Y164.042 E3.74985
G1 X84.034 Y163.105 E3.77483
G1 X84.194 Y162.045 E3.80335
G1 X84.75 Y159.278 E3.87845
G1 X84.953 Y158.196 E3.90774
G1 X85.165 Y157.282 E3.93271
G1 X85.454 Y156.39 E3.95765
G1 X85.818 Y155.525 E3.98263
G1 X86.254 Y154.695 E4.00757
G1 X86.759 Y153.905 E4.03252
G1 X87.33 Y153.161 E4.05747
G1 X87.962 Y152.468 E4.08243
G1 X88.651 Y151.831 E4.1074
G1 X89.391 Y151.256 E4.13233
G1 X90.178 Y150.745 E4.1573
G0 F6000 X90.528 Y151.005
G1 F600 X91.347 Y150.586 E4.18178
G1 X92.2 Y150.239 E4.20628
G1 X93.079 Y149.967 E4.23076
G1 X93.979 Y149.772 E4.25527
G1 X94.59 Y149.686 E4.27169
G1 X94.971 Y149.644 E4.28188
G1 X97.157 Y149.424 E4.34034
G1 X99.089 Y149.181 E4.39216
G1 X99.873 Y149.073 E4.41321
G1 X100.504 Y149.005 E4.4301
G1 X100.815 Y148.981 E4.4384
G1 X101.477 Y148.951 E4.45603
G1 X102.321 Y148.94 E4.47849
G1 X115.302 Y148.942 E4.82389
G1 X116.012 Y148.952 E4.84279
G1 X116.931 Y149.005 E4.86728
G1 X118.134 Y149.197 E4.89969
G1 X118.33 Y149.24 E4.90503
G1 X119.032 Y149.42 E4.92432
G1 X120.387 Y149.817 E4.96189
G1 X122.813 Y150.489 E5.02887
G1 X125.293 Y151.101 E5.09684
G1 X128.103 Y151.708 E5.17333
G1 X128.859 Y151.857 E5.19383
G1 X129.753 Y152.075 E5.21832
G1 X130.626 Y152.369 E5.24283
G1 X131.801 Y152.907 E5.27721
G1 X132.035 Y153.032 E5.28427
G1 X132.828 Y153.501 E5.30879
G1 X133.577 Y154.037 E5.33329
G1 X134.276 Y154.635 E5.35777
G1 X134.921 Y155.292 E5.38227
G1 X135.507 Y156.003 E5.40678
G1 X136.028 Y156.761 E5.43126
G1 X136.482 Y157.562 E5.45576
G1 X136.865 Y158.4 E5.48027
G1 X137.173 Y159.267 E5.50475
G1 X137.421 Y160.233 E5.53129
G1 X137.462 Y160.431 E5.53667
G1 X137.609 Y161.339 E5.56114
G1 X137.681 Y162.714 E5.59778
G1 X137.678 Y162.952 E5.60411
G1 X137.595 Y164.146 E5.63596
G1 X137.542 Y164.563 E5.64715
G1 X137.257 Y166.613 E5.70222
G1 X136.982 Y169.105 E5.76893
G1 X136.772 Y171.67 E5.83741
G1 X136.684 Y173.256 E5.87967
G1 X136.653 Y173.689 E5.89122
G1 X136.547 Y174.604 E5.91573
G1 X136.363 Y175.506 E5.94023
G1 X136.101 Y176.388 E5.96471
G1 X135.763 Y177.245 E5.98922
G1 X135.352 Y178.069 E6.01372
G1 X134.872 Y178.854 E6.0382
G1 X134.325 Y179.594 E6.06269
G1 X133.715 Y180.285 E6.08721
G1 X133.049 Y180.919 E6.11168
G1 X132.329 Y181.494 E6.1362
G1 X131.563 Y182.004 E6.16068
G1 X130.755 Y182.445 E6.18518
G1 X129.912 Y182.815 E6.20967
G1 X129.04 Y183.11 E6.23417
G1 X128.145 Y183.329 E6.25868
G1 X127.58 Y183.425 E6.27393
G1 X126.594 Y183.566 E6.30044
G1 X123.965 Y183.98 E6.37125
G1 X121.527 Y184.436 E6.43725
G1 X119.061 Y184.968 E6.50437
G1 X118.261 Y185.151 E6.52621
G1 X117.355 Y185.317 E6.55072
G1 X116.116 Y185.416 E6.58379
G1 X115.059 Y185.438 E6.61192
G1 X114.838 Y185.44 E6.6178
G1 X102.071 Y185.439 E6.95751
G1 X101.35 Y185.428 E6.97669
G1 X100.483 Y185.379 E6.9998
G1 X100.442 Y185.375 E7.00089
G1 X99.372 Y185.215 E7.02968
G1 X98.254 Y184.988 E7.06004
G1 X97.505 Y184.825 E7.08043
G1 X94.98 Y184.351 E7.14879
G1 X93.265 Y184.071 E7.19503
G1 X92.363 Y183.883 E7.21955
G1 X91.482 Y183.618 E7.24402
G1 X90.626 Y183.277 E7.26854
G1 X89.804 Y182.863 E7.29303
G1 X89.021 Y182.38 E7.31751
G1 X88.282 Y181.83 E7.34202
G1 X87.594 Y181.218 E7.36652
G1 X86.962 Y180.549 E7.39101
G1 X86.39 Y179.827 E7.41552
G1 X85.883 Y179.059 E7.44001
G1 X85.444 Y178.25 E7.4645
G1 X85.078 Y177.405 E7.489
G1 X84.786 Y176.532 E7.51349
G1 X84.571 Y175.637 E7.53799
G1 X84.434 Y174.726 E7.5625
G1 X84.378 Y173.863 E7.58551
G1 X84.371 Y173.57 E7.59331
G1 X84.368 Y173.318 E7.60001
G1 X84.368 Y164.754 E7.82788
G1 X84.379 Y164.048 E7.84667
G1 X84.434 Y163.129 E7.87117
G1 X84.586 Y162.124 E7.89821
G1 X85.14 Y159.366 E7.97307
G1 X85.346 Y158.269 E8.00276
G1 X85.555 Y157.373 E8.02725
G1 X85.841 Y156.497 E8.05176
G1 X86.201 Y155.65 E8.07625
G1 X86.634 Y154.838 E8.10074
G1 X87.135 Y154.066 E8.12523
G1 X87.702 Y153.34 E8.14974
G1 X88.33 Y152.666 E8.17425
G1 X89.013 Y152.05 E8.19872
G1 X89.748 Y151.495 E8.22323
G1 X90.528 Y151.005 E8.24774
G0 F6000 X90.876 Y151.269
G1 F600 X91.687 Y150.872 E8.27176
G1 X92.529 Y150.548 E8.29577
G1 X93.398 Y150.299 E8.31982
G1 X94.634 Y150.084 E8.3532
G1 X95.012 Y150.042 E8.36332
G1 X97.203 Y149.821 E8.42192
G1 X99.184 Y149.572 E8.47504
G1 X99.927 Y149.47 E8.495
G1 X100.535 Y149.404 E8.51127
G1 X100.846 Y149.38 E8.51957
G1 X101.483 Y149.351 E8.53654
G1 X102.321 Y149.34 E8.55884
G1 X115.297 Y149.342 E8.9041
G1 X116.007 Y149.352 E8.923
G1 X116.908 Y149.405 E8.94701
G1 X118.049 Y149.588 E8.97776
G1 X118.245 Y149.631 E8.9831
G1 X118.92 Y149.803 E9.00164
G1 X120.244 Y150.191 E9.03835
G1 X122.725 Y150.879 E9.10685
G1 X125.21 Y151.492 E9.17496
G1 X128.063 Y152.108 E9.25262
G1 X128.781 Y152.25 E9.27209
G1 X129.659 Y152.464 E9.29614
G1 X130.514 Y152.754 E9.32016
G1 X131.613 Y153.26 E9.35235
G1 X131.847 Y153.385 E9.35941
G1 X132.624 Y153.846 E9.38345
G1 X133.357 Y154.373 E9.40747
G1 X134.041 Y154.963 E9.43151
G1 X134.67 Y155.611 E9.45554
G1 X135.239 Y156.312 E9.47956
G1 X135.743 Y157.061 E9.50358
G1 X136.18 Y157.852 E9.52763
G1 X136.545 Y158.678 E9.55166
G1 X136.835 Y159.533 E9.57568
G1 X137.029 Y160.314 E9.59709
G1 X137.07 Y160.512 E9.60247
G1 X137.214 Y161.403 E9.62649
G1 X137.281 Y162.709 E9.66128
G1 X137.278 Y162.947 E9.66762
G1 X137.199 Y164.096 E9.69826
G1 X137.146 Y164.507 E9.70929
G1 X136.863 Y166.546 E9.76406
G1 X136.581 Y169.097 E9.83235
G1 X136.375 Y171.616 E9.8996
G1 X136.296 Y173.057 E9.938
G1 X136.254 Y173.66 E9.95409
G1 X136.15 Y174.557 E9.97811
G1 X135.966 Y175.442 E10.00216
G1 X135.706 Y176.306 E10.02617
G1 X135.369 Y177.145 E10.05023
G1 X134.96 Y177.95 E10.07426
G1 X134.482 Y178.716 E10.09828
G1 X133.937 Y179.436 E10.12231
G1 X133.331 Y180.106 E10.14635
G1 X132.668 Y180.719 E10.17037
G1 X131.954 Y181.271 E10.19439
G1 X131.193 Y181.758 E10.21843
G1 X130.392 Y182.176 E10.24247
G1 X129.558 Y182.521 E10.26648
G1 X128.696 Y182.791 E10.29052
G1 X127.524 Y183.029 E10.32234
G1 X126.531 Y183.171 E10.34903
G1 X123.907 Y183.584 E10.41971
G1 X121.433 Y184.047 E10.48668
G1 X118.982 Y184.576 E10.5534
G1 X118.172 Y184.761 E10.5755
G1 X117.283 Y184.923 E10.59955
G1 X116.107 Y185.016 E10.63094
G1 X115.05 Y185.038 E10.65907
G1 X114.838 Y185.04 E10.66471
G1 X102.077 Y185.039 E11.00426
G1 X101.356 Y185.028 E11.02344
G1 X100.522 Y184.981 E11.04567
G1 X100.481 Y184.977 E11.04676
G1 X99.451 Y184.823 E11.07448
G1 X98.339 Y184.597 E11.10467
G1 X97.592 Y184.435 E11.12501
G1 X95.039 Y183.956 E11.19412
G1 X93.329 Y183.676 E11.24023
G1 X92.445 Y183.491 E11.26426
G1 X91.581 Y183.229 E11.28828
G1 X90.744 Y182.891 E11.3123
G1 X89.939 Y182.48 E11.33635
G1 X89.174 Y182 E11.36038
G1 X88.455 Y181.454 E11.3844
G1 X87.787 Y180.847 E11.40842
G1 X87.175 Y180.182 E11.43247
G1 X86.624 Y179.467 E11.45649
G1 X86.139 Y178.705 E11.48052
G1 X85.723 Y177.903 E11.50456
G1 X85.379 Y177.068 E11.52859
G1 X85.111 Y176.206 E11.55261
G1 X84.92 Y175.323 E11.57665
G1 X84.808 Y174.427 E11.60067
G1 X84.778 Y173.854 E11.61594
G1 X84.771 Y173.561 E11.62374
G1 X84.768 Y173.318 E11.6302
G1 X84.768 Y164.76 E11.85792
G1 X84.779 Y164.054 E11.8767
G1 X84.833 Y163.153 E11.90072
G1 X84.978 Y162.203 E11.92629
G1 X85.533 Y159.441 E12.00125
G1 X85.739 Y158.343 E12.03098
G1 X85.945 Y157.463 E12.05503
G1 X86.227 Y156.606 E12.07903
G1 X86.584 Y155.776 E12.10307
G1 X87.014 Y154.982 E12.1271
G1 X87.511 Y154.228 E12.15113
G1 X88.074 Y153.521 E12.17518
G1 X88.697 Y152.867 E12.19921
G1 X89.375 Y152.271 E12.22323
G1 X90.103 Y151.737 E12.24725
G1 X90.876 Y151.269 E12.2713
G1 F1500 E5.7713
;MESH:void_switch-0.16.stl
G0 F6000 X100.523 Y159.474
G0 X101.461 Y160.06
G0 X101.642 Y166.601
;TYPE:WALL-INNER
G1 F1500 E12.2713
G1 F600 X101.642 Y165.172 E12.30932
G1 X101.642 Y162.454 E12.38164
G1 X101.642 Y160.14 E12.44321
G1 X103.956 Y160.14 E12.50478
G1 X106.673 Y160.14 E12.57708
G1 X108.103 Y160.14 E12.61513
G1 X107.191 Y161.053 E12.64946
G1 X106.673 Y160.534 E12.66897
G1 X103.956 Y160.534 E12.74036
G1 X102.035 Y162.454 E12.81263
G1 X102.035 Y165.172 E12.88386
G1 X102.554 Y165.69 E12.90337
G1 X101.642 Y166.601 E12.93767
G0 F6000 X101.642 Y166.682
G1 F600 X101.982 Y167.022 E12.95047
G1 X108.143 Y173.182 E13.18228
G1 X111.412 Y169.913 E13.30529
G1 X111.13 Y169.629 E13.31594
G1 X111.413 Y169.912 E13.31596
G1 X114.684 Y166.641 E13.43904
G1 X108.523 Y160.48 E13.67088
G1 X108.183 Y160.14 E13.68367
G1 X108.664 Y160.14 E13.69056
G1 X115.741 Y160.141 E13.87887
G1 X115.74 Y174.24 E14.25402
G1 X101.641 Y174.24 E14.62917
G1 X101.642 Y167.163 E14.81747
G1 X101.642 Y166.682 E14.82436
G0 F6000 X102.042 Y167.648
G1 F600 X108.143 Y173.748 E15.05392
G1 X115.25 Y166.641 E15.32136
G1 X109.489 Y160.88 E15.53814
G1 X109.149 Y160.54 E15.55093
G1 X109.63 Y160.54 E15.55782
G1 X115.341 Y160.541 E15.70978
G1 X115.341 Y166.641 E15.87209
G1 X115.34 Y173.84 E16.06364
G1 X108.143 Y173.84 E16.25514
G1 X102.041 Y173.84 E16.41751
G1 X102.042 Y167.648 E16.58226
G1 F1500 E10.08226
G0 F6000 X107.931 Y172.827
G1 F1500 E16.58226
G0 F6000 X108.143 Y172.616
;TYPE:WALL-OUTER
G1 F600 X110.847 Y169.912 E16.68401
G1 X110.565 Y169.629 E16.69464
G1 X111.13 Y169.063 E16.71592
G1 X111.413 Y169.346 E16.72657
G1 X114.118 Y166.641 E16.82836
G1 X108.143 Y160.666 E17.0532
G1 X107.191 Y161.619 E17.08904
G1 X106.507 Y160.934 E17.1148
G1 X104.122 Y160.934 E17.17826
G1 X102.435 Y162.62 E17.24172
G1 X102.435 Y165.006 E17.30521
G1 X103.12 Y165.69 E17.33096
G1 X102.167 Y166.641 E17.36679
G1 X108.143 Y172.616 E17.59164
G1 F1500 E11.09164
G0 F6000 X107.931 Y172.827
G0 X109.231 Y173.186
G0 X115.814 Y174.344
G1 F1500 E17.59164
G0 F6000 X115.922 Y174.629
G1 F600 X115.833 Y174.64 E17.59403
G1 X101.53 Y174.64 E17.9746
G1 X101.349 Y174.571 E17.97976
G1 X101.247 Y174.398 E17.9851
G1 X101.241 Y174.328 E17.98697
G1 X101.242 Y160.02 E18.36768
G1 X101.304 Y159.857 E18.37232
G1 X101.459 Y159.752 E18.3773
G1 X101.553 Y159.74 E18.37982
G1 X115.852 Y159.741 E18.76029
G1 X116.035 Y159.811 E18.76551
G1 X116.135 Y159.982 E18.77078
G1 X116.141 Y160.04 E18.77233
G1 X116.14 Y174.361 E19.15338
G1 X116.079 Y174.523 E19.15799
G1 X115.922 Y174.629 E19.16303
G0 F6000 X115.701 Y174.217
G0 X114.94 Y173.44
;TYPE:WALL-INNER
G1 F600 X109.498 Y173.44 E19.30783
G1 X109.017 Y173.44 E19.32063
G1 X109.357 Y173.1 E19.32751
G1 X114.6 Y167.857 E19.5248
G1 X114.94 Y167.517 E19.53759
G1 X114.94 Y167.998 E19.54448
G1 X114.94 Y173.44 E19.68928
G0 F6000 X107.269 Y173.44
G1 F600 X102.441 Y173.44 E19.81775
G1 X102.442 Y168.614 E19.94616
G1 X107.269 Y173.44 E20.12778
G0 F6000 X108.143 Y172.939
G0 X114.441 Y166.641
G0 X114.941 Y165.766
G1 F600 X114.601 Y165.426 E20.14057
G1 X110.455 Y161.28 E20.29658
G1 X110.115 Y160.94 E20.30938
G1 X110.596 Y160.94 E20.31627
G1 X114.941 Y160.941 E20.43188
G1 X114.941 Y165.285 E20.54747
G1 X114.941 Y165.766 E20.55436
G0 F6000 X108.143 Y160.343
G0 X104.436 Y160.662
G0 X103.044 Y160.88
G1 F600 X102.382 Y161.541 E20.57925
G1 X102.042 Y161.881 E20.59205
G1 X102.042 Y161.4 E20.59894
G1 X102.042 Y160.54 E20.62182
G1 X102.903 Y160.54 E20.64473
G1 X103.384 Y160.54 E20.65753
G1 X103.044 Y160.88 E20.6644
G0 F6000 X104.024 Y160.698
G0 X108.143 Y160.343
G0 X111.056 Y161.051
G0 X111.055 Y161.33
;TYPE:SKIN
G1 F600 X114.551 Y161.331 E20.75743
G1 X114.551 Y164.826 E20.85042
G1 X111.055 Y161.33 E20.98198
G0 F6000 X111.056 Y161.051
G0 X114.759 Y161.123
G0 X114.831 Y161.909
G0 X114.391 Y161.909
G1 F600 X113.972 Y161.49 E20.99774
G0 F6000 X113.407 Y161.49
G1 F600 X114.391 Y162.474 E21.03477
G0 F6000 X114.391 Y163.04
G1 F600 X112.841 Y161.49 E21.0931
G0 F6000 X112.275 Y161.49
G1 F600 X114.391 Y163.606 E21.17272
G0 F6000 X114.391 Y164.171
G1 F600 X111.71 Y161.49 E21.2736
G0 F6000 X110.9 Y161.246
;TYPE:SKIN
G1 F600 X110.753 Y161.099 E21.27637
G0 F6000 X110.753 Y161.051
G0 X114.746 Y165.296
G0 X114.831 Y164.98
G0 X114.634 Y164.98
G1 F600 X114.781 Y165.127 E21.27914
G0 F6000 X114.831 Y165.127
G0 X114.353 Y168.26
G0 X114.55 Y168.457
;TYPE:SKIN
G1 F600 X114.55 Y173.05 E21.40135
G1 X109.957 Y173.05 E21.52356
G1 X114.55 Y168.457 E21.69639
G0 F6000 X114.18 Y169.051
G1 F600 X114.39 Y169.261 E21.70429
G0 F6000 X113.897 Y169.334
G1 F600 X114.39 Y169.827 E21.72284
G0 F6000 X114.39 Y170.392
G1 F600 X113.614 Y169.617 E21.75203
G0 F6000 X113.331 Y169.9
G1 F600 X114.39 Y170.958 E21.79186
G0 F6000 X114.39 Y171.524
G1 F600 X113.048 Y170.182 E21.84236
