;FLAVOR:Marlin
;TIME:2503
;Filament used: 0.450106m
;Layer height: 0.16
;MINX:127.876
;MINY:131.891
;MINZ:0.16
;MAXX:181.984
;MAXY:169.191
;MAXZ:10.88
;Generated with Cura_SteamEngine 4.12.1
M140 S72
M105
M190 S72
M104 S250
M105
M109 S250
M82 ;absolute extrusion mode
; Ender 3 Custom Start G-code
G92 E0 ; Reset Extruder
G28 ; Home all axes
G1 Z2.0 F3000 ; Move Z Axis up little to prevent scratching of Heat Bed
G1 X0.1 Y20 Z0.3 F5000.0 ; Move to start position
G1 X0.1 Y200.0 Z0.3 F1500.0 E15 ; Draw the first line
G1 X0.4 Y200.0 Z0.3 F5000.0 ; Move to side a little
G1 X0.4 Y20 Z0.3 F1500.0 E30 ; Draw the second line
G92 E0 ; Reset Extruder
G1 Z2.0 F3000 ; Move Z Axis up little to prevent scratching of Heat Bed
G1 X5 Y20 Z0.3 F5000.0 ; Move over to prevent blob squish
G92 E0
G92 E0
G1 F1500 E-6.5
;LAYER_COUNT:68
;LAYER:0
M107
G0 F6000 X131.871 Y135.818 Z0.16
;TYPE:SKIRT
G1 F1500 E0
G1 F600 X132.56 Y135.181 E0.02497
G1 X133.301 Y134.606 E0.04992
G1 X134.088 Y134.096 E0.07488
G1 X134.915 Y133.654 E0.09983
G1 X135.777 Y133.285 E0.12478
G1 X136.668 Y132.99 E0.14975
G1 X137.58 Y132.773 E0.17469
G1 X138.454 Y132.64 E0.19822
G1 X138.839 Y132.597 E0.20853
G1 X141.015 Y132.378 E0.26672
G1 X142.972 Y132.132 E0.3192
G1 X143.726 Y132.028 E0.33945
G1 X144.382 Y131.958 E0.35701
G1 X144.693 Y131.934 E0.36531
G1 X145.379 Y131.902 E0.38358
G1 X146.229 Y131.891 E0.4062
G1 X159.216 Y131.893 E0.75176
G1 X159.926 Y131.903 E0.77065
G1 X160.747 Y131.945 E0.79252
G1 X161.677 Y132.066 E0.81748
G1 X162.599 Y132.268 E0.84259
G1 X162.891 Y132.345 E0.85063
G1 X163.23 Y132.44 E0.86
G1 X163.822 Y132.617 E0.87644
G1 X166.276 Y133.311 E0.94429
G1 X168.715 Y133.926 E1.01122
G1 X172.14 Y134.673 E1.1045
G1 X172.843 Y134.81 E1.12355
G1 X173.755 Y135.029 E1.14851
G1 X174.645 Y135.324 E1.17346
G1 X175.78 Y135.831 E1.20654
G1 X175.966 Y135.927 E1.21211
G1 X176.78 Y136.392 E1.23705
G1 X177.552 Y136.925 E1.26201
G1 X178.276 Y137.522 E1.28698
G1 X178.946 Y138.178 E1.31193
G1 X179.557 Y138.889 E1.33687
G1 X180.106 Y139.65 E1.36184
G1 X180.588 Y140.454 E1.38678
G1 X180.854 Y140.976 E1.40237
G1 X180.913 Y141.1 E1.40603
G1 X181.279 Y141.963 E1.43097
G1 X181.571 Y142.855 E1.45594
G1 X181.786 Y143.768 E1.4809
G1 X181.922 Y144.695 E1.50583
G1 X181.977 Y145.585 E1.52956
G1 X181.984 Y145.904 E1.53805
G1 X181.937 Y147.188 E1.57223
G1 X181.879 Y147.696 E1.58584
G1 X181.733 Y148.751 E1.61418
G1 X181.412 Y151.335 E1.68346
G1 X181.173 Y153.82 E1.74989
G1 X181.051 Y155.782 E1.80219
G1 X180.959 Y157.068 E1.8365
G1 X180.852 Y158 E1.86146
G1 X180.666 Y158.919 E1.88641
G1 X180.403 Y159.819 E1.91136
G1 X180.064 Y160.694 E1.93633
G1 X179.652 Y161.536 E1.96127
G1 X179.169 Y162.34 E1.98623
G1 X178.62 Y163.1 E2.01117
G1 X178.008 Y163.811 E2.03613
G1 X177.337 Y164.467 E2.0611
G1 X176.613 Y165.063 E2.08606
G1 X175.841 Y165.596 E2.11102
G1 X175.027 Y166.061 E2.13596
G1 X174.176 Y166.454 E2.1609
G1 X173.294 Y166.774 E2.18587
G1 X172.388 Y167.018 E2.21083
G1 X171.544 Y167.172 E2.23366
G1 X170.616 Y167.305 E2.25861
G1 X168.031 Y167.712 E2.32824
G1 X165.595 Y168.168 E2.39418
G1 X163.122 Y168.702 E2.4615
G1 X162.348 Y168.88 E2.48263
G1 X161.656 Y169.016 E2.50139
G1 X161.601 Y169.025 E2.50288
G1 X160.67 Y169.136 E2.52782
G1 X160.049 Y169.167 E2.54437
G1 X158.97 Y169.189 E2.57308
G1 X158.746 Y169.191 E2.57905
G1 X145.973 Y169.19 E2.91891
G1 X145.252 Y169.179 E2.9381
G1 X144.352 Y169.128 E2.96208
G1 X144.311 Y169.124 E2.96318
G1 X143.2 Y168.958 E2.99307
G1 X142.077 Y168.73 E3.02356
G1 X141.325 Y168.567 E3.04403
G1 X138.836 Y168.1 E3.11142
G1 X137.108 Y167.817 E3.15801
G1 X136.19 Y167.626 E3.18296
G1 X135.291 Y167.358 E3.20792
G1 X134.418 Y167.014 E3.23289
G1 X133.578 Y166.597 E3.25784
G1 X132.777 Y166.11 E3.28278
G1 X132.019 Y165.557 E3.30775
G1 X131.312 Y164.941 E3.3327
G1 X130.66 Y164.267 E3.35765
G1 X130.067 Y163.54 E3.38261
G1 X129.539 Y162.765 E3.40757
G1 X129.079 Y161.948 E3.43251
G1 X128.689 Y161.095 E3.45747
G1 X128.374 Y160.212 E3.48242
G1 X128.136 Y159.305 E3.50737
G1 X127.975 Y158.381 E3.53232
G1 X127.886 Y157.224 E3.5632
G1 X127.879 Y156.931 E3.571
G1 X127.876 Y156.669 E3.57797
G1 X127.876 Y148.099 E3.806
G1 X127.887 Y147.391 E3.82484
G1 X127.942 Y146.455 E3.84979
G1 X128.102 Y145.393 E3.87837
G1 X128.656 Y142.64 E3.95309
G1 X128.861 Y141.545 E3.98273
G1 X129.073 Y140.631 E4.00769
G1 X129.362 Y139.739 E4.03264
G1 X129.726 Y138.875 E4.05759
G1 X130.163 Y138.044 E4.08257
G1 X130.668 Y137.254 E4.10752
G1 X131.239 Y136.51 E4.13247
G1 X131.871 Y135.818 E4.15741
G0 F6000 X132.239 Y136.016
G1 F600 X132.922 Y135.399 E4.1819
G1 X133.657 Y134.845 E4.20639
G1 X134.437 Y134.355 E4.2309
G1 X135.257 Y133.936 E4.2554
G1 X136.109 Y133.589 E4.27988
G1 X136.989 Y133.317 E4.30439
G1 X137.889 Y133.123 E4.32889
G1 X138.498 Y133.037 E4.34525
G1 X138.879 Y132.995 E4.35545
G1 X141.065 Y132.775 E4.41391
G1 X142.997 Y132.532 E4.46572
G1 X143.781 Y132.424 E4.48678
G1 X144.412 Y132.356 E4.50367
G1 X144.723 Y132.332 E4.51197
G1 X145.385 Y132.302 E4.5296
G1 X146.229 Y132.291 E4.55206
G1 X159.21 Y132.293 E4.89746
G1 X159.92 Y132.303 E4.91635
G1 X160.712 Y132.344 E4.93745
G1 X161.625 Y132.463 E4.96195
G1 X162.497 Y132.654 E4.98571
G1 X162.789 Y132.731 E4.99374
G1 X163.116 Y132.823 E5.00278
G1 X163.747 Y133.011 E5.0203
G1 X166.174 Y133.698 E5.08741
G1 X168.622 Y134.316 E5.15459
G1 X172.03 Y135.058 E5.2474
G1 X172.766 Y135.202 E5.26735
G1 X173.661 Y135.418 E5.29185
G1 X174.534 Y135.71 E5.31635
G1 X175.597 Y136.187 E5.34735
G1 X175.783 Y136.283 E5.35292
G1 X176.582 Y136.74 E5.37741
G1 X177.338 Y137.265 E5.4019
G1 X178.046 Y137.854 E5.4264
G1 X178.7 Y138.501 E5.45088
G1 X179.295 Y139.204 E5.47539
G1 X179.828 Y139.955 E5.49989
G1 X180.493 Y141.148 E5.53623
G1 X180.552 Y141.272 E5.53989
G1 X180.911 Y142.119 E5.56437
G1 X181.195 Y142.995 E5.58887
G1 X181.402 Y143.892 E5.61336
G1 X181.531 Y144.804 E5.63787
G1 X181.577 Y145.593 E5.6589
G1 X181.584 Y145.912 E5.66739
G1 X181.539 Y147.15 E5.70035
G1 X181.483 Y147.641 E5.7135
G1 X181.333 Y148.722 E5.74254
G1 X181.015 Y151.28 E5.81113
G1 X180.775 Y153.787 E5.87814
G1 X180.652 Y155.753 E5.93055
G1 X180.56 Y157.039 E5.96486
G1 X180.454 Y157.954 E5.98937
G1 X180.27 Y158.856 E6.01386
G1 X180.008 Y159.739 E6.03837
G1 X179.67 Y160.595 E6.06286
G1 X179.26 Y161.419 E6.08735
G1 X178.779 Y162.204 E6.11185
G1 X178.232 Y162.945 E6.13635
G1 X177.623 Y163.635 E6.16084
G1 X176.956 Y164.27 E6.18534
G1 X176.237 Y164.845 E6.20984
G1 X175.47 Y165.355 E6.23435
G1 X174.662 Y165.796 E6.25884
G1 X173.819 Y166.166 E6.28334
G1 X172.947 Y166.461 E6.30783
G1 X172.053 Y166.68 E6.33232
G1 X171.488 Y166.776 E6.34757
G1 X170.564 Y166.908 E6.37241
G1 X167.967 Y167.317 E6.44236
G1 X165.509 Y167.777 E6.5089
G1 X163.011 Y168.317 E6.5769
G1 X162.258 Y168.49 E6.59746
G1 X161.592 Y168.621 E6.61552
G1 X161.537 Y168.63 E6.617
G1 X160.623 Y168.739 E6.64149
G1 X160.041 Y168.767 E6.657
G1 X158.962 Y168.789 E6.68571
G1 X158.746 Y168.791 E6.69146
G1 X145.979 Y168.79 E7.03117
G1 X145.258 Y168.779 E7.05035
G1 X144.391 Y168.73 E7.07346
G1 X144.35 Y168.726 E7.07456
G1 X143.28 Y168.566 E7.10334
G1 X142.162 Y168.339 E7.1337
G1 X141.413 Y168.176 E7.15409
G1 X138.888 Y167.702 E7.22245
G1 X137.173 Y167.422 E7.26869
G1 X136.271 Y167.234 E7.29321
G1 X135.39 Y166.969 E7.31769
G1 X134.534 Y166.628 E7.3422
G1 X133.712 Y166.214 E7.36669
G1 X132.929 Y165.731 E7.39117
G1 X132.19 Y165.181 E7.41568
G1 X131.502 Y164.569 E7.44018
G1 X130.87 Y163.9 E7.46467
G1 X130.298 Y163.178 E7.48918
G1 X129.791 Y162.41 E7.51367
G1 X129.352 Y161.601 E7.53816
G1 X128.986 Y160.756 E7.56266
G1 X128.694 Y159.883 E7.58716
G1 X128.479 Y158.988 E7.61165
G1 X128.342 Y158.077 E7.63616
G1 X128.286 Y157.214 E7.65917
G1 X128.279 Y156.921 E7.66697
G1 X128.276 Y156.669 E7.67367
G1 X128.276 Y148.105 E7.90155
G1 X128.287 Y147.397 E7.92039
G1 X128.342 Y146.478 E7.94488
G1 X128.494 Y145.472 E7.97196
G1 X129.068 Y142.618 E8.04942
G1 X129.255 Y141.619 E8.07646
G1 X129.463 Y140.722 E8.10096
G1 X129.749 Y139.847 E8.12545
G1 X130.11 Y139 E8.14995
G1 X130.543 Y138.187 E8.17446
G1 X131.044 Y137.415 E8.19895
G1 X131.611 Y136.69 E8.22344
G1 X132.239 Y136.016 E8.24795
G0 F6000 X132.606 Y136.217
G1 F600 X133.284 Y135.621 E8.27197
G1 X134.012 Y135.087 E8.29599
G1 X134.785 Y134.619 E8.32004
G1 X135.596 Y134.222 E8.34406
G1 X136.439 Y133.898 E8.36809
G1 X137.307 Y133.65 E8.39211
G1 X138.542 Y133.435 E8.42547
G1 X138.92 Y133.393 E8.43559
G1 X141.111 Y133.172 E8.49418
G1 X143.092 Y132.923 E8.54731
G1 X143.835 Y132.821 E8.56726
G1 X144.443 Y132.755 E8.58354
G1 X144.754 Y132.731 E8.59184
G1 X145.391 Y132.702 E8.6088
G1 X146.229 Y132.691 E8.6311
G1 X159.205 Y132.693 E8.97637
G1 X159.915 Y132.703 E8.99526
G1 X160.678 Y132.742 E9.01559
G1 X161.573 Y132.86 E9.03961
G1 X162.395 Y133.041 E9.06201
G1 X162.687 Y133.118 E9.07004
G1 X163.002 Y133.207 E9.07875
G1 X163.54 Y133.368 E9.0937
G1 X166.105 Y134.093 E9.16462
G1 X168.529 Y134.705 E9.23114
G1 X171.964 Y135.454 E9.32469
G1 X172.689 Y135.595 E9.34434
G1 X173.567 Y135.807 E9.36837
G1 X174.423 Y136.096 E9.39241
G1 X175.413 Y136.542 E9.4213
G1 X175.599 Y136.638 E9.42687
G1 X176.383 Y137.087 E9.45091
G1 X177.123 Y137.604 E9.47493
G1 X177.815 Y138.185 E9.49898
G1 X178.453 Y138.824 E9.523
G1 X179.032 Y139.517 E9.54703
G1 X179.547 Y140.259 E9.57106
G1 X180.132 Y141.32 E9.6033
G1 X180.191 Y141.444 E9.60696
G1 X180.542 Y142.275 E9.63096
G1 X180.819 Y143.135 E9.655
G1 X181.018 Y144.016 E9.67903
G1 X181.139 Y144.911 E9.70306
G1 X181.178 Y145.602 E9.72148
G1 X181.185 Y145.921 E9.72997
G1 X181.141 Y147.112 E9.76168
G1 X181.087 Y147.586 E9.77437
G1 X180.935 Y148.685 E9.80389
G1 X180.614 Y151.264 E9.87305
G1 X180.375 Y153.753 E9.93958
G1 X180.253 Y155.725 E9.99215
G1 X180.161 Y157.011 E10.02645
G1 X180.057 Y157.908 E10.05048
G1 X179.874 Y158.792 E10.0745
G1 X179.613 Y159.657 E10.09854
G1 X179.277 Y160.495 E10.12257
G1 X178.868 Y161.3 E10.14659
G1 X178.389 Y162.066 E10.17063
G1 X177.845 Y162.787 E10.19466
G1 X177.239 Y163.456 E10.21868
G1 X176.576 Y164.07 E10.24273
G1 X175.861 Y164.622 E10.26676
G1 X175.1 Y165.109 E10.2908
G1 X174.3 Y165.526 E10.31481
G1 X173.465 Y165.872 E10.33885
G1 X172.603 Y166.142 E10.36289
G1 X171.431 Y166.38 E10.39471
G1 X170.522 Y166.51 E10.41914
G1 X167.897 Y166.923 E10.48985
G1 X165.422 Y167.386 E10.55685
G1 X162.915 Y167.928 E10.62509
G1 X162.168 Y168.1 E10.64549
G1 X161.527 Y168.226 E10.66287
G1 X161.472 Y168.235 E10.66436
G1 X160.575 Y168.341 E10.68839
G1 X160.033 Y168.367 E10.70283
G1 X158.954 Y168.389 E10.73154
G1 X158.746 Y168.391 E10.73708
G1 X145.985 Y168.39 E11.07662
G1 X145.264 Y168.379 E11.09581
G1 X144.43 Y168.332 E11.11804
G1 X144.389 Y168.328 E11.11913
G1 X143.359 Y168.174 E11.14684
G1 X142.247 Y167.948 E11.17704
G1 X141.5 Y167.786 E11.19738
G1 X138.947 Y167.307 E11.26649
G1 X137.237 Y167.027 E11.3126
G1 X136.353 Y166.842 E11.33663
G1 X135.489 Y166.58 E11.36065
G1 X134.652 Y166.242 E11.38467
G1 X133.847 Y165.831 E11.40872
G1 X133.082 Y165.351 E11.43275
G1 X132.363 Y164.805 E11.45677
G1 X131.695 Y164.198 E11.48079
G1 X131.083 Y163.533 E11.50484
G1 X130.532 Y162.818 E11.52885
G1 X130.047 Y162.056 E11.55289
G1 X129.631 Y161.254 E11.57693
G1 X129.287 Y160.419 E11.60096
G1 X129.019 Y159.557 E11.62498
G1 X128.828 Y158.674 E11.64901
G1 X128.716 Y157.778 E11.67304
G1 X128.686 Y157.205 E11.68831
G1 X128.679 Y156.912 E11.69611
G1 X128.676 Y156.669 E11.70257
G1 X128.676 Y148.112 E11.93026
G1 X128.687 Y147.404 E11.9491
G1 X128.741 Y146.502 E11.97314
G1 X128.886 Y145.551 E11.99874
G1 X129.46 Y142.697 E12.0762
G1 X129.648 Y141.692 E12.10341
G1 X129.853 Y140.813 E12.12742
G1 X130.136 Y139.955 E12.15146
G1 X130.493 Y139.126 E12.17548
G1 X130.922 Y138.331 E12.19951
G1 X131.42 Y137.578 E12.22354
G1 X131.983 Y136.871 E12.24758
G1 X132.606 Y136.217 E12.27162
G1 F1500 E5.77162
;MESH:void_switch-0.18.stl
G0 F6000 X138.501 Y146.888
G0 X139.405 Y147.48
G0 X140.275 Y149.013
;TYPE:WALL-INNER
G1 F1500 E12.27162
G1 F600 X140.275 Y148.463 E12.28625
G1 X142.202 Y148.463 E12.33753
G1 X142.202 Y149.013 E12.35216
G1 X140.275 Y149.013 E12.40343
G0 F6000 X139.875 Y149.413
G1 F600 X139.875 Y148.063 E12.43935
G1 X142.602 Y148.063 E12.51191
G1 X142.602 Y149.413 E12.54784
G1 X139.875 Y149.413 E12.6204
G0 F6000 X139.475 Y156.37
G1 F600 X139.475 Y149.813 E12.79487
G1 X139.475 Y147.726 E12.8504
G1 X139.512 Y147.663 E12.85234
G1 X142.166 Y147.663 E12.92296
G1 X142.166 Y144.163 E13.01609
G1 X142.214 Y144.163 E13.01736
G1 X142.215 Y147.663 E13.02868
G1 X142.967 Y147.663 E13.04869
G1 X143.002 Y147.724 E13.05056
G1 X143.002 Y149.813 E13.10615
G1 X143.002 Y156.369 E13.28059
G1 X142.822 Y156.369 E13.28538
G1 X142.821 Y149.813 E13.3643
G1 X139.656 Y149.813 E13.44851
G1 X139.656 Y156.369 E13.52764
G1 X139.475 Y156.37 E13.53245
G0 F6000 X139.075 Y156.77
;TYPE:WALL-OUTER
G1 F600 X139.075 Y147.618 E13.77597
G1 X139.281 Y147.263 E13.78689
G1 X139.863 Y147.263 E13.80238
G1 X139.864 Y143.763 E13.89551
G1 X140.557 Y143.763 E13.91394
G1 X140.558 Y147.263 E14.00707
G1 X141.766 Y147.263 E14.03922
G1 X141.766 Y143.763 E14.13234
G1 X142.614 Y143.763 E14.15491
G1 X142.615 Y147.263 E14.24804
G1 X143.197 Y147.263 E14.26352
G1 X143.402 Y147.616 E14.27438
G1 X143.402 Y156.769 E14.51793
G1 X142.422 Y156.769 E14.544
G1 X142.421 Y150.213 E14.71845
G1 X140.056 Y150.213 E14.78137
G1 X140.056 Y156.769 E14.95582
G1 X139.075 Y156.77 E14.98192
G0 F6000 X139.345 Y156.5
G0 X139.828 Y149.985
G0 X140.457 Y148.645
G0 X140.702 Y148.573
G0 X140.702 Y148.622
;TYPE:SKIN
G1 F600 X140.932 Y148.852 E14.99057
G0 F6000 X141.268 Y148.622
G1 F600 X141.498 Y148.852 E14.99923
G0 F6000 X141.834 Y148.622
G1 F600 X142.042 Y148.83 E15.00706
G0 F6000 X142.062 Y148.873
G0 X140.383 Y147.563
G0 X140.21 Y147.281
;TYPE:SKIN
G1 F600 X140.093 Y147.447 E15.01166
G1 X140.21 Y146.715 E15.02844
G1 X140.21 Y144.17 E15.08607
G1 X140.321 Y143.998 E15.09071
G1 F1500 E8.59071
G0 F6000 X140.257 Y144.063
G0 X140.33 Y147.491
G0 X140.801 Y147.491
G0 X143.182 Y149.654
G0 X145.369 Y149.656
G0 X145.89 Y149.654
;TYPE:WALL-INNER
G1 F1500 E15.09071
G1 F600 X145.55 Y149.994 E15.1035
G1 X145.55 Y149.513 E15.11039
G1 X145.55 Y143.491 E15.27063
G1 X151.572 Y143.491 E15.43086
G1 X152.052 Y143.491 E15.44363
G1 X151.713 Y143.83 E15.45049
G1 X151.12 Y144.425 E15.47284
G1 X150.601 Y143.905 E15.49239
G1 X147.883 Y143.905 E15.56471
G1 X145.963 Y145.825 E15.63696
G1 X145.963 Y148.543 E15.70928
G1 X146.483 Y149.062 E15.72883
G1 X145.89 Y149.654 E15.75113
G0 F6000 X145.55 Y150.034
G1 F600 X145.89 Y150.374 E15.76392
G1 X152.071 Y156.555 E15.99651
G1 X155.342 Y153.284 E16.1196
G1 X155.06 Y153.001 E16.13023
G1 X155.342 Y153.283
G1 X158.613 Y150.014 E16.25327
G1 X152.43 Y143.831 E16.48594
G1 X152.09 Y143.491 E16.49873
G1 X152.571 Y143.491 E16.50562
G1 X159.649 Y143.492 E16.69396
G1 X159.648 Y157.591 E17.0691
G1 X145.549 Y157.591 E17.44425
G1 X145.55 Y150.515 E17.63253
G1 X145.55 Y150.034 E17.63942
G0 F6000 X145.95 Y151
G1 F600 X152.071 Y157.121 E17.86975
G1 X159.179 Y150.014 E18.1372
G1 X153.396 Y144.231 E18.35482
G1 X153.056 Y143.891 E18.36761
G1 X153.537 Y143.891 E18.3745
G1 X159.249 Y143.892 E18.52649
G1 X159.249 Y150.014 E18.68938
G1 X159.248 Y157.191 E18.88035
G1 X152.071 Y157.191 E19.07131
G1 X145.949 Y157.191 E19.23421
G1 X145.95 Y151 E19.39894
G1 F1500 E12.89894
G0 F6000 X152.071 Y156.312
G1 F1500 E19.39894
G0 F6000 X152.071 Y155.989
;TYPE:WALL-OUTER
G1 F600 X154.776 Y153.284 E19.50073
G1 X154.493 Y153.001 E19.51138
G1 X155.059 Y152.436 E19.53266
G1 X155.342 Y152.718 E19.54329
G1 X158.047 Y150.014 E19.64506
G1 X152.071 Y144.038 E19.86993
G1 X151.12 Y144.991 E19.90575
G1 X150.435 Y144.305 E19.93155
G1 X148.049 Y144.305 E19.99504
G1 X146.363 Y145.991 E20.05848
G1 X146.363 Y148.377 E20.12197
G1 X147.049 Y149.062 E20.14776
G1 X146.096 Y150.014 E20.1836
G1 X152.071 Y155.989 E20.40844
G1 F1500 E13.90844
G0 F6000 X152.282 Y156.201
G0 X145.458 Y157.681
G1 F1500 E20.40844
G0 F6000 X145.245 Y157.911
G1 F600 X145.152 Y157.724 E20.414
G1 X145.149 Y157.679 E20.4152
G1 X145.15 Y143.372 E20.79588
G1 X145.219 Y143.2 E20.80081
G1 X145.372 Y143.102 E20.80565
G1 X145.461 Y143.091 E20.80803
G1 X159.76 Y143.092 E21.1885
G1 X159.954 Y143.172 E21.19408
