;FLAVOR:Marlin
;TIME:2180
;Filament used: 0.440409m
;Layer height: 0.16
;MINX:83.094
;MINY:56.155
;MINZ:0.16
;MAXX:137.204
;MAXY:93.455
;MAXZ:10.88
;Generated with Cura_SteamEngine main
M82 ;absolute extrusion mode
; Ender 3 Custom Start G-code
G92 E0 ; Reset Extruder
G28 ; Home all axes
M104 S120 ; Start heating up the nozzle most of the way
M190 S72.0 ; Start heating the bed, wait until target temperature reached
M109 S250.0 ; Finish heating the nozzle
G1 Z2.0 F3000 ; Move Z Axis up little to prevent scratching of Heat Bed
G1 X0.1 Y20 Z0.3 F5000.0 ; Move to start position
G1 X0.1 Y200.0 Z0.3 F1500.0 E15 ; Draw the first line
G1 X0.4 Y200.0 Z0.3 F5000.0 ; Move to side a little
G1 X0.4 Y20 Z0.3 F1500.0 E30 ; Draw the second line
G92 E0 ; Reset Extruder
G1 Z2.0 F3000 ; Move Z Axis up little to prevent scratching of Heat Bed
G1 X5 Y20 Z0.3 F5000.0 ; Move over to prevent blob squish
G92 E0
G92 E0
G1 F1500 E-6.5
;LAYER_COUNT:68
;LAYER:0
M107
G0 F6000 X85.887 Y61.518 Z0.16
G0 X83.869 Y66.935
;TYPE:SKIRT
G1 F1500 E0
G1 F600 X84.08 Y65.809 E0.03048
G1 X84.292 Y64.895 E0.05545
G1 X84.581 Y64.003 E0.0804
G1 X84.945 Y63.139 E0.10534
G1 X85.382 Y62.308 E0.13033
G1 X85.887 Y61.518 E0.15527
G1 X86.458 Y60.774 E0.18023
G1 X87.09 Y60.082 E0.20516
G1 X87.779 Y59.445 E0.23013
G1 X88.52 Y58.87 E0.25509
G1 X89.307 Y58.36 E0.28004
G1 X90.134 Y57.918 E0.30499
G1 X90.996 Y57.549 E0.32994
G1 X91.887 Y57.254 E0.35491
G1 X92.799 Y57.037 E0.37986
G1 X93.776 Y56.893 E0.40614
G1 X96.087 Y56.657 E0.46795
G1 X97.751 Y56.431 E0.51263
G1 X98.222 Y56.388 E0.52521
G1 X99.154 Y56.265 E0.55023
G1 X100.405 Y56.173 E0.5836
G1 X101.422 Y56.157 E0.61067
G1 X114.267 Y56.155 E0.95245
G1 X115.135 Y56.166 E0.97555
G1 X116.072 Y56.219 E1.00052
G1 X117 Y56.352 E1.02546
G1 X118.051 Y56.602 E1.05421
G1 X120.845 Y57.414 E1.13163
G1 X123.256 Y58.039 E1.1979
G1 X125.757 Y58.613 E1.26618
G1 X128.024 Y59.067 E1.3277
G1 X128.88 Y59.269 E1.3511
G1 X129.87 Y59.585 E1.37875
G1 X130.736 Y59.946 E1.40371
G1 X131.568 Y60.379 E1.42867
G1 X132.36 Y60.881 E1.45362
G1 X133.106 Y61.449 E1.47857
G1 X133.801 Y62.078 E1.50351
G1 X134.44 Y62.765 E1.52848
G1 X135.019 Y63.503 E1.55343
G1 X135.477 Y64.192 E1.57545
G1 X135.947 Y65.004 E1.60041
G1 X136.346 Y65.853 E1.62537
G1 X136.671 Y66.732 E1.65031
G1 X136.921 Y67.636 E1.67527
G1 X137.092 Y68.559 E1.70024
G1 X137.184 Y69.492 E1.72519
G1 X137.204 Y70.299 E1.74667
G1 X137.176 Y71.237 E1.77164
G1 X137.116 Y71.826 E1.78739
G1 X137.017 Y72.593 E1.80797
G1 X136.817 Y73.999 E1.84576
G1 X136.534 Y76.481 E1.91223
G1 X136.318 Y79.032 E1.98035
G1 X136.228 Y80.62 E2.02267
G1 X136.179 Y81.324 E2.04144
G1 X136.073 Y82.256 E2.0664
G1 X135.888 Y83.176 E2.09137
G1 X135.625 Y84.076 E2.11632
G1 X135.286 Y84.951 E2.14129
G1 X134.874 Y85.793 E2.16623
G1 X134.392 Y86.598 E2.1912
G1 X133.843 Y87.358 E2.21614
G1 X133.231 Y88.069 E2.24111
G1 X132.561 Y88.725 E2.26606
G1 X131.838 Y89.322 E2.291
G1 X131.066 Y89.855 E2.31597
G1 X130.252 Y90.32 E2.34091
G1 X129.401 Y90.714 E2.36586
G1 X128.519 Y91.034 E2.39083
G1 X127.614 Y91.278 E2.41577
G1 X126.777 Y91.432 E2.43841
G1 X125.814 Y91.571 E2.4643
G1 X123.211 Y91.981 E2.53442
G1 X120.758 Y92.44 E2.60082
G1 X118.619 Y92.897 E2.65902
G1 X117.438 Y93.164 E2.69123
G1 X116.516 Y93.331 E2.71617
G1 X115.225 Y93.433 E2.75062
G1 X113.986 Y93.455 E2.7836
G1 X101.145 Y93.453 E3.12527
G1 X100.448 Y93.443 E3.14382
G1 X99.512 Y93.389 E3.16877
G1 X98.597 Y93.259 E3.19336
G1 X97.698 Y93.092 E3.21769
G1 X96.744 Y92.901 E3.24358
G1 X94.258 Y92.475 E3.31069
G1 X93.679 Y92.392 E3.32625
G1 X92.402 Y92.192 E3.36064
G1 X91.482 Y92.007 E3.38561
G1 X90.582 Y91.745 E3.41055
G1 X89.707 Y91.407 E3.43551
G1 X88.864 Y90.996 E3.46047
G1 X88.059 Y90.514 E3.48543
G1 X87.298 Y89.966 E3.51039
G1 X86.587 Y89.355 E3.53533
G1 X85.93 Y88.685 E3.5603
G1 X85.333 Y87.962 E3.58525
G1 X84.799 Y87.191 E3.6102
G1 X84.333 Y86.377 E3.63516
G1 X83.938 Y85.526 E3.66012
G1 X83.617 Y84.645 E3.68507
G1 X83.373 Y83.74 E3.71001
G1 X83.206 Y82.817 E3.73497
G1 X83.109 Y81.646 E3.76623
G1 X83.094 Y80.983 E3.78388
G1 X83.095 Y72.363 E4.01324
G1 X83.106 Y71.657 E4.03203
G1 X83.161 Y70.72 E4.057
G1 X83.321 Y69.661 E4.0855
G1 X83.869 Y66.935 E4.15949
G1 F1500 E-2.34051
G0 F6000 X83.895 Y72.375
G1 F1500 E4.15949
G1 F600 X83.906 Y71.669 E4.17828
G1 X83.96 Y70.768 E4.20229
G1 X84.105 Y69.818 E4.22786
G1 X84.67 Y67.008 E4.30413
G1 X84.867 Y65.956 E4.33261
G1 X85.072 Y65.077 E4.35662
G1 X85.355 Y64.219 E4.38066
G1 X85.712 Y63.39 E4.40468
G1 X86.141 Y62.595 E4.42871
G1 X86.639 Y61.842 E4.45274
G1 X87.202 Y61.135 E4.47678
G1 X87.825 Y60.481 E4.50082
G1 X88.503 Y59.885 E4.52484
G1 X89.231 Y59.351 E4.54886
G1 X90.004 Y58.883 E4.5729
G1 X90.815 Y58.486 E4.59693
G1 X91.658 Y58.162 E4.62096
G1 X92.526 Y57.914 E4.64498
G1 X93.857 Y57.689 E4.6809
G1 X96.188 Y57.451 E4.74324
G1 X97.859 Y57.224 E4.78812
G1 X98.31 Y57.183 E4.80016
G1 X99.259 Y57.058 E4.82563
G1 X100.418 Y56.972 E4.85656
G1 X101.253 Y56.958 E4.87878
G1 X114.267 Y56.955 E5.22506
G1 X115.124 Y56.966 E5.24786
G1 X116.026 Y57.019 E5.2719
G1 X116.919 Y57.151 E5.29592
G1 X117.828 Y57.37 E5.3208
G1 X120.632 Y58.185 E5.3985
G1 X123.087 Y58.821 E5.46598
G1 X125.564 Y59.389 E5.5336
G1 X127.867 Y59.851 E5.5961
G1 X128.673 Y60.041 E5.61813
G1 X129.625 Y60.348 E5.64475
G1 X130.457 Y60.699 E5.66877
G1 X131.255 Y61.123 E5.69282
G1 X132.012 Y61.615 E5.71684
G1 X132.723 Y62.172 E5.74087
G1 X133.381 Y62.79 E5.76489
G1 X133.982 Y63.464 E5.78892
G1 X134.738 Y64.509 E5.82324
G1 X135.254 Y65.404 E5.85073
G1 X135.634 Y66.224 E5.87477
G1 X135.94 Y67.073 E5.89879
G1 X136.17 Y67.947 E5.92283
G1 X136.322 Y68.837 E5.94686
G1 X136.4 Y69.98 E5.97734
G1 X136.404 Y70.309 E5.9861
G1 X136.375 Y71.212 E6.01014
G1 X136.323 Y71.725 E6.02386
G1 X136.245 Y72.336 E6.04025
G1 X136.023 Y73.904 E6.08238
G1 X135.739 Y76.392 E6.14901
G1 X135.522 Y78.955 E6.21746
G1 X135.43 Y80.574 E6.2606
G1 X135.381 Y81.268 E6.27912
G1 X135.278 Y82.165 E6.30314
G1 X135.095 Y83.049 E6.32716
G1 X134.835 Y83.914 E6.35119
G1 X134.499 Y84.752 E6.37522
G1 X134.09 Y85.558 E6.39927
G1 X133.612 Y86.324 E6.42329
G1 X133.068 Y87.045 E6.44732
G1 X132.462 Y87.715 E6.47136
G1 X131.8 Y88.328 E6.49537
G1 X131.085 Y88.881 E6.51942
G1 X130.325 Y89.368 E6.54344
G1 X129.524 Y89.786 E6.56748
G1 X128.69 Y90.132 E6.5915
G1 X127.828 Y90.402 E6.61554
G1 X126.663 Y90.641 E6.64718
G1 X125.656 Y90.786 E6.67425
G1 X123.077 Y91.192 E6.74372
G1 X120.593 Y91.657 E6.81096
G1 X118.387 Y92.128 E6.87098
G1 X117.262 Y92.383 E6.90168
G1 X116.373 Y92.544 E6.92571
G1 X115.209 Y92.633 E6.95678
G1 X113.986 Y92.655 E6.98932
G1 X101.157 Y92.653 E7.33068
G1 X100.46 Y92.643 E7.34923
G1 X99.558 Y92.59 E7.37327
G1 X98.743 Y92.472 E7.39518
G1 X97.697 Y92.277 E7.42349
G1 X96.866 Y92.11 E7.44605
G1 X94.401 Y91.687 E7.51259
G1 X93.953 Y91.624 E7.52463
G1 X92.526 Y91.401 E7.56306
G1 X91.641 Y91.222 E7.58709
G1 X90.775 Y90.965 E7.61112
G1 X89.935 Y90.633 E7.63516
G1 X89.128 Y90.228 E7.65918
G1 X88.36 Y89.753 E7.68321
G1 X87.637 Y89.212 E7.70724
G1 X86.964 Y88.609 E7.73128
G1 X86.348 Y87.949 E7.7553
G1 X85.793 Y87.237 E7.77932
G1 X85.302 Y86.478 E7.80338
G1 X84.881 Y85.68 E7.82738
G1 X84.532 Y84.847 E7.85141
G1 X84.258 Y83.986 E7.87546
G1 X84.061 Y83.105 E7.89948
G1 X83.942 Y82.209 E7.92353
G1 X83.908 Y81.623 E7.93914
G1 X83.894 Y80.983 E7.95618
G1 X83.895 Y72.375 E8.18522
G0 F6000 X83.495 Y72.369
G1 F600 X83.506 Y71.663 E8.20401
G1 X83.561 Y70.744 E8.2285
G1 X83.713 Y69.739 E8.25555
G1 X84.287 Y66.883 E8.33306
G1 X84.474 Y65.883 E8.36013
G1 X84.682 Y64.986 E8.38463
G1 X84.968 Y64.111 E8.40913
G1 X85.329 Y63.264 E8.43363
G1 X85.762 Y62.451 E8.45813
G1 X86.263 Y61.679 E8.48262
G1 X86.83 Y60.954 E8.50711
G1 X87.458 Y60.28 E8.53162
G1 X88.141 Y59.663 E8.55612
G1 X88.876 Y59.109 E8.58061
G1 X89.656 Y58.619 E8.60512
G1 X90.476 Y58.2 E8.62962
G1 X91.328 Y57.853 E8.6541
G1 X92.208 Y57.581 E8.6786
G1 X93.108 Y57.387 E8.7031
G1 X93.816 Y57.291 E8.72211
G1 X96.153 Y57.053 E8.78462
G1 X97.805 Y56.828 E8.82898
G1 X98.277 Y56.784 E8.84159
G1 X99.206 Y56.662 E8.86652
G1 X100.411 Y56.572 E8.89868
G1 X101.246 Y56.558 E8.9209
G1 X114.267 Y56.555 E9.26736
G1 X115.13 Y56.566 E9.29033
G1 X116.049 Y56.619 E9.31482
G1 X116.96 Y56.751 E9.33931
G1 X117.939 Y56.986 E9.3661
G1 X120.73 Y57.797 E9.44344
G1 X123.179 Y58.432 E9.51075
G1 X125.653 Y58.999 E9.57829
G1 X127.946 Y59.459 E9.64052
G1 X128.777 Y59.656 E9.66324
G1 X129.748 Y59.967 E9.69037
G1 X130.597 Y60.322 E9.71486
G1 X131.412 Y60.751 E9.73936
G1 X132.187 Y61.248 E9.76386
G1 X132.915 Y61.811 E9.78835
G1 X133.592 Y62.435 E9.81285
G1 X134.213 Y63.115 E9.83735
G1 X135.071 Y64.288 E9.87602
G1 X135.601 Y65.204 E9.90418
G1 X135.99 Y66.038 E9.92866
G1 X136.306 Y66.903 E9.95317
G1 X136.546 Y67.792 E9.97767
G1 X136.707 Y68.698 E10.00215
G1 X136.8 Y69.975 E10.03622
G1 X136.804 Y70.304 E10.04498
G1 X136.775 Y71.224 E10.06947
G1 X136.72 Y71.775 E10.0842
G1 X136.642 Y72.386 E10.10059
G1 X136.422 Y73.933 E10.14217
G1 X136.134 Y76.469 E10.21008
G1 X135.921 Y78.976 E10.27703
G1 X135.829 Y80.597 E10.32023
G1 X135.78 Y81.296 E10.33887
G1 X135.675 Y82.211 E10.36338
G1 X135.491 Y83.113 E10.38787
G1 X135.23 Y83.996 E10.41237
G1 X134.892 Y84.852 E10.43686
G1 X134.482 Y85.676 E10.46135
G1 X134.002 Y86.462 E10.48586
G1 X133.455 Y87.203 E10.51036
G1 X132.847 Y87.893 E10.53483
G1 X132.18 Y88.528 E10.55934
G1 X131.461 Y89.103 E10.58383
G1 X130.695 Y89.614 E10.60834
G1 X129.887 Y90.056 E10.63284
G1 X129.044 Y90.426 E10.65734
G1 X128.172 Y90.722 E10.68184
G1 X127.278 Y90.941 E10.70633
G1 X126.72 Y91.036 E10.72139
G1 X125.773 Y91.173 E10.74685
G1 X123.147 Y91.586 E10.81758
G1 X120.672 Y92.049 E10.88458
G1 X118.463 Y92.521 E10.94469
G1 X117.35 Y92.773 E10.97505
G1 X116.444 Y92.938 E10.99955
G1 X115.217 Y93.033 E11.0323
G1 X113.986 Y93.055 E11.06506
G1 X101.151 Y93.053 E11.40657
G1 X100.454 Y93.043 E11.42512
G1 X99.535 Y92.99 E11.44962
G1 X98.67 Y92.866 E11.47287
G1 X97.771 Y92.699 E11.4972
G1 X96.819 Y92.508 E11.52303
G1 X94.316 Y92.079 E11.5906
G1 X92.464 Y91.796 E11.64045
G1 X91.561 Y91.615 E11.66496
G1 X90.678 Y91.355 E11.68945
G1 X89.82 Y91.02 E11.71396
G1 X88.995 Y90.612 E11.73845
G1 X88.209 Y90.133 E11.76294
G1 X87.467 Y89.589 E11.78742
G1 X86.774 Y88.981 E11.81195
G1 X86.138 Y88.317 E11.83642
G1 X85.561 Y87.599 E11.86093
G1 X85.049 Y86.834 E11.88542
G1 X84.605 Y86.027 E11.90993
G1 X84.232 Y85.185 E11.93443
G1 X83.935 Y84.314 E11.95892
G1 X83.713 Y83.421 E11.9834
G1 X83.571 Y82.511 E12.00791
G1 X83.509 Y81.635 E12.03127
G1 X83.494 Y80.983 E12.04863
G1 X83.495 Y72.369 E12.27783
G1 F1500 E5.77783
;MESH:void_switch-0.16-2.stl
G0 F6000 X93.429 Y72.369
G0 X94.514 Y72.369
G0 X97.352 Y73.308
;TYPE:WALL-INNER
G1 F1500 E12.27783
G1 F446.1 X97.352 Y72.673 E12.30056
G1 X97.037 Y72.775 E12.31241
G1 F452 X96.785 Y72.789 E12.32132
G1 F456.3 X95.845 Y72.786 E12.35421
G1 F454.5 X95.559 Y72.711 E12.3646
G1 X95.558 Y73.313 E12.38574
G1 F456.3 X96.785 Y73.315 E12.42867
G1 F452 X97.352 Y73.308 E12.4487
G0 F6000 X97.821 Y73.902
G1 F600 X97.821 Y72.278 E12.49191
G1 X97.591 Y72.225 E12.49819
G1 X97.41 Y72.096 E12.50411
G1 X97.228 Y72.225 E12.51004
G1 X96.913 Y72.327 E12.51885
G1 X95.887 Y72.324 E12.54615
G1 X95.567 Y72.24 E12.55496
G1 X95.43 Y72.151 E12.5593
G1 X95.293 Y72.24 E12.56365
G1 X95.095 Y72.282 E12.56904
G1 X95.092 Y73.905 E12.61222
G1 X95.475 Y73.777 E12.62297
G1 X97.44 Y73.777 E12.67525
G1 X97.821 Y73.902 E12.68592
G0 F6000 X98.13 Y74.777
G1 F447.8 X98.175 Y74.432 E12.69832
G1 F539.3 X98.221 Y74.087 E12.70863
G1 F600 X98.221 Y71.988 E12.76448
G1 X98.185 Y71.927 E12.76636
G1 X98.034 Y71.927 E12.77038
G1 X97.768 Y71.866 E12.77764
G1 X97.612 Y71.755 E12.78274
G1 F562.1 X97.409 Y71.381 E12.79482
G1 X97.208 Y71.755 E12.80688
G1 F600 X97.051 Y71.866 E12.812
G1 X96.863 Y71.927 E12.81726
G1 X95.923 Y71.925 E12.84227
G1 X95.731 Y71.875 E12.84755
G1 X95.575 Y71.774 E12.85249
G1 X95.43 Y71.479 E12.86124
G1 X95.284 Y71.774 E12.87
G1 X95.129 Y71.875 E12.87492
G1 X94.882 Y71.927 E12.88164
G1 X94.73 Y71.927 E12.88568
G1 X94.694 Y72.01 E12.88809
G1 X94.692 Y74.087 E12.94335
G1 F539.3 X94.738 Y74.432 E12.95366
G1 F448.6 X94.785 Y74.777 E12.96605
G1 X94.949 Y74.537 E12.97639
G1 F539.3 X95.113 Y74.297 E12.985
G1 F600 X95.475 Y74.177 E12.99515
G1 X97.44 Y74.177 E13.04743
G1 X97.803 Y74.296 E13.0576
G1 F539.3 X97.966 Y74.536 E13.06618
G1 F447.8 X98.13 Y74.777 E13.07658
G1 F1500 E6.57658
G0 F6000 X97.911 Y80.862
G1 F1500 E13.07658
G0 F6000 X97.641 Y81.132
;TYPE:WALL-OUTER
G1 F600 X98.621 Y81.132 E13.10265
G1 X98.621 Y71.881 E13.3488
G1 X98.416 Y71.527 E13.35969
G1 X98.034 Y71.527 E13.36985
G1 X97.893 Y71.47 E13.3739
G1 X97.834 Y71.345 E13.37758
G1 X97.833 Y68.027 E13.46586
G1 X96.985 Y68.027 E13.48843
G1 X96.985 Y71.345 E13.57671
G1 X96.926 Y71.47 E13.58039
G1 X96.82 Y71.525 E13.58357
G1 X95.916 Y71.527 E13.60762
G1 F505.3 X95.703 Y71.351 E13.61635
G1 F437.2 X95.703 Y69.725 E13.67573
G1 F438.8 X95.703 Y68.099 E13.7349
G1 X95.156 Y68.1 E13.7548
G1 X95.156 Y69.726 E13.81397
G1 F437.2 X95.156 Y71.352 E13.87335
G1 F505.3 X94.945 Y71.527 E13.88201
G1 F600 X94.499 Y71.527 E13.89388
G1 X94.294 Y71.881 E13.90476
G1 X94.294 Y72.01 E13.90819
G1 X94.295 Y81.133 E14.15094
G1 X95.275 Y81.132 E14.17701
G1 X95.275 Y74.777 E14.34611
G1 X95.354 Y74.617 E14.35086
G1 X95.475 Y74.577 E14.35425
G1 X97.44 Y74.577 E14.40653
G1 X97.561 Y74.616 E14.40992
G1 X97.64 Y74.777 E14.41469
G1 X97.641 Y81.132 E14.58378
G0 F6000 X98.131 Y80.642
;TYPE:WALL-INNER
G1 F413.8 X98.131 Y77.709 E14.69694
G1 F413.1 X98.13 Y74.776 E14.8103
G0 F6000 X97.868 Y74.349
G0 X95.047 Y74.349
G0 X94.785 Y74.777
G1 F413.8 X94.785 Y80.642 E15.03658
G0 F6000 X95.047 Y74.349
G0 X97.409 Y72.227
G0 X97.409 Y71.381
G1 F529.8 X97.409 Y69.916 E15.08073
G1 F532.2 X97.409 Y68.451 E15.12468
G1 F1500 E8.62468
G0 F6000 X97.633 Y69.501
G0 X98.698 Y69.5
G0 X99.503 Y69.503
G0 X100.588 Y69.503
G0 X101.17 Y69.5
G1 F1500 E15.12468
G1 F600 X102.513 Y68.158 E15.17519
G1 X101.17 Y68.158 E15.21093
G1 X101.17 Y69.5 E15.24664
G0 F6000 X101.611 Y68.551
G1 F621.8 X101.539 Y68.592 E15.24876
G1 X101.515 Y68.551 E15.24998
G1 X101.586 Y68.51 E15.25209
G0 F6000 X101.361 Y69.846
G0 X101.007 Y73.641
G0 X100.872 Y74.256
G1 F402.7 X100.984 Y74.016 E15.26259
G1 F421.8 X101.097 Y73.776 E15.27263
G1 F431.7 X101.519 Y73.353 E15.29473
G1 F438.8 X101.288 Y73.124 E15.30656
G1 F513.9 X101.155 Y72.721 E15.31975
G1 F610.7 X101.154 Y71.928 E15.34048
G1 F613.8 X101.152 Y71.135 E15.3611
G1 F617 X101.151 Y70.342 E15.38162
G1 F609.1 X101.319 Y69.916 E15.39363
G1 F600 X102.929 Y68.306 E15.45421
G1 F606.1 X103.251 Y68.143 E15.46372
G1 F613.8 X104.441 Y68.141 E15.49467
G1 F618.6 X105.631 Y68.138 E15.52538
G1 F564.7 X105.88 Y68.204 E15.53266
G1 F479 X106.129 Y68.27 E15.54125
G1 F438 X106.366 Y68.507 E15.55347
G1 F430.9 X106.789 Y68.084 E15.57563
G1 F408.9 X107.147 Y67.865 E15.59202
G1 X106.686 Y67.835 E15.61006
G1 F430.9 X106.366 Y67.834 E15.62192
G1 F445.3 X106.282 Y67.817 E15.62499
G1 F491.8 X105.957 Y67.784 E15.63559
G1 F571.4 X105.631 Y67.75 E15.64475
G1 F620.2 X103.354 Y67.75 E15.70337
G1 F615.4 X103.028 Y67.753 E15.71183
G1 F606.1 X102.702 Y67.757 E15.72041
G1 F600 X100.769 Y67.757 E15.77185
G1 X100.77 Y69.689 E15.82325
G1 F609.1 X100.763 Y70.341 E15.84034
G1 F617 X100.763 Y71.145 E15.86115
G1 F613.8 X100.763 Y71.949 E15.88206
G1 F610.7 X100.763 Y72.753 E15.90308
G1 F562.1 X100.796 Y73.012 E15.91049
G1 F488.8 X100.83 Y73.271 E15.91903
G1 F445.3 X100.848 Y73.353 E15.92204
G1 F431.7 X100.847 Y73.673 E15.93387
G1 F421.8 X100.859 Y73.965 E15.94493
G1 F402.7 X100.872 Y74.257 E15.95652
G0 F6000 X101.007 Y74.871
G0 X106.477 Y81.055
G1 F600 X106.278 Y80.939 E15.96265
G1 X101.57 Y76.23 E16.13983
G1 X101.569 Y81.053 E16.26816
G1 X106.477 Y81.055 E16.39875
G0 F6000 X106.925 Y81.09
G0 X108.061 Y81.055
G1 F600 X114.066 Y81.055 E16.55853
G1 X114.066 Y75.053 E16.71824
G1 X113.952 Y75.246 E16.7242
G1 X111.531 Y77.668 E16.81532
G1 X111.324 Y77.839 E16.82246
G1 X111.004 Y77.991 E16.83189
G1 X110.851 Y78.311 E16.84133
G1 X110.682 Y78.517 E16.84842
G1 X108.26 Y80.939 E16.93956
G1 X108.061 Y81.055 E16.94569
G0 F6000 X114.132 Y74.256
G0 X114.066 Y73.459
