;FLAVOR:Marlin
;TIME:2523
;Filament used: 0.450531m
;Layer height: 0.16
;MINX:83.968
;MINY:136.289
;MINZ:0.16
;MAXX:138.081
;MAXY:173.589
;MAXZ:10.88
;Generated with Cura_SteamEngine 4.12.1
M140 S72
M105
M190 S72
M104 S250
M105
M109 S250
M82 ;absolute extrusion mode
; Ender 3 Custom Start G-code
G92 E0 ; Reset Extruder
G28 ; Home all axes
G1 Z2.0 F3000 ; Move Z Axis up little to prevent scratching of Heat Bed
G1 X0.1 Y20 Z0.3 F5000.0 ; Move to start position
G1 X0.1 Y200.0 Z0.3 F1500.0 E15 ; Draw the first line
G1 X0.4 Y200.0 Z0.3 F5000.0 ; Move to side a little
G1 X0.4 Y20 Z0.3 F1500.0 E30 ; Draw the second line
G92 E0 ; Reset Extruder
G1 Z2.0 F3000 ; Move Z Axis up little to prevent scratching of Heat Bed
G1 X5 Y20 Z0.3 F5000.0 ; Move over to prevent blob squish
G92 E0
G92 E0
G1 F1500 E-6.5
;LAYER_COUNT:68
;LAYER:0
M107
G0 F6000 X90.178 Y138.494 Z0.16
;TYPE:SKIRT
G1 F1500 E0
G1 F600 X91.006 Y138.053 E0.02496
G1 X91.868 Y137.684 E0.04991
G1 X92.758 Y137.389 E0.07486
G1 X93.67 Y137.171 E0.09981
G1 X94.546 Y137.038 E0.12339
G1 X94.931 Y136.995 E0.13369
G1 X97.107 Y136.776 E0.19188
G1 X99.064 Y136.53 E0.24437
G1 X99.818 Y136.426 E0.26462
G1 X100.474 Y136.356 E0.28217
G1 X100.785 Y136.332 E0.29047
G1 X101.471 Y136.3 E0.30875
G1 X102.321 Y136.289 E0.33136
G1 X115.308 Y136.291 E0.67692
G1 X116.018 Y136.301 E0.69582
G1 X116.954 Y136.354 E0.72076
G1 X118.22 Y136.556 E0.75487
G1 X118.416 Y136.599 E0.76021
G1 X119.154 Y136.787 E0.78048
G1 X120.358 Y137.14 E0.81386
G1 X122.875 Y137.839 E0.88337
G1 X125.266 Y138.43 E0.9489
G1 X128.308 Y139.086 E1.03171
G1 X128.944 Y139.21 E1.04895
G1 X129.856 Y139.429 E1.0739
G1 X130.746 Y139.724 E1.09885
G1 X131.608 Y140.094 E1.12381
G1 X132.555 Y140.608 E1.15248
G1 X132.754 Y140.729 E1.15868
G1 X133.534 Y141.25 E1.18364
G1 X134.266 Y141.836 E1.20859
G1 X134.947 Y142.481 E1.23355
G1 X135.569 Y143.183 E1.2585
G1 X136.13 Y143.935 E1.28347
G1 X136.624 Y144.732 E1.30842
G1 X137.049 Y145.568 E1.33337
G1 X137.401 Y146.437 E1.35832
G1 X137.678 Y147.333 E1.38327
G1 X137.788 Y147.794 E1.39588
G1 X137.831 Y147.992 E1.40127
G1 X137.991 Y148.916 E1.42622
G1 X138.072 Y149.85 E1.45117
G1 X138.081 Y150.462 E1.46746
G1 X138.078 Y150.704 E1.4739
G1 X137.995 Y151.923 E1.50641
G1 X137.938 Y152.377 E1.51858
G1 X137.654 Y154.411 E1.57323
G1 X137.377 Y156.93 E1.64066
G1 X137.174 Y159.4 E1.7066
G1 X137.095 Y160.849 E1.74521
G1 X137.052 Y161.467 E1.7617
G1 X136.945 Y162.398 E1.78663
G1 X136.759 Y163.318 E1.81161
G1 X136.496 Y164.218 E1.83655
G1 X136.157 Y165.092 E1.8615
G1 X135.744 Y165.934 E1.88645
G1 X135.262 Y166.739 E1.91142
G1 X134.712 Y167.499 E1.93638
G1 X134.1 Y168.209 E1.96132
G1 X133.43 Y168.865 E1.98627
G1 X132.706 Y169.461 E2.01122
G1 X131.934 Y169.994 E2.03618
G1 X131.119 Y170.459 E2.06115
G1 X130.268 Y170.853 E2.0861
G1 X129.386 Y171.172 E2.11106
G1 X128.481 Y171.416 E2.136
G1 X127.637 Y171.57 E2.15883
G1 X126.636 Y171.713 E2.18573
G1 X124.07 Y172.117 E2.25485
G1 X121.571 Y172.585 E2.3225
G1 X119.156 Y173.106 E2.38824
G1 X118.35 Y173.29 E2.41024
G1 X117.428 Y173.46 E2.43518
G1 X116.124 Y173.565 E2.46999
G1 X115.067 Y173.587 E2.49812
G1 X114.838 Y173.589 E2.50422
G1 X102.065 Y173.588 E2.84408
G1 X101.344 Y173.577 E2.86327
G1 X100.444 Y173.526 E2.88725
G1 X100.403 Y173.522 E2.88835
G1 X99.292 Y173.356 E2.91824
G1 X98.169 Y173.128 E2.94873
G1 X97.417 Y172.965 E2.9692
G1 X94.928 Y172.498 E3.03659
G1 X93.2 Y172.215 E3.08318
G1 X92.282 Y172.024 E3.10813
G1 X91.383 Y171.756 E3.13309
G1 X90.51 Y171.412 E3.15806
G1 X89.67 Y170.995 E3.18301
G1 X88.869 Y170.508 E3.20795
G1 X88.111 Y169.955 E3.23292
G1 X87.404 Y169.339 E3.25787
G1 X86.752 Y168.665 E3.28282
G1 X86.159 Y167.938 E3.30778
G1 X85.631 Y167.163 E3.33274
G1 X85.171 Y166.346 E3.35768
G1 X84.781 Y165.493 E3.38264
G1 X84.466 Y164.61 E3.40759
G1 X84.228 Y163.703 E3.43254
G1 X84.067 Y162.779 E3.45749
G1 X83.978 Y161.622 E3.48837
G1 X83.971 Y161.329 E3.49617
G1 X83.968 Y161.067 E3.50314
G1 X83.968 Y152.497 E3.73117
G1 X83.979 Y151.791 E3.74996
G1 X84.034 Y150.854 E3.77493
G1 X84.194 Y149.794 E3.80346
G1 X84.75 Y147.027 E3.87855
G1 X84.953 Y145.945 E3.90785
G1 X85.165 Y145.031 E3.93281
G1 X85.454 Y144.139 E3.95776
G1 X85.818 Y143.274 E3.98273
G1 X86.254 Y142.444 E4.00768
G1 X86.759 Y141.654 E4.03263
G1 X87.33 Y140.91 E4.05758
G1 X87.962 Y140.217 E4.08254
G1 X88.651 Y139.58 E4.1075
G1 X89.391 Y139.005 E4.13244
G1 X90.178 Y138.494 E4.15741
G0 F6000 X90.528 Y138.754
G1 F600 X91.347 Y138.335 E4.18189
G1 X92.2 Y137.988 E4.20639
G1 X93.079 Y137.716 E4.23087
G1 X93.979 Y137.521 E4.25537
G1 X94.59 Y137.435 E4.27179
G1 X94.971 Y137.393 E4.28199
G1 X97.157 Y137.173 E4.34045
G1 X99.089 Y136.93 E4.39226
G1 X99.873 Y136.822 E4.41332
G1 X100.504 Y136.754 E4.43021
G1 X100.815 Y136.73 E4.43851
G1 X101.477 Y136.7 E4.45614
G1 X102.321 Y136.689 E4.4786
G1 X115.302 Y136.691 E4.824
G1 X116.012 Y136.701 E4.84289
G1 X116.931 Y136.754 E4.86738
G1 X118.134 Y136.946 E4.8998
G1 X118.33 Y136.989 E4.90514
G1 X119.042 Y137.171 E4.92469
G1 X120.285 Y137.536 E4.95916
G1 X122.744 Y138.219 E5.02707
G1 X125.189 Y138.823 E5.09408
G1 X128.244 Y139.482 E5.17724
G1 X128.867 Y139.603 E5.19413
G1 X129.763 Y139.818 E5.21864
G1 X130.636 Y140.11 E5.24314
G1 X131.48 Y140.477 E5.26763
G1 X132.347 Y140.95 E5.2939
G1 X132.546 Y141.071 E5.3001
G1 X133.311 Y141.583 E5.3246
G1 X134.029 Y142.159 E5.34909
G1 X134.694 Y142.796 E5.37359
G1 X135.301 Y143.488 E5.39808
G1 X135.847 Y144.23 E5.4226
G1 X136.325 Y145.016 E5.44707
G1 X136.734 Y145.841 E5.47157
G1 X137.069 Y146.699 E5.49608
G1 X137.398 Y147.878 E5.52865
G1 X137.441 Y148.076 E5.53404
G1 X137.597 Y148.984 E5.55856
G1 X137.673 Y149.901 E5.58304
G1 X137.681 Y150.457 E5.59784
G1 X137.678 Y150.699 E5.60428
G1 X137.598 Y151.874 E5.63561
G1 X137.541 Y152.321 E5.6476
G1 X137.259 Y154.344 E5.70195
G1 X136.982 Y156.852 E5.76909
G1 X136.772 Y159.421 E5.83767
G1 X136.684 Y161.005 E5.87989
G1 X136.653 Y161.438 E5.89144
G1 X136.547 Y162.353 E5.91595
G1 X136.363 Y163.255 E5.94044
G1 X136.101 Y164.137 E5.96492
G1 X135.763 Y164.994 E5.98944
G1 X135.352 Y165.818 E6.01394
G1 X134.872 Y166.603 E6.03842
G1 X134.325 Y167.343 E6.06291
G1 X133.715 Y168.034 E6.08743
G1 X133.049 Y168.668 E6.1119
G1 X132.329 Y169.243 E6.13642
G1 X131.563 Y169.753 E6.1609
G1 X130.755 Y170.194 E6.18539
G1 X129.912 Y170.564 E6.20989
G1 X129.04 Y170.859 E6.23438
G1 X128.145 Y171.078 E6.2589
G1 X127.58 Y171.174 E6.27415
G1 X126.594 Y171.315 E6.30065
G1 X123.965 Y171.729 E6.37147
G1 X121.527 Y172.185 E6.43746
G1 X119.061 Y172.717 E6.50459
G1 X118.261 Y172.9 E6.52642
G1 X117.355 Y173.066 E6.55093
G1 X116.116 Y173.165 E6.58401
G1 X115.059 Y173.187 E6.61214
G1 X114.838 Y173.189 E6.61802
G1 X102.071 Y173.188 E6.95772
G1 X101.35 Y173.177 E6.97691
G1 X100.483 Y173.128 E7.00002
G1 X100.442 Y173.124 E7.00111
G1 X99.372 Y172.964 E7.0299
G1 X98.254 Y172.737 E7.06025
G1 X97.505 Y172.574 E7.08065
G1 X94.98 Y172.1 E7.14901
G1 X93.265 Y171.82 E7.19525
G1 X92.363 Y171.632 E7.21976
G1 X91.482 Y171.367 E7.24424
G1 X90.626 Y171.026 E7.26876
G1 X89.804 Y170.612 E7.29325
G1 X89.021 Y170.129 E7.31773
G1 X88.282 Y169.579 E7.34224
G1 X87.594 Y168.967 E7.36674
G1 X86.962 Y168.298 E7.39123
G1 X86.39 Y167.576 E7.41574
G1 X85.883 Y166.808 E7.44022
G1 X85.444 Y165.999 E7.46471
G1 X85.078 Y165.154 E7.48922
G1 X84.786 Y164.281 E7.51371
G1 X84.571 Y163.386 E7.5382
G1 X84.434 Y162.475 E7.56271
G1 X84.378 Y161.612 E7.58573
G1 X84.371 Y161.319 E7.59352
G1 X84.368 Y161.067 E7.60023
G1 X84.368 Y152.503 E7.8281
G1 X84.379 Y151.797 E7.84689
G1 X84.434 Y150.878 E7.87139
G1 X84.586 Y149.873 E7.89843
G1 X85.14 Y147.115 E7.97328
G1 X85.346 Y146.018 E8.00298
G1 X85.555 Y145.122 E8.02746
G1 X85.841 Y144.246 E8.05198
G1 X86.201 Y143.399 E8.07647
G1 X86.634 Y142.587 E8.10096
G1 X87.135 Y141.815 E8.12544
G1 X87.702 Y141.089 E8.14995
G1 X88.33 Y140.415 E8.17447
G1 X89.013 Y139.799 E8.19894
G1 X89.748 Y139.244 E8.22345
G1 X90.528 Y138.754 E8.24796
G0 F6000 X90.876 Y139.018
G1 F600 X91.687 Y138.621 E8.27198
G1 X92.529 Y138.297 E8.29599
G1 X93.398 Y138.048 E8.32004
G1 X94.634 Y137.833 E8.35342
G1 X95.012 Y137.791 E8.36354
G1 X97.203 Y137.57 E8.42213
G1 X99.184 Y137.321 E8.47526
G1 X99.927 Y137.219 E8.49522
G1 X100.535 Y137.153 E8.51149
G1 X100.846 Y137.129 E8.51979
G1 X101.483 Y137.1 E8.53675
G1 X102.321 Y137.089 E8.55905
G1 X115.297 Y137.091 E8.90432
G1 X116.007 Y137.101 E8.92321
G1 X116.908 Y137.154 E8.94723
G1 X118.049 Y137.337 E8.97798
G1 X118.245 Y137.38 E8.98332
G1 X118.929 Y137.555 E9.0021
G1 X120.129 Y137.907 E9.03538
G1 X122.646 Y138.606 E9.10489
G1 X125.106 Y139.214 E9.17231
G1 X128.133 Y139.867 E9.25471
G1 X128.791 Y139.995 E9.27254
G1 X129.669 Y140.207 E9.29658
G1 X130.525 Y140.496 E9.32062
G1 X131.351 Y140.859 E9.34462
G1 X132.139 Y141.292 E9.36855
G1 X132.338 Y141.413 E9.37474
G1 X133.088 Y141.916 E9.39877
G1 X133.791 Y142.483 E9.4228
G1 X134.441 Y143.11 E9.44683
G1 X135.033 Y143.792 E9.47086
G1 X135.562 Y144.524 E9.4949
G1 X136.024 Y145.3 E9.51893
G1 X136.416 Y146.114 E9.54297
G1 X136.734 Y146.959 E9.56699
G1 X137.007 Y147.963 E9.59467
G1 X137.05 Y148.161 E9.60006
G1 X137.202 Y149.051 E9.62409
G1 X137.275 Y149.952 E9.64814
G1 X137.281 Y150.452 E9.66145
G1 X137.278 Y150.694 E9.66789
G1 X137.201 Y151.825 E9.69805
G1 X137.145 Y152.266 E9.70988
G1 X136.864 Y154.282 E9.76404
G1 X136.581 Y156.846 E9.83268
G1 X136.375 Y159.366 E9.89995
G1 X136.296 Y160.805 E9.9383
G1 X136.254 Y161.409 E9.95441
G1 X136.15 Y162.306 E9.97844
G1 X135.966 Y163.191 E10.00249
G1 X135.706 Y164.055 E10.02649
G1 X135.369 Y164.894 E10.05055
G1 X134.96 Y165.699 E10.07458
G1 X134.482 Y166.465 E10.0986
G1 X133.937 Y167.185 E10.12263
G1 X133.331 Y167.855 E10.14667
G1 X132.668 Y168.468 E10.17069
G1 X131.954 Y169.02 E10.19471
G1 X131.193 Y169.507 E10.21875
G1 X130.392 Y169.925 E10.24279
G1 X129.558 Y170.27 E10.2668
G1 X128.696 Y170.54 E10.29084
G1 X127.524 Y170.778 E10.32266
G1 X126.531 Y170.92 E10.34935
G1 X123.907 Y171.333 E10.42003
G1 X121.433 Y171.796 E10.487
G1 X118.982 Y172.325 E10.55372
G1 X118.172 Y172.51 E10.57583
G1 X117.283 Y172.672 E10.59987
G1 X116.107 Y172.765 E10.63126
G1 X115.05 Y172.787 E10.65939
G1 X114.838 Y172.789 E10.66503
G1 X102.077 Y172.788 E11.00458
G1 X101.356 Y172.777 E11.02376
G1 X100.522 Y172.73 E11.04599
G1 X100.481 Y172.726 E11.04709
G1 X99.451 Y172.572 E11.0748
G1 X98.339 Y172.346 E11.10499
G1 X97.592 Y172.184 E11.12533
G1 X95.039 Y171.705 E11.19445
G1 X93.329 Y171.425 E11.24055
G1 X92.445 Y171.24 E11.26458
G1 X91.581 Y170.978 E11.28861
G1 X90.744 Y170.64 E11.31262
G1 X89.939 Y170.229 E11.33667
G1 X89.174 Y169.749 E11.3607
G1 X88.455 Y169.203 E11.38473
G1 X87.787 Y168.596 E11.40874
G1 X87.175 Y167.931 E11.43279
G1 X86.624 Y167.216 E11.45681
G1 X86.139 Y166.454 E11.48084
G1 X85.723 Y165.652 E11.50488
G1 X85.379 Y164.817 E11.52891
G1 X85.111 Y163.955 E11.55293
G1 X84.92 Y163.072 E11.57697
G1 X84.808 Y162.176 E11.60099
G1 X84.778 Y161.603 E11.61626
G1 X84.771 Y161.31 E11.62406
G1 X84.768 Y161.067 E11.63053
G1 X84.768 Y152.509 E11.85824
G1 X84.779 Y151.803 E11.87703
G1 X84.833 Y150.902 E11.90104
G1 X84.978 Y149.952 E11.92661
G1 X85.533 Y147.19 E12.00157
G1 X85.739 Y146.092 E12.0313
G1 X85.945 Y145.212 E12.05535
G1 X86.227 Y144.355 E12.07935
G1 X86.584 Y143.525 E12.10339
G1 X87.014 Y142.731 E12.12742
G1 X87.511 Y141.977 E12.15145
G1 X88.074 Y141.27 E12.1755
G1 X88.697 Y140.616 E12.19953
G1 X89.375 Y140.02 E12.22355
G1 X90.103 Y139.486 E12.24757
G1 X90.876 Y139.018 E12.27162
G1 F1500 E5.77162
;MESH:void_switch-0.16.stl
G0 F6000 X100.517 Y147.234
G0 X101.461 Y147.809
G0 X101.642 Y154.35
;TYPE:WALL-INNER
G1 F1500 E12.27162
G1 F600 X101.642 Y152.921 E12.30964
G1 X101.642 Y150.203 E12.38196
G1 X101.642 Y147.889 E12.44353
G1 X103.956 Y147.889 E12.5051
G1 X106.673 Y147.889 E12.5774
G1 X108.103 Y147.889 E12.61545
G1 X107.191 Y148.802 E12.64978
G1 X106.673 Y148.283 E12.6693
G1 X103.956 Y148.283 E12.74068
G1 X102.035 Y150.203 E12.81295
G1 X102.035 Y152.921 E12.88418
G1 X102.554 Y153.439 E12.9037
G1 X101.642 Y154.35 E12.938
G0 F6000 X101.642 Y154.431
G1 F600 X108.143 Y160.932 E13.18262
G1 X111.412 Y157.661 E13.30567
G1 X111.13 Y157.378 E13.3163
G1 X111.413 Y157.661 E13.31633
G1 X114.684 Y154.39 E13.43942
G1 X108.523 Y148.229 E13.67125
G1 X108.183 Y147.889 E13.68405
G1 X108.664 Y147.889 E13.69094
G1 X115.741 Y147.89 E13.87924
G1 X115.74 Y161.989 E14.25439
G1 X101.641 Y161.989 E14.62954
G1 X101.642 Y154.431 E14.83064
G0 F6000 X102.042 Y155.397
G1 F600 X108.143 Y161.498 E15.06022
G1 X115.25 Y154.39 E15.32767
G1 X109.489 Y148.629 E15.54446
G1 X109.149 Y148.289 E15.55725
G1 X109.63 Y148.289 E15.56414
G1 X115.341 Y148.29 E15.7161
G1 X115.341 Y154.39 E15.87841
G1 X115.34 Y161.589 E16.06996
G1 X108.143 Y161.589 E16.26146
G1 X102.041 Y161.589 E16.42382
G1 X102.042 Y155.397 E16.58858
G1 F1500 E10.08858
G0 F6000 X107.931 Y160.577
G1 F1500 E16.58858
G0 F6000 X108.143 Y160.366
;TYPE:WALL-OUTER
G1 F600 X110.847 Y157.661 E16.69035
G1 X110.565 Y157.378 E16.70098
G1 X111.13 Y156.812 E16.72226
G1 X111.413 Y157.095 E16.73291
G1 X114.118 Y154.39 E16.8347
G1 X108.143 Y148.415 E17.05953
G1 X107.191 Y149.368 E17.09538
G1 X106.507 Y148.683 E17.12113
G1 X104.122 Y148.683 E17.18459
G1 X102.435 Y150.369 E17.24806
G1 X102.435 Y152.755 E17.31154
G1 X103.12 Y153.439 E17.3373
G1 X102.167 Y154.39 E17.37312
G1 X108.143 Y160.366 E17.598
G1 F1500 E11.098
G0 F6000 X107.931 Y160.577
G0 X109.232 Y160.935
G0 X115.833 Y162.084
G1 F1500 E17.598
G0 F6000 X116.071 Y162.281
G1 F600 X115.922 Y162.378 E17.60273
G1 X115.833 Y162.389 E17.60511
G1 X101.53 Y162.389 E17.98569
G1 X101.349 Y162.32 E17.99084
G1 X101.247 Y162.147 E17.99619
G1 X101.241 Y162.077 E17.99806
G1 X101.242 Y147.769 E18.37877
G1 X101.304 Y147.606 E18.38341
G1 X101.464 Y147.5 E18.38851
G1 X101.553 Y147.489 E18.3909
G1 X115.852 Y147.49 E18.77137
G1 X116.046 Y147.57 E18.77695
G1 X116.139 Y147.756 E18.78249
G1 X116.141 Y147.789 E18.78337
G1 X116.14 Y162.11 E19.16442
G1 X116.071 Y162.281 E19.16933
G0 F6000 X115.732 Y161.949
G0 X114.94 Y161.189
;TYPE:WALL-INNER
G1 F600 X109.499 Y161.189 E19.3141
G1 X109.018 Y161.189 E19.3269
G1 X109.358 Y160.849 E19.33378
G1 X114.6 Y155.606 E19.53105
G1 X114.94 Y155.266 E19.54384
G1 X114.94 Y155.747 E19.55074
G1 X114.94 Y161.189 E19.69554
G0 F6000 X107.268 Y161.189
G1 F600 X102.441 Y161.189 E19.82397
G1 X102.442 Y156.363 E19.95238
G1 X107.268 Y161.189 E20.13398
G0 F6000 X108.143 Y160.689
G0 X114.441 Y154.39
G0 X114.941 Y153.515
G1 F600 X114.601 Y153.175 E20.14678
G1 X110.455 Y149.029 E20.30279
G1 X110.115 Y148.689 E20.31559
G1 X110.596 Y148.689 E20.32248
G1 X114.941 Y148.69 E20.43809
G1 X114.941 Y153.034 E20.55367
G1 X114.941 Y153.515 E20.56057
G0 F6000 X108.143 Y148.092
G0 X104.436 Y148.411
G0 X103.044 Y148.629
G1 F600 X102.382 Y149.29 E20.58546
G1 X102.042 Y149.63 E20.59825
G1 X102.042 Y149.149 E20.60514
G1 X102.042 Y148.289 E20.62803
G1 X102.903 Y148.289 E20.65094
G1 X103.384 Y148.289 E20.66373
G1 X103.044 Y148.629 E20.67061
G0 F6000 X104.024 Y148.447
G0 X108.143 Y148.092
G0 X111.056 Y148.8
G0 X111.055 Y149.079
;TYPE:SKIN
G1 F600 X114.551 Y149.08 E20.76363
G1 X114.551 Y152.575 E20.85663
G1 X111.055 Y149.079 E20.98818
G0 F6000 X111.056 Y148.8
G0 X114.759 Y148.872
G0 X114.831 Y149.463
G0 X114.391 Y149.463
G1 F600 X114.166 Y149.239 E20.99663
G0 F6000 X113.6 Y149.239
G1 F600 X114.391 Y150.029 E21.02638
G0 F6000 X114.391 Y150.595
G1 F600 X113.035 Y149.239 E21.0774
G0 F6000 X112.469 Y149.239
G1 F600 X114.391 Y151.161 E21.14973
G0 F6000 X114.391 Y151.726
G1 F600 X111.903 Y149.239 E21.24333
G0 F6000 X111.904 Y148.8
G0 X110.585 Y148.884
G0 X110.757 Y149.175
G0 X110.874 Y149.058
;TYPE:SKIN
G1 F600 X110.664 Y148.848 E21.24728
G0 F6000 X110.664 Y148.8
G0 X114.454 Y152.872
G0 X114.571 Y152.755
G1 F600 X114.781 Y152.964 E21.25122
G0 F6000 X114.831 Y152.964
G0 X114.354 Y156.009
G0 X114.55 Y156.206
;TYPE:SKIN
G1 F600 X114.55 Y160.799 E21.37343
G1 X109.958 Y160.799 E21.49562
G1 X114.55 Y156.206 E21.66843
G0 F6000 X114.277 Y156.704
G1 F600 X114.39 Y156.816 E21.67266
G0 F6000 X113.994 Y156.986
G1 F600 X114.39 Y157.382 E21.68757
G0 F6000 X114.39 Y157.947
G1 F600 X113.711 Y157.269 E21.7131
