;FLAVOR:Marlin
;TIME:2096
;Filament used: 0.462003m
;Layer height: 0.16
;MINX:83.085
;MINY:90.005
;MINZ:0.2
;MAXX:137.204
;MAXY:132.334
;MAXZ:10.92
;Generated with Cura_SteamEngine 4.12.1
M140 S70
M105
M190 S70
M104 S250
M105
M109 S250
M82 ;absolute extrusion mode
; Ender 3 Custom Start G-code
G92 E0 ; Reset Extruder
G28 ; Home all axes
G1 Z2.0 F3000 ; Move Z Axis up little to prevent scratching of Heat Bed
G1 X0.1 Y20 Z0.3 F5000.0 ; Move to start position
G1 X0.1 Y200.0 Z0.3 F1500.0 E15 ; Draw the first line
G1 X0.4 Y200.0 Z0.3 F5000.0 ; Move to side a little
G1 X0.4 Y20 Z0.3 F1500.0 E30 ; Draw the second line
G92 E0 ; Reset Extruder
G1 Z2.0 F3000 ; Move Z Axis up little to prevent scratching of Heat Bed
G1 X5 Y20 Z0.3 F5000.0 ; Move over to prevent blob squish
G92 E0
G92 E0
G1 F1500 E-6.5
;LAYER_COUNT:68
;LAYER:0
M107
G0 F6000 X87.742 Y94.665 Z0.2
;TYPE:SKIRT
G1 F1500 E0
G1 F600 X88.482 Y94.088 E0.03121
G1 X89.268 Y93.577 E0.06239
G1 X90.095 Y93.134 E0.0936
G1 X90.956 Y92.763 E0.12478
G1 X91.846 Y92.467 E0.15597
G1 X92.767 Y92.247 E0.18747
G1 X92.916 Y92.218 E0.19252
G1 X93.92 Y92.07 E0.22627
G1 X96.252 Y91.836 E0.30422
G1 X98.451 Y91.545 E0.378
G1 X99.154 Y91.459 E0.40156
G1 X99.797 Y91.4 E0.42303
G1 X99.892 Y91.394 E0.4262
G1 X100.362 Y91.374 E0.44184
G1 X101.449 Y91.352 E0.47801
G1 X101.672 Y91.35 E0.48542
G1 X103.504 Y91.35 E0.54636
G1 X106.112 Y91.313 E0.63311
G1 X108.634 Y91.206 E0.71706
G1 X111.129 Y91.029 E0.80026
G1 X113.627 Y90.781 E0.88375
G1 X116.155 Y90.458 E0.96851
G1 X118.203 Y90.143 E1.03743
G1 X119.135 Y90.04 E1.06862
G1 X119.684 Y90.017 E1.08689
G1 X120.319 Y90.006 E1.10802
G1 X120.669 Y90.005 E1.11966
G1 X120.946 Y90.009 E1.12887
G1 X121.882 Y90.063 E1.16006
G1 X122.811 Y90.196 E1.19127
G1 X123.724 Y90.407 E1.22244
G1 X124.617 Y90.696 E1.25366
G1 X125.481 Y91.06 E1.28484
G1 X126.311 Y91.496 E1.31602
G1 X127.112 Y92.008 E1.34764
G1 X127.583 Y92.339 E1.36679
G1 X127.864 Y92.543 E1.37834
G1 X128.105 Y92.724 E1.38836
G1 X128.354 Y92.917 E1.39884
G1 X129.085 Y93.501 E1.42996
G1 X129.986 Y94.239 E1.4687
G1 X132.532 Y96.194 E1.57546
G1 X132.629 Y96.266 E1.57948
G1 X133.36 Y96.854 E1.61068
G1 X134.037 Y97.502 E1.64185
G1 X134.657 Y98.206 E1.67305
G1 X135.346 Y99.158 E1.71214
G1 X135.444 Y99.31 E1.71815
G1 X135.918 Y100.12 E1.74937
G1 X136.322 Y100.966 E1.78055
G1 X136.652 Y101.844 E1.81175
G1 X136.906 Y102.747 E1.84295
G1 X137.082 Y103.668 E1.87413
G1 X137.197 Y105.051 E1.92029
G1 X137.204 Y105.401 E1.93193
G1 X137.183 Y106.339 E1.96314
G1 X137.124 Y106.966 E1.98409
G1 X137.082 Y107.307 E1.99551
G1 X136.786 Y109.434 E2.06694
G1 X136.507 Y111.961 E2.1515
G1 X136.299 Y114.485 E2.23573
G1 X136.21 Y116.084 E2.289
G1 X136.18 Y116.511 E2.30323
G1 X136.074 Y117.443 E2.33443
G1 X135.89 Y118.362 E2.3656
G1 X135.628 Y119.263 E2.39681
G1 X135.29 Y120.138 E2.42801
G1 X134.878 Y120.981 E2.45922
G1 X134.397 Y121.785 E2.49038
G1 X133.848 Y122.546 E2.52159
G1 X133.237 Y123.258 E2.5528
G1 X132.568 Y123.914 E2.58396
G1 X131.845 Y124.512 E2.61517
G1 X131.073 Y125.045 E2.64637
G1 X130.259 Y125.511 E2.67757
G1 X129.409 Y125.906 E2.70874
G1 X128.527 Y126.227 E2.73996
G1 X127.622 Y126.472 E2.77114
G1 X126.774 Y126.628 E2.79982
G1 X125.782 Y126.771 E2.83315
G1 X123.229 Y127.173 E2.91911
G1 X120.802 Y127.626 E3.00123
G1 X118.121 Y128.224 E3.09259
G1 X117.086 Y128.444 E3.12779
G1 X114.61 Y128.934 E3.21173
G1 X112.189 Y129.485 E3.29432
G1 X109.746 Y130.114 E3.37822
G1 X107.336 Y130.807 E3.46163
G1 X104.63 Y131.681 E3.55621
G1 X104.162 Y131.827 E3.57251
G1 X103.256 Y132.068 E3.60369
G1 X102.332 Y132.231 E3.6349
G1 X101.082 Y132.324 E3.67659
G1 X100.577 Y132.333 E3.69339
G1 X100.211 Y132.334 E3.70556
G1 X99.952 Y132.33 E3.71418
G1 X99.016 Y132.275 E3.74536
G1 X98.088 Y132.141 E3.77655
G1 X97.174 Y131.929 E3.80776
G1 X96.61 Y131.756 E3.82738
G1 X95.734 Y131.421 E3.85857
G1 X94.89 Y131.014 E3.88974
G1 X93.776 Y130.328 E3.93325
G1 X93.375 Y130.047 E3.94954
G1 X93.122 Y129.864 E3.95992
G1 X92.911 Y129.707 E3.96867
G1 X92.387 Y129.293 E3.99088
G1 X91.974 Y128.943 E4.00889
G1 X90.466 Y127.64 E4.07517
G1 X87.975 Y125.622 E4.1818
G1 X87.32 Y125.11 E4.20945
G1 X86.606 Y124.501 E4.24066
G1 X85.947 Y123.834 E4.27185
G1 X85.347 Y123.113 E4.30305
G1 X84.811 Y122.344 E4.33422
G1 X84.342 Y121.531 E4.36544
G1 X83.944 Y120.682 E4.39663
G1 X83.62 Y119.802 E4.42782
G1 X83.372 Y118.898 E4.45899
G1 X83.202 Y117.975 E4.49021
G1 X83.1 Y116.763 E4.53066
G1 X83.09 Y116.418 E4.54214
G1 X83.085 Y116.099 E4.55275
G1 X83.086 Y107.572 E4.83636
G1 X83.096 Y106.87 E4.85971
G1 X83.149 Y105.934 E4.8909
G1 X83.281 Y105.013 E4.92184
G1 X83.363 Y104.577 E4.9366
G1 X83.819 Y102.3 E5.01383
G1 X84.054 Y101.035 E5.05663
G1 X84.265 Y100.121 E5.08783
G1 X84.552 Y99.228 E5.11903
G1 X84.915 Y98.363 E5.15023
G1 X85.35 Y97.532 E5.18142
G1 X85.854 Y96.741 E5.21262
G1 X86.423 Y95.996 E5.2438
G1 X87.054 Y95.302 E5.27499
G1 X87.742 Y94.665 E5.30618
G0 F6000 X88.105 Y94.883
G1 F600 X88.839 Y94.327 E5.33681
G1 X89.618 Y93.836 E5.36743
G1 X90.437 Y93.415 E5.39806
G1 X91.289 Y93.067 E5.42867
G1 X92.168 Y92.794 E5.45928
G1 X92.844 Y92.639 E5.48235
G1 X92.993 Y92.61 E5.4874
G1 X93.96 Y92.468 E5.51991
G1 X96.31 Y92.232 E5.59846
G1 X98.5 Y91.942 E5.67194
G1 X99.203 Y91.856 E5.69549
G1 X99.822 Y91.799 E5.71617
G1 X99.917 Y91.793 E5.71934
G1 X100.371 Y91.774 E5.73445
G1 X101.458 Y91.752 E5.77061
G1 X101.672 Y91.75 E5.77773
G1 X103.51 Y91.75 E5.83886
G1 X106.135 Y91.713 E5.92618
G1 X108.643 Y91.606 E6.00967
G1 X111.16 Y91.428 E6.09359
G1 X113.684 Y91.178 E6.17795
G1 X116.188 Y90.857 E6.26192
G1 X118.264 Y90.538 E6.33178
G1 X119.179 Y90.438 E6.36239
G1 X119.691 Y90.417 E6.37943
G1 X120.326 Y90.406 E6.40056
G1 X120.663 Y90.405 E6.41177
G1 X120.94 Y90.409 E6.42098
G1 X121.859 Y90.462 E6.4516
G1 X122.77 Y90.595 E6.48222
G1 X123.666 Y90.807 E6.51284
G1 X124.541 Y91.095 E6.54348
G1 X125.387 Y91.458 E6.5741
G1 X126.198 Y91.893 E6.60471
G1 X126.882 Y92.335 E6.6318
G1 X127.353 Y92.666 E6.65094
G1 X127.624 Y92.863 E6.66209
G1 X127.865 Y93.044 E6.67211
G1 X128.104 Y93.23 E6.68218
G1 X128.832 Y93.811 E6.71316
G1 X129.735 Y94.551 E6.75199
G1 X132.283 Y96.507 E6.85883
G1 X132.392 Y96.588 E6.86335
G1 X133.108 Y97.166 E6.89395
G1 X133.772 Y97.804 E6.92458
G1 X134.378 Y98.497 E6.9552
G1 X135.01 Y99.375 E6.99118
G1 X135.108 Y99.527 E6.9972
G1 X135.573 Y100.322 E7.02783
G1 X135.967 Y101.154 E7.05845
G1 X136.287 Y102.017 E7.08906
G1 X136.531 Y102.905 E7.11969
G1 X136.698 Y103.81 E7.1503
G1 X136.797 Y105.059 E7.19197
G1 X136.804 Y105.409 E7.20361
G1 X136.782 Y106.329 E7.23422
G1 X136.727 Y106.917 E7.25386
G1 X136.662 Y107.428 E7.271
G1 X136.386 Y109.402 E7.33729
G1 X136.108 Y111.924 E7.42168
G1 X135.902 Y114.43 E7.50531
G1 X135.811 Y116.056 E7.55948
G1 X135.781 Y116.483 E7.57372
G1 X135.677 Y117.398 E7.60434
G1 X135.493 Y118.3 E7.63496
G1 X135.232 Y119.183 E7.66559
G1 X134.896 Y120.04 E7.6962
G1 X134.486 Y120.864 E7.72682
G1 X134.007 Y121.65 E7.75743
G1 X133.461 Y122.391 E7.78804
G1 X132.852 Y123.082 E7.81868
G1 X132.186 Y123.718 E7.84931
G1 X131.468 Y124.294 E7.87992
G1 X130.702 Y124.805 E7.91055
G1 X129.895 Y125.247 E7.94115
G1 X129.052 Y125.618 E7.97179
G1 X128.18 Y125.914 E8.00241
G1 X127.286 Y126.134 E8.03304
G1 X126.717 Y126.232 E8.05224
G1 X125.741 Y126.373 E8.08504
G1 X123.166 Y126.778 E8.17174
G1 X120.719 Y127.235 E8.25453
G1 X118.038 Y127.833 E8.34589
G1 X117.008 Y128.051 E8.38091
G1 X114.549 Y128.538 E8.46428
G1 X112.105 Y129.093 E8.54764
G1 X109.607 Y129.737 E8.63344
G1 X107.228 Y130.421 E8.71577
G1 X104.511 Y131.299 E8.81074
G1 X104.043 Y131.445 E8.82705
G1 X103.153 Y131.681 E8.85767
G1 X102.246 Y131.838 E8.88829
G1 X101.075 Y131.924 E8.92734
G1 X100.57 Y131.933 E8.94414
G1 X100.217 Y131.934 E8.95588
G1 X99.958 Y131.93 E8.9645
G1 X99.039 Y131.876 E8.99512
G1 X98.128 Y131.742 E9.02574
G1 X97.233 Y131.53 E9.05633
G1 X96.737 Y131.376 E9.07361
G1 X95.877 Y131.047 E9.10423
G1 X95.049 Y130.645 E9.13485
G1 X94.006 Y130.001 E9.17562
G1 X93.605 Y129.72 E9.1919
G1 X93.36 Y129.543 E9.20195
G1 X93.149 Y129.386 E9.2107
G1 X92.645 Y128.987 E9.23208
G1 X92.235 Y128.64 E9.24995
G1 X90.729 Y127.339 E9.31614
G1 X88.222 Y125.308 E9.42345
G1 X87.566 Y124.795 E9.45115
G1 X86.866 Y124.197 E9.48177
G1 X86.221 Y123.54 E9.51239
G1 X85.635 Y122.83 E9.54301
G1 X85.112 Y122.072 E9.57364
G1 X84.658 Y121.271 E9.60427
G1 X84.275 Y120.434 E9.63488
G1 X83.966 Y119.567 E9.66549
G1 X83.733 Y118.676 E9.69612
G1 X83.578 Y117.769 E9.72673
G1 X83.499 Y116.751 E9.76069
G1 X83.489 Y116.406 E9.77217
G1 X83.485 Y116.099 E9.78238
G1 X83.486 Y107.578 E10.06579
G1 X83.496 Y106.876 E10.08914
G1 X83.549 Y105.957 E10.11976
G1 X83.674 Y105.087 E10.14899
G1 X83.755 Y104.656 E10.16358
G1 X84.209 Y102.387 E10.24054
G1 X84.447 Y101.108 E10.28381
G1 X84.655 Y100.211 E10.31444
G1 X84.939 Y99.335 E10.34507
G1 X85.298 Y98.487 E10.37569
G1 X85.73 Y97.674 E10.40631
G1 X86.23 Y96.901 E10.43693
G1 X86.796 Y96.175 E10.46755
G1 X87.422 Y95.5 E10.49817
G1 X88.105 Y94.883 E10.52878
G0 F6000 X88.467 Y95.103
G1 F600 X89.194 Y94.568 E10.55881
G1 X89.966 Y94.1 E10.58883
G1 X90.777 Y93.701 E10.6189
G1 X91.619 Y93.376 E10.64891
G1 X92.92 Y93.032 E10.69367
G1 X93.069 Y93.003 E10.69872
G1 X94 Y92.866 E10.73002
G1 X96.372 Y92.628 E10.80931
G1 X98.548 Y92.339 E10.88232
G1 X99.251 Y92.253 E10.90587
G1 X99.847 Y92.198 E10.92578
G1 X99.942 Y92.192 E10.92895
G1 X100.379 Y92.174 E10.94349
G1 X101.466 Y92.152 E10.97966
G1 X101.672 Y92.15 E10.98651
G1 X103.516 Y92.15 E11.04784
G1 X106.122 Y92.113 E11.13452
G1 X108.69 Y92.004 E11.22001
G1 X111.192 Y91.827 E11.30344
G1 X113.704 Y91.578 E11.3874
G1 X116.292 Y91.247 E11.47418
G1 X118.324 Y90.934 E11.54256
G1 X119.222 Y90.836 E11.5726
G1 X119.698 Y90.817 E11.58845
G1 X120.333 Y90.806 E11.60957
G1 X120.657 Y90.805 E11.62035
G1 X120.934 Y90.809 E11.62956
G1 X121.836 Y90.862 E11.65961
G1 X122.729 Y90.995 E11.68964
G1 X123.607 Y91.206 E11.71968
G1 X124.463 Y91.494 E11.74971
G1 X125.29 Y91.856 E11.77974
G1 X126.082 Y92.29 E11.80978
G1 X126.652 Y92.663 E11.83243
G1 X127.123 Y92.994 E11.85158
G1 X127.383 Y93.183 E11.86227
G1 X127.624 Y93.364 E11.8723
G1 X127.855 Y93.542 E11.882
G1 X128.578 Y94.12 E11.91278
G1 X129.472 Y94.853 E11.95124
G1 X132.154 Y96.91 E12.06365
G1 X132.857 Y97.477 E12.09369
G1 X133.506 Y98.105 E12.12373
G1 X134.098 Y98.787 E12.15377
G1 X134.674 Y99.592 E12.18669
G1 X134.772 Y99.744 E12.19271
G1 X135.227 Y100.524 E12.22274
G1 X135.611 Y101.341 E12.25277
G1 X135.922 Y102.189 E12.28281
G1 X136.157 Y103.061 E12.31284
G1 X136.313 Y103.951 E12.3429
G1 X136.397 Y105.067 E12.38012
G1 X136.404 Y105.417 E12.39176
G1 X136.382 Y106.32 E12.42181
G1 X136.33 Y106.868 E12.44011
G1 X136.266 Y107.373 E12.45705
G1 X135.991 Y109.34 E12.5231
G1 X135.711 Y111.88 E12.6081
G1 X135.5 Y114.451 E12.6939
G1 X135.412 Y116.028 E12.74643
G1 X135.382 Y116.455 E12.76067
G1 X135.279 Y117.352 E12.7907
G1 X135.097 Y118.237 E12.82075
G1 X134.837 Y119.102 E12.85079
G1 X134.502 Y119.94 E12.88081
G1 X134.094 Y120.746 E12.91085
G1 X133.616 Y121.512 E12.94088
G1 X133.073 Y122.234 E12.97093
G1 X132.468 Y122.904 E13.00096
G1 X131.806 Y123.518 E13.03099
G1 X131.092 Y124.071 E13.06102
G1 X130.332 Y124.559 E13.09106
G1 X129.532 Y124.978 E13.1211
G1 X128.697 Y125.324 E13.15116
G1 X127.836 Y125.595 E13.18118
G1 X126.66 Y125.836 E13.22111
G1 X125.699 Y125.974 E13.2534
G1 X123.095 Y126.384 E13.34108
G1 X120.648 Y126.841 E13.42387
G1 X117.955 Y127.442 E13.51565
G1 X116.93 Y127.659 E13.55049
G1 X114.454 Y128.149 E13.63444
G1 X111.989 Y128.71 E13.71853
G1 X109.545 Y129.339 E13.80246
G1 X107.112 Y130.039 E13.88667
G1 X104.392 Y130.917 E13.98173
G1 X103.924 Y131.063 E13.99804
G1 X103.05 Y131.294 E14.0281
G1 X102.16 Y131.446 E14.05813
G1 X101.068 Y131.524 E14.09455
G1 X100.563 Y131.533 E14.11135
G1 X100.223 Y131.534 E14.12265
G1 X99.964 Y131.53 E14.13127
G1 X99.063 Y131.476 E14.16129
G1 X98.17 Y131.342 E14.19132
G1 X96.896 Y131.008 E14.23513
G1 X96.863 Y130.997 E14.23629
G1 X96.02 Y130.673 E14.26633
G1 X95.209 Y130.277 E14.29634
G1 X94.235 Y129.673 E14.33446
G1 X93.834 Y129.392 E14.35075
G1 X93.599 Y129.222 E14.36039
G1 X93.388 Y129.065 E14.36914
G1 X92.903 Y128.681 E14.38972
G1 X92.497 Y128.337 E14.40742
G1 X91.012 Y127.054 E14.47269
G1 X88.436 Y124.967 E14.58296
G1 X87.813 Y124.48 E14.60926
G1 X87.126 Y123.892 E14.63933
G1 X86.495 Y123.247 E14.66934
G1 X85.923 Y122.548 E14.69939
G1 X85.415 Y121.801 E14.72943
G1 X84.975 Y121.012 E14.75948
G1 X84.607 Y120.188 E14.78949
G1 X84.313 Y119.334 E14.81953
G1 X84.096 Y118.457 E14.84958
G1 X83.957 Y117.565 E14.87961
G1 X83.899 Y116.74 E14.90712
G1 X83.889 Y116.395 E14.9186
G1 X83.885 Y116.099 E14.92844
G1 X83.886 Y107.584 E15.21165
G1 X83.896 Y106.882 E15.235
G1 X83.949 Y105.98 E15.26506
G1 X84.067 Y105.16 E15.29261
G1 X84.148 Y104.734 E15.30703
G1 X84.603 Y102.46 E15.38417
G1 X84.841 Y101.181 E15.42743
G1 X85.045 Y100.301 E15.45748
G1 X85.326 Y99.443 E15.48751
G1 X85.682 Y98.613 E15.51755
G1 X86.11 Y97.818 E15.54758
G1 X86.606 Y97.063 E15.57762
G1 X87.168 Y96.356 E15.60766
G1 X87.79 Y95.701 E15.6377
G1 X88.467 Y95.103 E15.66775
G1 F1500 E9.16775
G0 F6000 X120.051 Y102.137
G1 F1500 E15.66775
G1 F600 X120.242 Y101.998 E15.67561
G1 X120.474 Y101.998 E15.68332
G1 X120.665 Y102.137 E15.69118
G1 X120.738 Y102.36 E15.69898
G1 X120.665 Y102.583 E15.70679
G1 X120.474 Y102.722 E15.71464
G1 X120.242 Y102.722 E15.72236
G1 X120.051 Y102.583 E15.73022
G1 X119.978 Y102.36 E15.73802
G1 X120.051 Y102.137 E15.74583
G0 F6000 X119.71 Y101.891
G1 F600 X120.111 Y101.598 E15.76234
G1 X120.605 Y101.598 E15.77877
G1 X121.006 Y101.891 E15.79529
G1 X121.159 Y102.36 E15.8117
G1 X121.006 Y102.829 E15.82811
G1 X120.605 Y103.122 E15.84463
G1 X120.111 Y103.122 E15.86106
G1 X119.71 Y102.829 E15.87758
G1 X119.557 Y102.36 E15.89398
G1 X119.71 Y101.891 E15.91039
G0 F6000 X119.37 Y101.644
G1 F600 X119.982 Y101.198 E15.93558
G1 X120.734 Y101.198 E15.96059
G1 X121.346 Y101.644 E15.98578
G1 X121.58 Y102.36 E16.01083
G1 X121.346 Y103.076 E16.03589
G1 X120.734 Y103.522 E16.06107
G1 X119.982 Y103.522 E16.08608
G1 X119.37 Y103.076 E16.11127
G1 X119.136 Y102.36 E16.13632
G1 X119.37 Y101.644 E16.16138
G0 F6000 X106.171 Y106.745
G1 F600 X106.002 Y107.262 E16.17947
G1 X104.786 Y108.236 E16.23129
G1 X104.254 Y108.236 E16.24898
G1 X103.832 Y107.929 E16.26634
G1 X103.698 Y107.017 E16.297
G1 X104.104 Y106.302 E16.32435
G1 X105.006 Y105.915 E16.35699
G1 X105.566 Y105.915 E16.37562
G1 X106.004 Y106.233 E16.39362
G1 X106.171 Y106.745 E16.41153
G0 F6000 X105.749 Y106.745
G1 F600 X105.658 Y107.026 E16.42136
G1 X104.646 Y107.836 E16.46447
G1 X104.383 Y107.836 E16.47322
G1 X104.203 Y107.706 E16.4806
G1 X104.114 Y107.094 E16.50117
G1 X104.386 Y106.615 E16.51949
G1 X105.086 Y106.315 E16.54482
G1 X105.437 Y106.315 E16.5565
G1 X105.663 Y106.479 E16.56578
G1 X105.749 Y106.745 E16.57508
G0 F6000 X105.307 Y106.715
G1 F600 X105.316 Y106.787 E16.57749
G1 X104.561 Y107.391 E16.60965
G1 X104.529 Y107.173 E16.61698
G1 X104.667 Y106.93 E16.62628
G1 X105.169 Y106.715 E16.64444
G1 X105.307 Y106.715 E16.64903
G0 F6000 X101.336 Y119.521
G1 F600 X101.537 Y120.139 E16.67064
G1 X101.336 Y120.757 E16.69226
G1 X100.807 Y121.141 E16.714
G1 X100.159 Y121.141 E16.73555
G1 X99.63 Y120.757 E16.75729
G1 X99.429 Y120.139 E16.77891
G1 X99.63 Y119.521 E16.80052
G1 X100.159 Y119.137 E16.82226
G1 X100.807 Y119.137 E16.84382
G1 X101.336 Y119.521 E16.86556
G0 F6000 X100.995 Y119.767
G1 F600 X101.116 Y120.139 E16.87857
G1 X100.995 Y120.511 E16.89158
G1 X100.678 Y120.741 E16.90461
G1 X100.288 Y120.741 E16.91758
G1 X99.971 Y120.511 E16.9306
G1 X99.85 Y120.139 E16.94362
G1 X99.971 Y119.767 E16.95663
G1 X100.288 Y119.537 E16.96965
G1 X100.678 Y119.537 E16.98262
G1 X100.995 Y119.767 E16.99565
G0 F6000 X100.655 Y120.015
G1 F600 X100.696 Y120.139 E16.99999
G1 X100.655 Y120.263 E17.00434
G1 X100.548 Y120.341 E17.00874
G1 X100.418 Y120.341 E17.01307
G1 X100.311 Y120.263 E17.01747
G1 X100.27 Y120.139 E17.02181
G1 X100.311 Y120.015 E17.02616
G1 X100.418 Y119.937 E17.03056
G1 X100.548 Y119.937 E17.03489
G1 X100.655 Y120.015 E17.03929
G1 F1500 E10.53929
;MESH:void_switch-0.2_stem.stl
G0 F6000 X100.706 Y117.231
