;FLAVOR:Marlin
;TIME:3058
;Filament used: 0.45075m
;Layer height: 0.16
;MINX:146.494
;MINY:138.623
;MINZ:0.16
;MAXX:200.608
;MAXY:175.923
;MAXZ:10.88
;Generated with Cura_SteamEngine 4.12.1
M140 S72
M105
M190 S72
M104 S254
M105
M109 S254
M82 ;absolute extrusion mode
; Ender 3 Custom Start G-code
G92 E0 ; Reset Extruder
G28 ; Home all axes
G1 Z2.0 F3000 ; Move Z Axis up little to prevent scratching of Heat Bed
G1 X0.1 Y20 Z0.3 F5000.0 ; Move to start position
G1 X0.1 Y200.0 Z0.3 F1500.0 E15 ; Draw the first line
G1 X0.4 Y200.0 Z0.3 F5000.0 ; Move to side a little
G1 X0.4 Y20 Z0.3 F1500.0 E30 ; Draw the second line
G92 E0 ; Reset Extruder
G1 Z2.0 F3000 ; Move Z Axis up little to prevent scratching of Heat Bed
G1 X5 Y20 Z0.3 F5000.0 ; Move over to prevent blob squish
G92 E0
G92 E0
G1 F1500 E-6.5
;LAYER_COUNT:68
;LAYER:0
M107
G0 F6000 X150.49 Y142.55 Z0.16
;TYPE:SKIRT
G1 F1500 E0
G1 F600 X151.179 Y141.913 E0.02497
G1 X151.92 Y141.338 E0.04992
G1 X152.707 Y140.828 E0.07488
G1 X153.534 Y140.386 E0.09983
G1 X154.396 Y140.017 E0.12478
G1 X155.287 Y139.722 E0.14975
G1 X156.199 Y139.505 E0.17469
G1 X157.072 Y139.372 E0.19819
G1 X157.44 Y139.332 E0.20804
G1 X159.589 Y139.117 E0.26551
G1 X161.282 Y138.891 E0.31095
G1 X162.473 Y138.742 E0.34289
G1 X163.156 Y138.678 E0.36114
G1 X163.381 Y138.664 E0.36714
G1 X163.846 Y138.645 E0.37953
G1 X164.853 Y138.625 E0.40633
G1 X165.071 Y138.623 E0.41213
G1 X177.676 Y138.623 E0.74752
G1 X178.553 Y138.635 E0.77086
G1 X179.49 Y138.69 E0.79583
G1 X180.29 Y138.801 E0.81732
G1 X181.14 Y138.983 E0.84045
G1 X181.514 Y139.079 E0.85073
G1 X181.856 Y139.173 E0.86017
G1 X183.118 Y139.542 E0.89515
G1 X185.601 Y140.223 E0.96366
G1 X188.035 Y140.818 E1.03033
G1 X190.37 Y141.307 E1.09381
G1 X191.724 Y141.598 E1.13066
G1 X192.632 Y141.834 E1.15562
G1 X193.516 Y142.146 E1.18056
G1 X194.371 Y142.533 E1.20554
G1 X195.189 Y142.991 E1.23048
G1 X196.221 Y143.712 E1.26398
G1 X196.386 Y143.842 E1.26957
G1 X197.097 Y144.453 E1.29451
G1 X197.753 Y145.123 E1.31946
G1 X198.351 Y145.846 E1.34443
G1 X198.884 Y146.617 E1.36937
G1 X199.35 Y147.431 E1.39432
G1 X199.745 Y148.282 E1.41929
G1 X200.065 Y149.163 E1.44423
G1 X200.393 Y150.474 E1.48019
G1 X200.424 Y150.641 E1.48471
G1 X200.556 Y151.57 E1.50967
G1 X200.608 Y152.78 E1.5419
G1 X200.605 Y153.032 E1.5486
G1 X200.522 Y154.261 E1.58138
G1 X200.464 Y154.717 E1.59361
G1 X200.181 Y156.744 E1.64807
G1 X199.904 Y159.263 E1.7155
G1 X199.701 Y161.732 E1.78142
G1 X199.622 Y163.183 E1.82008
G1 X199.579 Y163.801 E1.83656
G1 X199.472 Y164.732 E1.8615
G1 X199.286 Y165.652 E1.88647
G1 X199.023 Y166.552 E1.91142
G1 X198.684 Y167.426 E1.93637
G1 X198.271 Y168.268 E1.96132
G1 X197.789 Y169.073 E1.98629
G1 X197.239 Y169.833 E2.01125
G1 X196.627 Y170.543 E2.03619
G1 X195.957 Y171.199 E2.06114
G1 X195.233 Y171.795 E2.08609
G1 X194.461 Y172.328 E2.11105
G1 X193.646 Y172.793 E2.13602
G1 X192.795 Y173.187 E2.16097
G1 X191.913 Y173.506 E2.18593
G1 X191.008 Y173.75 E2.21087
G1 X190.166 Y173.904 E2.23364
G1 X189.223 Y174.039 E2.25899
G1 X186.675 Y174.44 E2.32762
G1 X184.21 Y174.901 E2.39435
G1 X181.584 Y175.484 E2.46592
G1 X180.785 Y175.654 E2.48766
G1 X179.86 Y175.81 E2.51262
G1 X179.204 Y175.872 E2.53015
G1 X179.08 Y175.88 E2.53346
G1 X178.59 Y175.901 E2.54651
G1 X177.583 Y175.921 E2.57331
G1 X177.365 Y175.923 E2.57911
G1 X164.604 Y175.922 E2.91866
G1 X163.898 Y175.912 E2.93744
G1 X162.962 Y175.859 E2.96239
G1 X162.31 Y175.774 E2.97988
G1 X162.117 Y175.743 E2.98508
G1 X161.616 Y175.65 E2.99864
G1 X160.757 Y175.471 E3.02199
G1 X160.608 Y175.447 E3.02601
G1 X158.956 Y175.107 E3.07088
G1 X155.625 Y174.53 E3.16084
G1 X154.709 Y174.331 E3.18578
G1 X153.813 Y174.054 E3.21073
G1 X152.943 Y173.702 E3.2357
G1 X152.107 Y173.277 E3.26066
G1 X151.31 Y172.783 E3.28561
G1 X150.559 Y172.222 E3.31055
G1 X149.857 Y171.599 E3.33552
G1 X149.211 Y170.919 E3.36048
G1 X148.626 Y170.187 E3.38541
G1 X148.105 Y169.407 E3.41037
G1 X147.652 Y168.585 E3.43534
G1 X147.271 Y167.728 E3.4603
G1 X146.965 Y166.842 E3.48524
G1 X146.735 Y165.933 E3.51019
G1 X146.583 Y165.007 E3.53516
G1 X146.509 Y164.017 E3.56157
G1 X146.499 Y163.679 E3.57057
G1 X146.494 Y163.354 E3.57922
G1 X146.495 Y154.831 E3.806
G1 X146.506 Y154.123 E3.82484
G1 X146.561 Y153.187 E3.84979
G1 X146.721 Y152.125 E3.87837
G1 X147.275 Y149.372 E3.95309
G1 X147.48 Y148.277 E3.98273
G1 X147.692 Y147.363 E4.00769
G1 X147.981 Y146.471 E4.03264
G1 X148.345 Y145.607 E4.05759
G1 X148.782 Y144.776 E4.08257
G1 X149.287 Y143.986 E4.10752
G1 X149.858 Y143.242 E4.13248
G1 X150.49 Y142.55 E4.15741
G0 F6000 X150.858 Y142.748
G1 F600 X151.541 Y142.131 E4.1819
G1 X152.276 Y141.577 E4.20639
G1 X153.056 Y141.087 E4.2309
G1 X153.876 Y140.668 E4.2554
G1 X154.728 Y140.321 E4.27988
G1 X155.608 Y140.049 E4.30439
G1 X156.508 Y139.855 E4.32889
G1 X157.117 Y139.769 E4.34525
G1 X157.48 Y139.73 E4.35497
G1 X159.651 Y139.513 E4.41302
G1 X161.332 Y139.288 E4.45815
G1 X162.523 Y139.139 E4.49009
G1 X163.181 Y139.077 E4.50767
G1 X163.406 Y139.063 E4.51367
G1 X163.854 Y139.045 E4.5256
G1 X164.861 Y139.025 E4.5524
G1 X165.071 Y139.023 E4.55799
G1 X177.676 Y139.023 E4.89338
G1 X178.547 Y139.035 E4.91656
G1 X179.466 Y139.09 E4.94106
G1 X180.221 Y139.195 E4.96134
G1 X181.04 Y139.371 E4.98363
G1 X181.414 Y139.467 E4.9939
G1 X181.744 Y139.557 E5.003
G1 X183.027 Y139.932 E5.03857
G1 X185.515 Y140.614 E5.10721
G1 X187.948 Y141.209 E5.17386
G1 X190.286 Y141.698 E5.23742
G1 X191.64 Y141.989 E5.27427
G1 X192.531 Y142.221 E5.29876
G1 X193.398 Y142.53 E5.32325
G1 X194.236 Y142.913 E5.34777
G1 X195.037 Y143.367 E5.37227
G1 X195.973 Y144.026 E5.40273
G1 X196.138 Y144.156 E5.40832
G1 X196.836 Y144.756 E5.43281
G1 X197.479 Y145.415 E5.45731
G1 X198.062 Y146.128 E5.48181
G1 X198.582 Y146.888 E5.50632
G1 X199.033 Y147.69 E5.5308
G1 X199.413 Y148.529 E5.55531
G1 X199.719 Y149.397 E5.57979
G1 X200 Y150.547 E5.61129
G1 X200.031 Y150.714 E5.61581
G1 X200.16 Y151.626 E5.64032
G1 X200.208 Y152.775 E5.67092
G1 X200.205 Y153.027 E5.67763
G1 X200.125 Y154.211 E5.7092
G1 X200.068 Y154.661 E5.72127
G1 X199.782 Y156.711 E5.77635
G1 X199.509 Y159.185 E5.84257
G1 X199.299 Y161.754 E5.91116
G1 X199.211 Y163.339 E5.9534
G1 X199.18 Y163.772 E5.96495
G1 X199.074 Y164.687 E5.98946
G1 X198.89 Y165.589 E6.01395
G1 X198.628 Y166.471 E6.03843
G1 X198.29 Y167.328 E6.06295
G1 X197.879 Y168.152 E6.08745
G1 X197.399 Y168.937 E6.11193
G1 X196.852 Y169.677 E6.13642
G1 X196.242 Y170.368 E6.16094
G1 X195.576 Y171.002 E6.18541
G1 X194.856 Y171.577 E6.20993
G1 X194.09 Y172.087 E6.23441
G1 X193.282 Y172.528 E6.2589
G1 X192.439 Y172.898 E6.2834
G1 X191.567 Y173.193 E6.30789
G1 X190.672 Y173.412 E6.33241
G1 X190.109 Y173.508 E6.34761
G1 X189.18 Y173.641 E6.37258
G1 X186.57 Y174.052 E6.44288
G1 X184.139 Y174.507 E6.50869
G1 X181.407 Y175.113 E6.58315
G1 X180.702 Y175.263 E6.60233
G1 X179.794 Y175.415 E6.62682
G1 X179.178 Y175.473 E6.64329
G1 X179.054 Y175.481 E6.64659
G1 X178.582 Y175.501 E6.65916
G1 X177.575 Y175.521 E6.68596
G1 X177.365 Y175.523 E6.69155
G1 X164.61 Y175.522 E7.03094
G1 X163.904 Y175.512 E7.04973
G1 X162.985 Y175.459 E7.07422
G1 X162.373 Y175.379 E7.09064
G1 X162.18 Y175.348 E7.09584
G1 X161.697 Y175.259 E7.10891
G1 X160.867 Y175.086 E7.13147
G1 X160.689 Y175.055 E7.13628
G1 X159.039 Y174.716 E7.1811
G1 X155.694 Y174.136 E7.27143
G1 X154.794 Y173.94 E7.29594
G1 X153.915 Y173.666 E7.32044
G1 X153.063 Y173.317 E7.34494
G1 X152.245 Y172.895 E7.36943
G1 X151.466 Y172.404 E7.39393
G1 X150.733 Y171.847 E7.41842
G1 X150.051 Y171.229 E7.44291
G1 X149.425 Y170.554 E7.46741
G1 X148.86 Y169.827 E7.49191
G1 X148.36 Y169.054 E7.5164
G1 X147.929 Y168.24 E7.54091
G1 X147.571 Y167.392 E7.5654
G1 X147.287 Y166.516 E7.58991
G1 X147.081 Y165.619 E7.6144
G1 X146.953 Y164.707 E7.6389
G1 X146.909 Y164.005 E7.65762
G1 X146.899 Y163.667 E7.66661
G1 X146.894 Y163.354 E7.67494
G1 X146.895 Y154.837 E7.90156
G1 X146.906 Y154.129 E7.9204
G1 X146.961 Y153.21 E7.9449
G1 X147.113 Y152.204 E7.97197
G1 X147.687 Y149.35 E8.04943
G1 X147.874 Y148.351 E8.07648
G1 X148.082 Y147.454 E8.10098
G1 X148.368 Y146.579 E8.12547
G1 X148.729 Y145.732 E8.14997
G1 X149.162 Y144.919 E8.17448
G1 X149.663 Y144.147 E8.19897
G1 X150.23 Y143.422 E8.22346
G1 X150.858 Y142.748 E8.24797
G0 F6000 X151.225 Y142.949
G1 F600 X151.903 Y142.353 E8.27199
G1 X152.631 Y141.819 E8.29601
G1 X153.404 Y141.351 E8.32006
G1 X154.215 Y140.954 E8.34408
G1 X155.058 Y140.63 E8.36811
G1 X155.926 Y140.382 E8.39213
G1 X157.161 Y140.167 E8.42549
G1 X157.519 Y140.128 E8.43507
G1 X159.686 Y139.911 E8.49302
G1 X161.382 Y139.685 E8.53854
G1 X162.573 Y139.536 E8.57048
G1 X163.206 Y139.477 E8.5874
G1 X163.431 Y139.463 E8.59339
G1 X163.861 Y139.445 E8.60485
G1 X164.868 Y139.425 E8.63165
G1 X165.071 Y139.423 E8.63705
G1 X177.676 Y139.423 E8.97244
G1 X178.541 Y139.435 E8.99546
G1 X179.442 Y139.489 E9.01948
G1 X180.153 Y139.589 E9.03858
G1 X180.941 Y139.758 E9.06003
G1 X181.315 Y139.854 E9.0703
G1 X181.632 Y139.941 E9.07905
G1 X182.904 Y140.313 E9.11431
G1 X185.419 Y141.003 E9.1837
G1 X187.833 Y141.593 E9.24983
G1 X190.202 Y142.089 E9.31423
G1 X191.556 Y142.38 E9.35108
G1 X192.43 Y142.608 E9.37511
G1 X193.28 Y142.913 E9.39914
G1 X194.1 Y143.292 E9.42318
G1 X194.883 Y143.743 E9.44722
G1 X195.725 Y144.34 E9.47468
G1 X195.89 Y144.47 E9.48027
G1 X196.574 Y145.06 E9.50431
G1 X197.204 Y145.708 E9.52835
G1 X197.773 Y146.409 E9.55238
G1 X198.278 Y147.157 E9.57639
G1 X198.715 Y147.948 E9.60044
G1 X199.08 Y148.774 E9.62447
G1 X199.371 Y149.629 E9.6485
G1 X199.607 Y150.62 E9.6756
G1 X199.638 Y150.787 E9.68012
G1 X199.763 Y151.682 E9.70417
G1 X199.808 Y152.77 E9.73314
G1 X199.805 Y153.022 E9.73985
G1 X199.728 Y154.162 E9.77025
G1 X199.671 Y154.606 E9.78216
G1 X199.391 Y156.615 E9.83613
G1 X199.108 Y159.179 E9.90477
G1 X198.902 Y161.699 E9.97205
G1 X198.823 Y163.139 E10.01042
G1 X198.781 Y163.743 E10.02653
G1 X198.677 Y164.64 E10.05056
G1 X198.493 Y165.525 E10.07461
G1 X198.233 Y166.389 E10.09862
G1 X197.896 Y167.228 E10.12268
G1 X197.487 Y168.033 E10.1467
G1 X197.009 Y168.799 E10.17073
G1 X196.464 Y169.519 E10.19475
G1 X195.858 Y170.189 E10.21879
G1 X195.195 Y170.802 E10.24282
G1 X194.481 Y171.354 E10.26683
G1 X193.72 Y171.841 E10.29087
G1 X192.919 Y172.259 E10.31491
G1 X192.085 Y172.604 E10.33893
G1 X191.223 Y172.874 E10.36296
G1 X190.052 Y173.112 E10.39476
G1 X189.127 Y173.244 E10.41962
G1 X186.512 Y173.656 E10.49006
G1 X184.07 Y174.113 E10.55616
G1 X181.324 Y174.722 E10.631
G1 X180.619 Y174.872 E10.65018
G1 X179.728 Y175.02 E10.67422
G1 X179.153 Y175.074 E10.68958
G1 X179.029 Y175.082 E10.69289
G1 X178.575 Y175.101 E10.70498
G1 X177.568 Y175.121 E10.73178
G1 X177.365 Y175.123 E10.73718
G1 X164.616 Y175.122 E11.07641
G1 X163.91 Y175.112 E11.09519
G1 X163.008 Y175.059 E11.11924
G1 X162.436 Y174.984 E11.13459
G1 X162.243 Y174.953 E11.13979
G1 X161.779 Y174.867 E11.15234
G1 X160.868 Y174.677 E11.17711
G1 X160.769 Y174.663 E11.17977
G1 X159.122 Y174.324 E11.22451
G1 X155.762 Y173.742 E11.31524
G1 X154.88 Y173.549 E11.33927
G1 X154.018 Y173.278 E11.36331
G1 X153.184 Y172.932 E11.38733
G1 X152.384 Y172.514 E11.41135
G1 X151.623 Y172.026 E11.43541
G1 X150.909 Y171.473 E11.45944
G1 X150.247 Y170.859 E11.48346
G1 X149.641 Y170.189 E11.5075
G1 X149.097 Y169.469 E11.53151
G1 X148.619 Y168.702 E11.55556
G1 X148.211 Y167.897 E11.57957
G1 X147.875 Y167.058 E11.60362
G1 X147.615 Y166.193 E11.62765
G1 X147.433 Y165.309 E11.65167
G1 X147.308 Y163.994 E11.68681
G1 X147.298 Y163.656 E11.69581
G1 X147.294 Y163.354 E11.70385
G1 X147.295 Y154.844 E11.93028
G1 X147.306 Y154.136 E11.94912
G1 X147.36 Y153.234 E11.97317
G1 X147.505 Y152.283 E11.99876
G1 X148.079 Y149.429 E12.07622
G1 X148.267 Y148.424 E12.10343
G1 X148.472 Y147.545 E12.12745
G1 X148.755 Y146.687 E12.15148
G1 X149.112 Y145.858 E12.1755
G1 X149.541 Y145.063 E12.19954
G1 X150.039 Y144.31 E12.22356
G1 X150.602 Y143.603 E12.24761
G1 X151.225 Y142.949 E12.27164
G1 F1500 E5.77164
;MESH:void_switch-0.16.stl
G0 F6000 X157.09 Y153.668
G0 X158.024 Y154.212
G0 X158.894 Y155.745
;TYPE:WALL-INNER
G1 F1500 E12.27164
G1 F600 X158.894 Y155.195 E12.28628
G1 X160.821 Y155.195 E12.33755
G1 X160.821 Y155.745 E12.35218
G1 X158.894 Y155.745 E12.40346
G0 F6000 X158.494 Y156.145
G1 F600 X158.494 Y154.795 E12.43938
G1 X161.221 Y154.795 E12.51194
G1 X161.221 Y156.145 E12.54786
G1 X158.494 Y156.145 E12.62042
G0 F6000 X158.094 Y163.101
G1 F600 X158.094 Y156.545 E12.79486
G1 X158.094 Y154.458 E12.85039
G1 X158.131 Y154.395 E12.85234
G1 X160.785 Y154.395 E12.92296
G1 X160.785 Y150.895 E13.01608
G1 X160.833 Y150.895 E13.01736
G1 X160.834 Y154.395 E13.02868
G1 X161.586 Y154.395 E13.04869
G1 X161.621 Y154.456 E13.05056
G1 X161.621 Y156.545 E13.10615
G1 X161.621 Y163.101 E13.28059
G1 X161.442 Y163.1 E13.28535
G1 X161.441 Y156.545 E13.36381
G1 X158.275 Y156.545 E13.44805
G1 X158.275 Y163.101 E13.52718
G1 X158.094 Y163.101 E13.532
G0 F6000 X157.694 Y163.502
;TYPE:WALL-OUTER
G1 F600 X157.694 Y154.35 E13.77552
G1 X157.9 Y153.995 E13.78644
G1 X158.482 Y153.995 E13.80192
G1 X158.483 Y150.495 E13.89505
G1 X159.176 Y150.495 E13.91349
G1 X159.177 Y153.995 E14.00662
G1 X160.385 Y153.995 E14.03876
G1 X160.385 Y150.495 E14.13189
G1 X161.233 Y150.495 E14.15446
G1 X161.234 Y153.995 E14.24758
G1 X161.816 Y153.995 E14.26307
G1 X162.021 Y154.348 E14.27393
G1 X162.021 Y163.501 E14.51748
G1 X161.042 Y163.5 E14.54352
G1 X161.041 Y156.945 E14.71794
G1 X158.675 Y156.945 E14.7809
G1 X158.675 Y163.5 E14.95531
G1 X157.694 Y163.502 E14.98141
G0 F6000 X157.964 Y163.232
G0 X158.447 Y156.717
G0 X159.076 Y155.377
G0 X159.315 Y155.355
;TYPE:SKIN
G1 F600 X159.544 Y155.584 E14.99003
G0 F6000 X159.881 Y155.355
G1 F600 X160.11 Y155.584 E14.99865
G0 F6000 X160.446 Y155.355
G1 F600 X160.66 Y155.569 E15.0067
G0 F6000 X160.681 Y155.605
G0 X159.001 Y154.295
G0 X158.828 Y154.02
;TYPE:SKIN
G1 F600 X158.708 Y154.182 E15.01128
G1 X158.828 Y153.454 E15.02802
G1 X158.828 Y150.908 E15.0858
G1 X158.936 Y150.734 E15.09045
G1 F1500 E8.59045
G0 F6000 X158.876 Y150.798
G0 X158.949 Y154.223
G0 X159.873 Y154.226
G0 X161.801 Y156.683
G0 X163.988 Y156.685
G0 X164.169 Y156.683
;TYPE:WALL-INNER
G1 F1500 E15.09045
G1 F600 X164.169 Y155.255 E15.12845
G1 X164.169 Y152.537 E15.20077
G1 X164.169 Y150.223 E15.26234
G1 X166.482 Y150.223 E15.32388
G1 X169.2 Y150.223 E15.3962
G1 X170.629 Y150.223 E15.43423
G1 X169.718 Y151.135 E15.46852
G1 X169.2 Y150.617 E15.48802
G1 X166.482 Y150.617 E15.55943
G1 X164.562 Y152.537 E15.63168
G1 X164.562 Y155.255 E15.70291
G1 X165.08 Y155.773 E15.72241
G1 X164.169 Y156.683 E15.75667
G0 F6000 X164.169 Y156.765
G1 F600 X164.509 Y157.105 E15.76946
G1 X170.669 Y163.265 E16.00126
G1 X177.211 Y156.724 E16.24741
G1 X170.709 Y150.223 E16.49206
G1 X178.268 Y150.223 E16.69319
G1 X178.267 Y164.323 E17.06837
G1 X164.168 Y164.323 E17.44351
G1 X164.169 Y157.246 E17.63182
G1 X164.169 Y156.765 E17.63871
G0 F6000 X164.569 Y157.731
G1 F600 X170.669 Y163.831 E17.86825
G1 X177.777 Y156.724 E18.1357
G1 X171.675 Y150.623 E18.3653
G1 X177.868 Y150.623 E18.53008
G1 X177.868 Y156.724 E18.69242
G1 X177.867 Y163.923 E18.88397
G1 X170.669 Y163.923 E19.0755
G1 X164.568 Y163.923 E19.23783
G1 X164.569 Y157.731 E19.40259
G1 F1500 E12.90259
G0 F6000 X170.457 Y162.91
G1 F1500 E19.40259
G0 F6000 X170.669 Y162.699
;TYPE:WALL-OUTER
G1 F600 X173.374 Y159.994 E19.50438
G1 X173.091 Y159.711 E19.51503
G1 X173.657 Y159.145 E19.53633
G1 X173.94 Y159.429 E19.54699
G1 X176.645 Y156.724 E19.64878
G1 X170.669 Y150.749 E19.87364
G1 X169.718 Y151.701 E19.90944
G1 X169.034 Y151.017 E19.93518
G1 X166.648 Y151.017 E19.99867
G1 X164.962 Y152.703 E20.06211
G1 X164.962 Y155.089 E20.1256
G1 X165.646 Y155.773 E20.15134
G1 X164.694 Y156.724 E20.18714
G1 X170.669 Y162.699 E20.41198
G1 F1500 E13.91198
G0 F6000 X170.457 Y162.91
G0 X169.439 Y163.286
G0 X164.076 Y164.415
G1 F1500 E20.41198
G0 F6000 X163.875 Y164.652
G1 F600 X163.774 Y164.481 E20.41726
G1 X163.768 Y164.411 E20.41913
G1 X163.769 Y150.102 E20.79987
G1 X163.832 Y149.939 E20.80452
G1 X163.989 Y149.835 E20.80953
G1 X164.076 Y149.823 E20.81186
G1 X178.379 Y149.823 E21.19244
G1 X178.579 Y149.908 E21.19822
G1 X178.666 Y150.09 E21.20359
