;FLAVOR:Marlin
;TIME:267
;Filament used: 0.0563331m
;Layer height: 0.16
;MINX:34.946
;MINY:160.496
;MINZ:0.16
;MAXX:67.135
;MAXY:192.678
;MAXZ:2.88
;Generated with Cura_SteamEngine main
M82 ;absolute extrusion mode
; Ender 3 Custom Start G-code
G92 E0 ; Reset Extruder
G28 ; Home all axes
M104 S120 ; Start heating up the nozzle most of the way
M190 S72.0 ; Start heating the bed, wait until target temperature reached
M109 S250.0 ; Finish heating the nozzle
G1 Z2.0 F3000 ; Move Z Axis up little to prevent scratching of Heat Bed
G1 X0.1 Y20 Z0.3 F5000.0 ; Move to start position
G1 X0.1 Y200.0 Z0.3 F1500.0 E15 ; Draw the first line
G1 X0.4 Y200.0 Z0.3 F5000.0 ; Move to side a little
G1 X0.4 Y20 Z0.3 F1500.0 E30 ; Draw the second line
G92 E0 ; Reset Extruder
G1 Z2.0 F3000 ; Move Z Axis up little to prevent scratching of Heat Bed
G1 X5 Y20 Z0.3 F5000.0 ; Move over to prevent blob squish
G92 E0
G92 E0
G1 F1500 E-6.5
;LAYER_COUNT:18
;LAYER:0
M107
G0 F6000 X42.936 Y160.927 Z0.16
G0 X34.947 Y172.022
;TYPE:SKIRT
G1 F1500 E0
G1 F600 X34.956 Y171.356 E0.01772
G1 X35.009 Y170.42 E0.04267
G1 X35.141 Y169.491 E0.06763
G1 X35.352 Y168.578 E0.09257
G1 X35.64 Y167.685 E0.11753
G1 X36.002 Y166.82 E0.14248
G1 X36.438 Y165.989 E0.16745
G1 X36.942 Y165.199 E0.19239
G1 X37.512 Y164.454 E0.21735
G1 X38.143 Y163.76 E0.24231
G1 X38.832 Y163.123 E0.26727
G1 X39.571 Y162.547 E0.2922
G1 X40.358 Y162.036 E0.31717
G1 X41.185 Y161.593 E0.34214
G1 X42.046 Y161.223 E0.36707
G1 X42.936 Y160.927 E0.39203
G1 X43.848 Y160.709 E0.41698
G1 X44.776 Y160.568 E0.44195
G1 X45.647 Y160.509 E0.46518
G1 X46.276 Y160.496 E0.48192
G1 X52.766 Y160.497 E0.65461
G1 X53.466 Y160.507 E0.67324
G1 X54.402 Y160.56 E0.69818
G1 X55.331 Y160.693 E0.72315
G1 X56.245 Y160.905 E0.74812
G1 X57.137 Y161.194 E0.77307
G1 X58.001 Y161.557 E0.798
G1 X58.832 Y161.993 E0.82297
G1 X59.622 Y162.498 E0.84792
G1 X60.367 Y163.069 E0.8729
G1 X61.06 Y163.7 E0.89783
G1 X61.696 Y164.389 E0.92278
G1 X62.272 Y165.129 E0.94774
G1 X62.783 Y165.916 E0.9727
G1 X63.401 Y167.129 E1.00893
G1 X63.69 Y167.801 E1.02839
G1 X65.829 Y173.008 E1.17817
G1 X66.233 Y174.028 E1.20737
G1 X66.54 Y174.914 E1.23232
G1 X66.756 Y175.754 E1.25539
G1 X66.87 Y176.283 E1.26979
G1 X67.028 Y177.207 E1.29473
G1 X67.1 Y177.991 E1.31568
G1 X67.123 Y178.406 E1.32674
G1 X67.135 Y179.344 E1.3517
G1 X67.052 Y180.402 E1.37994
G1 X66.992 Y180.874 E1.3926
G1 X66.708 Y182.348 E1.43254
G1 X66.317 Y183.579 E1.46691
G1 X66.14 Y184.048 E1.48025
G1 X65.772 Y184.911 E1.50521
G1 X65.3 Y185.792 E1.53181
G1 X65.091 Y186.143 E1.54268
G1 X64.578 Y186.927 E1.5676
G1 X63.916 Y187.761 E1.59594
G1 X63.55 Y188.179 E1.61072
G1 X62.903 Y188.858 E1.63568
G1 X62.048 Y189.599 E1.66578
G1 X61.622 Y189.932 E1.68017
G1 X60.86 Y190.478 E1.70511
G1 X59.722 Y191.127 E1.73997
G1 X59.37 Y191.301 E1.75042
G1 X58.454 Y191.703 E1.77703
G1 X58.091 Y191.843 E1.78739
G1 X57.203 Y192.143 E1.81233
G1 X56.447 Y192.334 E1.83307
G1 X55.973 Y192.436 E1.84597
G1 X55.049 Y192.594 E1.87092
G1 X54.114 Y192.673 E1.89588
G1 X53.374 Y192.678 E1.91558
G1 X52.796 Y192.663 E1.93096
G1 X51.86 Y192.599 E1.95592
G1 X51.178 Y192.501 E1.97426
G1 X50.899 Y192.452 E1.98179
G1 X49.784 Y192.196 E2.01223
G1 X49.458 Y192.103 E2.02125
G1 X48.504 Y191.783 E2.04803
G1 X47.613 Y191.438 E2.07345
G1 X42.287 Y189.253 E2.22663
G1 X41.636 Y188.975 E2.24546
G1 X40.79 Y188.57 E2.27042
G1 X39.982 Y188.095 E2.29536
G1 X39.216 Y187.553 E2.32033
G1 X38.5 Y186.947 E2.34529
G1 X37.839 Y186.282 E2.37024
G1 X37.236 Y185.564 E2.39518
G1 X36.696 Y184.797 E2.42014
G1 X36.224 Y183.986 E2.44511
G1 X35.823 Y183.139 E2.47005
G1 X35.495 Y182.26 E2.49501
G1 X35.243 Y181.357 E2.51995
G1 X35.069 Y180.435 E2.54492
G1 X34.958 Y179.046 E2.582
G1 X34.946 Y178.27 E2.60265
G1 X34.947 Y172.022 E2.76889
G0 F6000 X35.347 Y172.028
G1 F600 X35.356 Y171.362 E2.78662
G1 X35.408 Y170.443 E2.81111
G1 X35.54 Y169.531 E2.83563
G1 X35.751 Y168.635 E2.86012
G1 X36.038 Y167.761 E2.8846
G1 X36.401 Y166.914 E2.90912
G1 X36.835 Y166.103 E2.93359
G1 X37.338 Y165.332 E2.95809
G1 X37.906 Y164.607 E2.98259
G1 X38.535 Y163.935 E3.00709
G1 X39.22 Y163.319 E3.0316
G1 X39.956 Y162.766 E3.05609
G1 X40.737 Y162.278 E3.0806
G1 X41.557 Y161.86 E3.10509
G1 X42.411 Y161.515 E3.12959
G1 X43.291 Y161.245 E3.15409
G1 X44.191 Y161.053 E3.17857
G1 X45.105 Y160.939 E3.20308
G1 X45.658 Y160.909 E3.21782
G1 X46.276 Y160.896 E3.23426
G1 X52.609 Y160.896 E3.40277
G1 X53.46 Y160.907 E3.42542
G1 X54.38 Y160.96 E3.44994
G1 X55.291 Y161.093 E3.47444
G1 X56.187 Y161.304 E3.49893
G1 X57.061 Y161.592 E3.52342
G1 X57.907 Y161.955 E3.54791
G1 X58.719 Y162.39 E3.57242
G1 X59.489 Y162.894 E3.59691
G1 X60.213 Y163.463 E3.62141
G1 X60.885 Y164.092 E3.6459
G1 X61.5 Y164.778 E3.67042
G1 X62.053 Y165.514 E3.69491
G1 X62.54 Y166.295 E3.7194
G1 X63.034 Y167.288 E3.74891
G1 X63.32 Y167.953 E3.76817
G1 X65.459 Y173.16 E3.91796
G1 X65.861 Y174.175 E3.947
G1 X66.162 Y175.045 E3.9715
G1 X66.365 Y175.838 E3.99328
G1 X66.479 Y176.367 E4.00768
G1 X66.634 Y177.275 E4.03219
G1 X66.701 Y178.013 E4.05191
G1 X66.724 Y178.428 E4.06297
G1 X66.735 Y179.349 E4.08747
G1 X66.655 Y180.352 E4.11425
G1 X66.595 Y180.824 E4.12691
G1 X66.321 Y182.247 E4.16547
G1 X65.943 Y183.438 E4.19871
G1 X65.766 Y183.907 E4.21205
G1 X65.404 Y184.753 E4.23654
G1 X64.957 Y185.587 E4.26171
G1 X64.748 Y185.938 E4.27258
G1 X64.243 Y186.708 E4.29709
G1 X63.615 Y187.498 E4.32394
G1 X63.249 Y187.916 E4.33872
G1 X62.613 Y188.582 E4.36322
G1 X61.802 Y189.284 E4.39177
G1 X61.376 Y189.617 E4.40615
G1 X60.627 Y190.152 E4.43064
G1 X59.545 Y190.768 E4.46377
G1 X59.193 Y190.942 E4.47422
G1 X58.31 Y191.33 E4.49988
G1 X57.947 Y191.47 E4.51024
G1 X57.075 Y191.764 E4.53472
G1 X56.363 Y191.943 E4.55426
G1 X55.889 Y192.045 E4.56716
G1 X54.981 Y192.199 E4.59166
G1 X54.064 Y192.274 E4.61614
G1 X53.384 Y192.278 E4.63424
G1 X52.806 Y192.263 E4.64962
G1 X51.888 Y192.2 E4.67411
G1 X51.247 Y192.107 E4.69134
G1 X50.968 Y192.058 E4.69888
G1 X49.894 Y191.811 E4.7282
G1 X49.568 Y191.718 E4.73722
G1 X48.649 Y191.41 E4.76301
G1 X47.56 Y190.986 E4.7941
G1 X42.582 Y188.943 E4.93728
G1 X41.793 Y188.607 E4.9601
G1 X40.963 Y188.209 E4.98459
G1 X40.17 Y187.741 E5.00909
G1 X39.422 Y187.205 E5.03358
G1 X38.722 Y186.607 E5.05807
G1 X38.077 Y185.95 E5.08257
G1 X37.491 Y185.239 E5.10709
G1 X36.97 Y184.481 E5.13156
G1 X36.516 Y183.68 E5.15606
G1 X36.133 Y182.843 E5.18055
G1 X35.824 Y181.975 E5.20507
G1 X35.592 Y181.084 E5.22957
G1 X35.438 Y180.177 E5.25405
G1 X35.358 Y179.039 E5.2844
G1 X35.346 Y178.27 E5.30486
G1 X35.347 Y172.028 E5.47095
G0 F6000 X35.747 Y172.033
G1 F600 X35.756 Y171.367 E5.48867
G1 X35.808 Y170.466 E5.51269
G1 X35.94 Y169.572 E5.53673
G1 X36.15 Y168.694 E5.56075
G1 X36.437 Y167.838 E5.58478
G1 X36.799 Y167.01 E5.60882
G1 X37.232 Y166.218 E5.63284
G1 X37.734 Y165.467 E5.65688
G1 X38.3 Y164.763 E5.68091
G1 X38.927 Y164.113 E5.70494
G1 X39.608 Y163.52 E5.72897
G1 X40.339 Y162.99 E5.75299
G1 X41.115 Y162.527 E5.77704
G1 X41.928 Y162.134 E5.80106
G1 X42.772 Y161.814 E5.82508
G1 X43.642 Y161.571 E5.84912
G1 X44.53 Y161.405 E5.87315
G1 X45.669 Y161.309 E5.90357
G1 X46.276 Y161.296 E5.91972
G1 X52.609 Y161.296 E6.08823
G1 X53.455 Y161.307 E6.11074
G1 X54.356 Y161.36 E6.13476
G1 X55.25 Y161.492 E6.15881
G1 X56.128 Y161.703 E6.18283
G1 X56.984 Y161.991 E6.20686
G1 X57.811 Y162.353 E6.23088
G1 X58.603 Y162.787 E6.25491
G1 X59.353 Y163.29 E6.27894
G1 X60.056 Y163.857 E6.30297
G1 X60.707 Y164.483 E6.32701
G1 X61.299 Y165.165 E6.35104
G1 X61.828 Y165.897 E6.37507
G1 X62.291 Y166.672 E6.39909
G1 X62.667 Y167.448 E6.42203
G1 X62.95 Y168.105 E6.44107
G1 X65.089 Y173.312 E6.59085
G1 X65.489 Y174.322 E6.61975
G1 X65.783 Y175.175 E6.64376
G1 X65.974 Y175.922 E6.66428
G1 X66.088 Y176.451 E6.67868
G1 X66.239 Y177.342 E6.70272
G1 X66.301 Y178.036 E6.72126
G1 X66.324 Y178.451 E6.73232
G1 X66.334 Y179.354 E6.75635
G1 X66.259 Y180.301 E6.78163
G1 X66.199 Y180.773 E6.79429
G1 X65.934 Y182.147 E6.83152
G1 X65.569 Y183.297 E6.86362
G1 X65.392 Y183.766 E6.87696
G1 X65.036 Y184.596 E6.90099
G1 X64.613 Y185.382 E6.92474
G1 X64.404 Y185.733 E6.93561
G1 X63.908 Y186.488 E6.95965
G1 X63.314 Y187.234 E6.98502
G1 X62.948 Y187.652 E6.9998
G1 X62.324 Y188.305 E7.02384
G1 X61.556 Y188.969 E7.05085
G1 X61.13 Y189.302 E7.06524
G1 X60.394 Y189.826 E7.08928
G1 X59.368 Y190.41 E7.12069
G1 X59.016 Y190.584 E7.13114
G1 X58.166 Y190.957 E7.15584
G1 X57.803 Y191.097 E7.16619
G1 X56.947 Y191.384 E7.19021
G1 X56.279 Y191.552 E7.20854
G1 X55.805 Y191.654 E7.22144
G1 X54.914 Y191.804 E7.24548
G1 X54.014 Y191.876 E7.26951
G1 X53.394 Y191.879 E7.286
G1 X52.816 Y191.864 E7.30139
G1 X51.916 Y191.8 E7.3254
G1 X51.317 Y191.713 E7.3415
G1 X51.038 Y191.664 E7.34904
G1 X50.004 Y191.427 E7.37726
G1 X49.678 Y191.334 E7.38628
G1 X48.793 Y191.037 E7.41112
G1 X47.712 Y190.616 E7.44199
G1 X42.734 Y188.573 E7.58517
G1 X41.95 Y188.239 E7.60784
G1 X41.136 Y187.848 E7.63187
G1 X40.36 Y187.387 E7.65589
G1 X39.628 Y186.858 E7.67992
G1 X38.945 Y186.267 E7.70395
G1 X38.317 Y185.618 E7.72798
G1 X37.749 Y184.916 E7.75201
G1 X37.245 Y184.166 E7.77605
G1 X36.81 Y183.375 E7.80007
G1 X36.447 Y182.548 E7.8241
G1 X36.158 Y181.693 E7.84812
G1 X35.945 Y180.815 E7.87216
G1 X35.812 Y179.922 E7.89618
G1 X35.757 Y179.032 E7.91991
G1 X35.747 Y178.443 E7.93558
G1 X35.747 Y172.033 E8.10614
G1 F1500 E1.60614
;MESH:levitator-v1.stl
G0 F6000 X45.281 Y172.033
G0 X46.366 Y172.033
G0 X47.33 Y173.331
;TYPE:WALL-INNER
G1 F1500 E8.10614
G1 F650.4 X47.529 Y173.25 E8.11141
G1 X47.697 Y173.247 E8.11554
G1 X47.7 Y173.079 E8.11966
G1 X47.781 Y172.881 E8.12491
G1 X47.331 Y172.881 E8.13596
G1 X47.33 Y173.331 E8.147
G0 F6000 X48.081 Y173.631
G1 F600 X48.083 Y173.107 E8.16095
G1 X48.317 Y172.534 E8.17741
G1 X48.386 Y172.495 E8.17952
G1 X46.947 Y172.497 E8.21781
G1 X46.945 Y173.954 E8.25658
G1 X46.985 Y173.867 E8.25913
G1 X47.557 Y173.633 E8.27557
G1 X48.081 Y173.631 E8.28952
G0 F6000 X48.253 Y172.353
G0 X51.009 Y172.353
G0 X52.767 Y173.823
G1 F615.4 X52.635 Y173.519 E8.29811
G1 F594.1 X52.503 Y173.214 E8.30704
G1 F575.5 X52.371 Y172.909 E8.31626
G1 F566 X51.521 Y172.909 E8.34024
G1 X51.59 Y173.077 E8.34536
G1 X51.593 Y173.219 E8.34937
G1 X51.735 Y173.222 E8.35337
G1 X52.151 Y173.317 E8.36541
G1 F575.5 X52.356 Y173.485 E8.37276
G1 F594.1 X52.562 Y173.654 E8.37992
G1 F615.4 X52.767 Y173.823 E8.38681
G0 F6000 X53.492 Y175.583
G1 F634.9 X53.324 Y175.167 E8.39809
G1 F641.7 X53.155 Y174.751 E8.40926
G1 F648.6 X52.986 Y174.334 E8.42034
G1 F645.2 X53.02 Y174.631 E8.42774
G1 F634.9 X53.021 Y175.597 E8.45203
G1 F631.6 X53.404 Y175.578 E8.46172
G1 X53.492 Y175.583 E8.46395
G0 F6000 X54.106 Y176.05
G1 F600 X52.646 Y172.496 E8.56618
G1 X50.858 Y172.495 E8.61376
G1 X50.945 Y172.535 E8.6163
G1 X51.179 Y173.107 E8.63275
G1 X51.181 Y173.631 E8.64669
G1 X51.705 Y173.633 E8.66063
G1 X51.999 Y173.7 E8.66866
G1 X52.448 Y174.05 E8.6838
G1 X52.632 Y174.484 E8.69635
G1 X52.626 Y175.835 E8.7323
G1 X52.535 Y176.095 E8.73963
G1 X52.939 Y175.997 E8.75069
G1 X53.513 Y175.963 E8.76599
G1 X54.106 Y176.05 E8.78193
G0 F6000 X52.985 Y174.333
G1 F670.4 X52.904 Y174.108 E8.78763
G1 F655.7 X52.767 Y173.823 E8.79533
G0 F6000 X51.009 Y172.353
G0 X48.253 Y172.353
G0 X46.803 Y173.803
G0 X46.803 Y176.559
G0 X48.253 Y178.009
G0 X50.026 Y179.037
G1 F634.9 X50.046 Y178.574 E8.80698
G1 F636.6 X49.081 Y178.569 E8.83118
G1 F641.7 X48.784 Y178.535 E8.83862
G1 F643.4 X49.405 Y178.786 E8.85524
G1 F638.3 X50.026 Y179.037 E8.87199
G0 F6000 X48.274 Y178.318
G1 F609.1 X48.106 Y178.113 E8.87894
G1 F591.1 X47.937 Y177.907 E8.88613
G1 F574.2 X47.768 Y177.701 E8.89354
G1 F597 X47.711 Y177.421 E8.90118
G1 F641.7 X47.697 Y177.115 E8.9088
G1 F650.4 X47.529 Y177.112 E8.91293
G1 X47.331 Y177.031 E8.91818
G1 F641.7 X47.335 Y177.453 E8.92868
G1 F613.8 X47.368 Y177.924 E8.94096
G1 F603 X47.821 Y178.121 E8.95404
G1 F613.8 X48.274 Y178.318 E8.96689
G0 F6000 X50.507 Y179.654
G1 F600 X50.437 Y179.334 E8.9756
G1 X50.414 Y179.07 E8.98265
G1 X50.441 Y178.504 E8.99773
G1 X50.529 Y178.118 E9.00826
G1 X50.248 Y178.181 E9.01593
G1 X49.081 Y178.181 E9.04698
G1 X48.701 Y178.107 E9.05728
G1 X48.502 Y177.997 E9.06333
G1 X48.15 Y177.548 E9.07851
G1 X48.083 Y177.312 E9.08504
G1 X48.081 Y176.731 E9.1005
G1 X47.557 Y176.729 E9.11444
G1 X46.984 Y176.495 E9.13091
G1 X46.945 Y176.426 E9.13302
G1 X46.946 Y178.195 E9.18009
G1 X50.507 Y179.654 E9.28248
G0 F6000 X48.784 Y178.535
G1 F664.8 X48.559 Y178.454 E9.28823
G1 F650.4 X48.274 Y178.318 E9.29598
G0 F6000 X50.609 Y177.609
G0 X51.929 Y176.557
G0 X52.036 Y176.207
G1 F550.5 X51.822 Y176.338 E9.30325
G1 F570.1 X51.562 Y176.337 E9.31054
G1 F578.3 X51.302 Y176.335 E9.31771
G1 F586.8 X51.042 Y176.334 E9.32479
G1 F595.5 X50.782 Y176.332 E9.33176
G1 X50.778 Y177.27 E9.3569
G1 F566 X50.715 Y177.503 E9.36371
G1 F546.7 X50.629 Y177.606 E9.36763
G1 F574.2 X50.378 Y177.749 E9.37566
G1 F600 X50.221 Y177.781 E9.37993
G1 X48.994 Y177.781 E9.41257
G1 X48.733 Y177.671 E9.42011
G1 X48.522 Y177.402 E9.42921
G1 X48.482 Y177.225 E9.43403
G1 X48.481 Y176.331 E9.45782
G1 X47.587 Y176.33 E9.48161
G1 X47.243 Y176.19 E9.49149
G1 F566 X47.015 Y175.839 E9.5033
G1 F536.9 X47.013 Y175.235 E9.52126
G1 F541.8 X47.01 Y174.631 E9.53906
G1 F556.8 X47.126 Y174.402 E9.54642
G1 F585.4 X47.243 Y174.172 E9.55345
G1 F600 X47.587 Y174.032 E9.56334
G1 X48.481 Y174.031 E9.58712
G1 X48.482 Y173.137 E9.61091
G1 X48.622 Y172.793 E9.62079
G1 F566 X48.973 Y172.565 E9.6326
G1 F536.9 X49.577 Y172.563 E9.65056
G1 F541.8 X50.181 Y172.56 E9.66836
G1 F556.8 X50.41 Y172.676 E9.67572
G1 F585.4 X50.64 Y172.793 E9.68276
G1 F600 X50.78 Y173.137 E9.69264
G1 X50.781 Y174.031 E9.71643
G1 X51.675 Y174.032 E9.74021
G1 X51.852 Y174.072 E9.74504
G1 X52.121 Y174.282 E9.75412
G1 X52.187 Y174.402 E9.75777
G1 X52.232 Y174.631 E9.76398
G1 X52.228 Y175.793 E9.79489
G1 F588.2 X52.143 Y176.06 E9.8025
G1 F555.6 X52.036 Y176.207 E9.80772
G0 F6000 X51.799 Y175.839
;TYPE:WALL-OUTER
G1 F601.5 X51.689 Y175.929 E9.8115
G1 F600 X50.382 Y175.932 E9.84627
G1 F601.5 X50.378 Y177.211 E9.88022
G1 X50.26 Y177.381 E9.88571
G1 F600 X49.038 Y177.377 E9.91823
G1 X48.883 Y177.241 E9.92371
G1 X48.881 Y175.931 E9.95857
G1 X47.616 Y175.931 E9.99223
G1 X47.501 Y175.884 E9.99554
G1 X47.433 Y175.766 E9.99916
G1 X47.431 Y174.631 E10.02936
G1 X47.501 Y174.478 E10.03384
G1 X47.616 Y174.431 E10.03714
G1 X48.881 Y174.431 E10.0708
G1 X48.881 Y173.166 E10.10446
G1 X48.928 Y173.051 E10.10777
G1 X49.046 Y172.983 E10.11139
G1 X50.181 Y172.981 E10.14159
G1 X50.334 Y173.051 E10.14607
G1 X50.381 Y173.166 E10.14937
G1 X50.381 Y174.431 E10.18303
G1 X51.688 Y174.431 E10.21781
G1 X51.795 Y174.514 E10.22141
G1 X51.832 Y174.631 E10.22468
G1 X51.83 Y175.752 E10.25451
G1 F601.5 X51.799 Y175.839 E10.25696
G0 F6000 X52.531 Y175.839
G0 X53.472 Y176.056
G0 X54.395 Y176.322
G0 X54.842 Y176.792
;TYPE:WALL-INNER
G1 F600 X52.914 Y172.096 E10.39203
G1 X50.964 Y172.095 E10.44392
G1 F589.7 X50.703 Y172.102 E10.45098
G1 F570.1 X50.442 Y172.11 E10.4583
G1 F551.7 X50.181 Y172.118 E10.46585
G1 F541.8 X49.558 Y172.119 E10.48421
G1 F536.9 X48.935 Y172.12 E10.50274
G1 F550.5 X48.617 Y172.108 E10.51197
G1 F582.5 X48.299 Y172.096 E10.52069
G1 F600 X46.547 Y172.097 E10.5673
G1 X46.545 Y173.848 E10.6139
G1 F589.7 X46.552 Y174.109 E10.62096
G1 F570.1 X46.56 Y174.37 E10.62828
G1 F551.7 X46.568 Y174.631 E10.63583
G1 F541.8 X46.569 Y175.254 E10.65419
G1 F536.9 X46.57 Y175.877 E10.67272
G1 F550.5 X46.558 Y176.195 E10.68195
G1 F582.5 X46.546 Y176.513 E10.69067
G1 F600 X46.546 Y178.464 E10.74258
G1 X51.284 Y180.404 E10.87881
G1 X51.063 Y180.036 E10.89023
G1 X50.924 Y179.687 E10.90023
G1 X50.81 Y179.17 E10.91431
G1 X50.843 Y178.551 E10.93081
G1 X50.913 Y178.225 E10.93968
G1 F567.4 X51.052 Y177.798 E10.95231
G1 F563.4 X51.283 Y177.451 E10.96413
G1 F595.5 X51.565 Y177.116 E10.97586
G1 F575.5 X51.933 Y176.793 E10.98945
G1 F559.4 X52.337 Y176.546 E11.00296
G1 F574.2 X52.667 Y176.47 E11.01238
G1 F591.1 X52.997 Y176.393 E11.02153
G1 F600 X53.497 Y176.365 E11.03485
G1 X54.123 Y176.454 E11.05168
G1 X54.842 Y176.792 E11.07282
G0 F6000 X54.395 Y176.322
G0 X51.305 Y176.791
G1 F463.3 X51.272 Y176.846 E11.07503
G1 X51.209 Y176.846 E11.0772
