;FLAVOR:Marlin
;TIME:2088
;Filament used: 0.426709m
;Layer height: 0.16
;MINX:129.627
;MINY:131.271
;MINZ:0.16
;MAXX:183.736
;MAXY:168.57
;MAXZ:10.72
;Generated with Cura_SteamEngine main
M82 ;absolute extrusion mode
; Ender 3 Custom Start G-code
G92 E0 ; Reset Extruder
G28 ; Home all axes
M104 S120 ; Start heating up the nozzle most of the way
M190 S72.0 ; Start heating the bed, wait until target temperature reached
M109 S250.0 ; Finish heating the nozzle
G1 Z2.0 F3000 ; Move Z Axis up little to prevent scratching of Heat Bed
G1 X0.1 Y20 Z0.3 F5000.0 ; Move to start position
G1 X0.1 Y200.0 Z0.3 F1500.0 E15 ; Draw the first line
G1 X0.4 Y200.0 Z0.3 F5000.0 ; Move to side a little
G1 X0.4 Y20 Z0.3 F1500.0 E30 ; Draw the second line
G92 E0 ; Reset Extruder
G1 Z2.0 F3000 ; Move Z Axis up little to prevent scratching of Heat Bed
G1 X5 Y20 Z0.3 F5000.0 ; Move over to prevent blob squish
G92 E0
G92 E0
G1 F1500 E-6.5
;LAYER_COUNT:67
;LAYER:0
M107
G0 F6000 X133.615 Y135.203 Z0.16
G0 X130.41 Y142.003
;TYPE:SKIRT
G1 F1500 E0
G1 F600 X130.61 Y140.933 E0.02896
G1 X130.821 Y140.019 E0.05392
G1 X131.109 Y139.127 E0.07886
G1 X131.472 Y138.262 E0.10382
G1 X131.908 Y137.432 E0.12877
G1 X132.413 Y136.641 E0.15374
G1 X132.983 Y135.896 E0.1787
G1 X133.615 Y135.203 E0.20366
G1 X134.303 Y134.566 E0.22861
G1 X135.043 Y133.99 E0.25356
G1 X135.83 Y133.479 E0.27852
G1 X136.657 Y133.037 E0.30348
G1 X137.519 Y132.667 E0.32843
G1 X138.409 Y132.372 E0.35338
G1 X139.321 Y132.154 E0.37833
G1 X140.326 Y132.006 E0.40536
G1 X142.792 Y131.759 E0.47131
G1 X145.815 Y131.367 E0.55242
G1 X147.027 Y131.281 E0.58475
G1 X147.695 Y131.271 E0.60252
G1 X160.866 Y131.271 E0.95298
G1 X161.76 Y131.285 E0.97677
G1 X162.696 Y131.34 E1.00172
G1 X163.624 Y131.476 E1.02667
G1 X164.796 Y131.765 E1.05879
G1 X166.217 Y132.208 E1.0984
G1 X168.661 Y132.923 E1.16615
G1 X171.088 Y133.56 E1.23292
G1 X173.895 Y134.209 E1.30958
G1 X174.96 Y134.439 E1.33857
G1 X175.868 Y134.676 E1.36354
G1 X176.751 Y134.989 E1.38847
G1 X177.605 Y135.377 E1.41342
G1 X178.423 Y135.836 E1.43838
G1 X179.199 Y136.363 E1.46334
G1 X179.927 Y136.954 E1.48829
G1 X180.602 Y137.605 E1.51324
G1 X181.219 Y138.312 E1.53821
G1 X182.058 Y139.506 E1.57704
G1 X182.569 Y140.424 E1.605
G1 X182.952 Y141.28 E1.62995
G1 X183.262 Y142.166 E1.65493
G1 X183.495 Y143.074 E1.67987
G1 X183.65 Y143.999 E1.70482
G1 X183.732 Y145.227 E1.73757
G1 X183.736 Y145.585 E1.7471
G1 X183.707 Y146.523 E1.77207
G1 X183.639 Y147.171 E1.7894
G1 X183.39 Y148.963 E1.83754
G1 X183.088 Y151.513 E1.90587
G1 X182.864 Y153.99 E1.97205
G1 X182.811 Y154.86 E1.99524
G1 X182.711 Y156.27 E2.03285
G1 X182.605 Y157.202 E2.05781
G1 X182.42 Y158.121 E2.08275
G1 X182.157 Y159.022 E2.10773
G1 X181.819 Y159.896 E2.13266
G1 X181.407 Y160.739 E2.15763
G1 X180.925 Y161.543 E2.18257
G1 X180.376 Y162.304 E2.20754
G1 X179.764 Y163.015 E2.2325
G1 X179.094 Y163.671 E2.25745
G1 X178.371 Y164.268 E2.2824
G1 X177.599 Y164.801 E2.30736
G1 X176.785 Y165.266 E2.3323
G1 X175.934 Y165.661 E2.35727
G1 X175.052 Y165.981 E2.38223
G1 X174.147 Y166.225 E2.40717
G1 X173.596 Y166.334 E2.42212
G1 X172.916 Y166.45 E2.44047
G1 X171.416 Y166.687 E2.48088
G1 X168.954 Y167.145 E2.54751
G1 X166.486 Y167.677 E2.61469
G1 X164.24 Y168.224 E2.6762
G1 X163.321 Y168.413 E2.70116
G1 X162.39 Y168.524 E2.72611
G1 X161.736 Y168.554 E2.74353
G1 X160.919 Y168.567 E2.76527
G1 X147.846 Y168.57 E3.11312
G1 X146.977 Y168.559 E3.13624
G1 X146.04 Y168.506 E3.16122
G1 X145.112 Y168.373 E3.18616
G1 X144.538 Y168.25 E3.20178
G1 X143.219 Y167.93 E3.23789
G1 X141.078 Y167.425 E3.29643
G1 X139.265 Y167.057 E3.34565
G1 X138.328 Y166.856 E3.37115
G1 X137.421 Y166.621 E3.39608
G1 X136.536 Y166.309 E3.42105
G1 X135.682 Y165.923 E3.44598
G1 X134.863 Y165.465 E3.47095
G1 X134.086 Y164.939 E3.49592
G1 X133.357 Y164.349 E3.52087
G1 X132.681 Y163.699 E3.54583
G1 X132.063 Y162.994 E3.57077
G1 X131.507 Y162.239 E3.59572
G1 X131.017 Y161.439 E3.62068
G1 X130.597 Y160.6 E3.64565
G1 X130.25 Y159.729 E3.67059
G1 X129.979 Y158.831 E3.69555
G1 X129.785 Y157.913 E3.72052
G1 X129.67 Y156.983 E3.74545
G1 X129.639 Y156.399 E3.76101
G1 X129.627 Y155.807 E3.77677
G1 X129.627 Y147.478 E3.99839
G1 X129.638 Y146.772 E4.01718
G1 X129.693 Y145.835 E4.04215
G1 X129.853 Y144.776 E4.07065
G1 X130.41 Y142.003 E4.14591
G1 F1500 E-2.35409
G0 F6000 X130.427 Y147.49
G1 F1500 E4.14591
G1 F600 X130.438 Y146.784 E4.16469
G1 X130.492 Y145.883 E4.18871
G1 X130.637 Y144.933 E4.21428
G1 X131.196 Y142.151 E4.28978
G1 X131.396 Y141.08 E4.31877
G1 X131.601 Y140.2 E4.34282
G1 X131.883 Y139.342 E4.36685
G1 X132.239 Y138.512 E4.39088
G1 X132.668 Y137.718 E4.41489
G1 X133.165 Y136.964 E4.43892
G1 X133.727 Y136.257 E4.46295
G1 X134.349 Y135.602 E4.48699
G1 X135.027 Y135.005 E4.51102
G1 X135.755 Y134.471 E4.53505
G1 X136.527 Y134.003 E4.55907
G1 X137.338 Y133.605 E4.58311
G1 X138.181 Y133.28 E4.60715
G1 X139.049 Y133.031 E4.63117
G1 X139.936 Y132.86 E4.65521
G1 X140.406 Y132.802 E4.66781
G1 X142.882 Y132.554 E4.73402
G1 X144.528 Y132.335 E4.7782
G1 X145.915 Y132.16 E4.8154
G1 X147.039 Y132.081 E4.84538
G1 X147.861 Y132.07 E4.86726
G1 X161.038 Y132.072 E5.21787
G1 X161.747 Y132.084 E5.23674
G1 X162.648 Y132.14 E5.26076
G1 X163.541 Y132.274 E5.28479
G1 X164.562 Y132.53 E5.31279
G1 X165.999 Y132.978 E5.35285
G1 X168.443 Y133.693 E5.4206
G1 X170.907 Y134.34 E5.48839
G1 X173.621 Y134.967 E5.5625
G1 X174.791 Y135.22 E5.59435
G1 X175.664 Y135.45 E5.61838
G1 X176.514 Y135.756 E5.64241
G1 X177.333 Y136.136 E5.66644
G1 X178.116 Y136.588 E5.69049
G1 X178.855 Y137.106 E5.71451
G1 X179.546 Y137.688 E5.73855
G1 X180.182 Y138.329 E5.76257
G1 X180.76 Y139.023 E5.7866
G1 X181.383 Y139.936 E5.81601
G1 X181.868 Y140.813 E5.84268
G1 X182.234 Y141.638 E5.86669
G1 X182.525 Y142.493 E5.89073
G1 X182.739 Y143.371 E5.91477
G1 X182.875 Y144.264 E5.93881
G1 X182.932 Y145.236 E5.96471
G1 X182.936 Y145.594 E5.97424
G1 X182.906 Y146.497 E5.99828
G1 X182.846 Y147.064 E6.01345
G1 X182.69 Y148.228 E6.0447
G1 X182.592 Y148.896 E6.06267
G1 X182.293 Y151.419 E6.13027
G1 X182.068 Y153.904 E6.19666
G1 X182.013 Y154.804 E6.22065
G1 X181.913 Y156.214 E6.25826
G1 X181.81 Y157.111 E6.28229
G1 X181.627 Y157.995 E6.30631
G1 X181.367 Y158.86 E6.33034
G1 X181.031 Y159.698 E6.35436
G1 X180.623 Y160.504 E6.3784
G1 X180.145 Y161.27 E6.40243
G1 X179.601 Y161.991 E6.42646
G1 X178.995 Y162.661 E6.4505
G1 X178.332 Y163.274 E6.47452
G1 X177.618 Y163.827 E6.49855
G1 X176.858 Y164.315 E6.52258
G1 X176.057 Y164.733 E6.54662
G1 X175.223 Y165.078 E6.57064
G1 X174.362 Y165.349 E6.59466
G1 X173.461 Y165.546 E6.6192
G1 X172.924 Y165.638 E6.63369
G1 X171.329 Y165.89 E6.67666
G1 X168.783 Y166.364 E6.74557
G1 X166.305 Y166.898 E6.81302
G1 X164.045 Y167.448 E6.87491
G1 X163.16 Y167.629 E6.89894
G1 X162.263 Y167.731 E6.92296
G1 X161.723 Y167.754 E6.93734
G1 X160.906 Y167.767 E6.95909
G1 X147.846 Y167.77 E7.30659
G1 X146.988 Y167.759 E7.32942
G1 X146.086 Y167.706 E7.35346
G1 X145.193 Y167.574 E7.37748
G1 X144.726 Y167.472 E7.3902
G1 X143.402 Y167.151 E7.42645
G1 X141.257 Y166.645 E7.48509
G1 X139.424 Y166.273 E7.53486
G1 X138.496 Y166.074 E7.56011
G1 X137.622 Y165.846 E7.58415
G1 X136.772 Y165.541 E7.60817
G1 X135.952 Y165.163 E7.6322
G1 X135.169 Y164.713 E7.65623
G1 X134.429 Y164.196 E7.68025
G1 X133.737 Y163.615 E7.70429
G1 X133.1 Y162.975 E7.72832
G1 X132.521 Y162.282 E7.75235
G1 X132.006 Y161.54 E7.77638
G1 X131.559 Y160.755 E7.80041
G1 X131.183 Y159.934 E7.82444
G1 X130.881 Y159.083 E7.84847
G1 X130.655 Y158.209 E7.87249
G1 X130.508 Y157.318 E7.89652
G1 X130.439 Y156.378 E7.9216
G1 X130.427 Y155.807 E7.93679
G1 X130.427 Y147.49 E8.15809
G0 F6000 X130.027 Y147.484
G1 F600 X130.038 Y146.778 E8.17688
G1 X130.093 Y145.859 E8.20138
G1 X130.245 Y144.854 E8.22842
G1 X130.803 Y142.076 E8.30382
G1 X131.003 Y141.006 E8.33278
G1 X131.211 Y140.11 E8.35725
G1 X131.496 Y139.234 E8.38177
G1 X131.856 Y138.387 E8.40625
G1 X132.288 Y137.574 E8.43075
G1 X132.789 Y136.801 E8.45526
G1 X133.355 Y136.076 E8.47973
G1 X133.982 Y135.401 E8.50425
G1 X134.666 Y134.784 E8.52876
G1 X135.4 Y134.229 E8.55324
G1 X136.179 Y133.739 E8.57773
G1 X136.998 Y133.319 E8.60222
G1 X137.851 Y132.971 E8.62673
G1 X138.73 Y132.699 E8.65122
G1 X139.63 Y132.504 E8.67572
G1 X140.366 Y132.404 E8.69548
G1 X142.82 Y132.158 E8.76111
G1 X145.865 Y131.763 E8.84281
G1 X147.033 Y131.681 E8.87396
G1 X147.701 Y131.671 E8.89174
G1 X160.866 Y131.671 E9.24203
G1 X161.753 Y131.685 E9.26564
G1 X162.672 Y131.74 E9.29013
G1 X163.583 Y131.875 E9.31464
G1 X164.679 Y132.148 E9.34469
G1 X166.12 Y132.596 E9.38485
G1 X168.553 Y133.308 E9.4523
G1 X171.001 Y133.951 E9.51964
G1 X173.784 Y134.594 E9.59565
G1 X174.876 Y134.83 E9.62537
G1 X175.766 Y135.063 E9.64985
G1 X176.633 Y135.373 E9.67435
G1 X177.47 Y135.757 E9.69885
G1 X178.27 Y136.212 E9.72334
G1 X179.028 Y136.735 E9.74785
G1 X179.737 Y137.321 E9.77232
G1 X180.393 Y137.967 E9.79682
G1 X180.991 Y138.668 E9.82134
G1 X181.72 Y139.72 E9.85539
G1 X182.219 Y140.619 E9.88275
G1 X182.593 Y141.46 E9.90724
G1 X182.894 Y142.33 E9.93174
G1 X183.117 Y143.223 E9.95623
G1 X183.263 Y144.132 E9.98072
G1 X183.332 Y145.232 E10.01005
G1 X183.336 Y145.59 E10.01958
G1 X183.307 Y146.51 E10.04407
G1 X183.243 Y147.118 E10.06034
G1 X183.104 Y148.154 E10.08815
G1 X182.99 Y148.929 E10.10899
G1 X182.694 Y151.43 E10.176
G1 X182.465 Y153.963 E10.24368
G1 X182.412 Y154.832 E10.26684
G1 X182.312 Y156.242 E10.30445
G1 X182.207 Y157.157 E10.32896
G1 X182.024 Y158.059 E10.35345
G1 X181.762 Y158.941 E10.37793
G1 X181.425 Y159.798 E10.40243
G1 X181.015 Y160.622 E10.42692
G1 X180.535 Y161.408 E10.45143
G1 X179.988 Y162.149 E10.47593
G1 X179.379 Y162.839 E10.50042
G1 X178.713 Y163.475 E10.52493
G1 X177.994 Y164.05 E10.54942
G1 X177.228 Y164.56 E10.57391
G1 X176.42 Y165.002 E10.59841
G1 X175.577 Y165.373 E10.62292
G1 X174.706 Y165.668 E10.64739
G1 X173.529 Y165.94 E10.67953
G1 X172.853 Y166.055 E10.69778
G1 X171.358 Y166.291 E10.73805
G1 X168.868 Y166.755 E10.80545
G1 X166.395 Y167.288 E10.87276
G1 X164.142 Y167.836 E10.93445
G1 X163.24 Y168.021 E10.95895
G1 X162.326 Y168.127 E10.98344
G1 X161.73 Y168.154 E10.99931
G1 X160.913 Y168.167 E11.02105
G1 X147.846 Y168.17 E11.36874
G1 X146.982 Y168.159 E11.39173
G1 X146.063 Y168.106 E11.41623
G1 X145.152 Y167.974 E11.44072
G1 X144.632 Y167.861 E11.45488
G1 X141.176 Y167.036 E11.54942
G1 X139.345 Y166.665 E11.59913
G1 X138.412 Y166.465 E11.62452
G1 X137.521 Y166.233 E11.64902
G1 X136.654 Y165.925 E11.6735
G1 X135.816 Y165.542 E11.69801
G1 X135.015 Y165.089 E11.7225
G1 X134.257 Y164.567 E11.74699
G1 X133.546 Y163.982 E11.77149
G1 X132.889 Y163.337 E11.79599
G1 X132.29 Y162.638 E11.82048
G1 X131.755 Y161.889 E11.84497
G1 X131.286 Y161.096 E11.86949
G1 X130.888 Y160.266 E11.89398
G1 X130.563 Y159.405 E11.91846
G1 X130.314 Y158.518 E11.94298
G1 X130.143 Y157.614 E11.96746
G1 X130.039 Y156.388 E12.0002
G1 X130.027 Y155.807 E12.01566
G1 X130.027 Y147.484 E12.23712
G1 F1500 E5.73712
;MESH:void_switch-v6.stl
G0 F6000 X139.961 Y147.484
G0 X141.046 Y147.484
G0 X142.007 Y148.141
;TYPE:WALL-INNER
G1 F1500 E12.23712
G1 F681.8 X142.258 Y148.146 E12.243
G1 F697.7 X142.509 Y148.152 E12.24874
G1 F705.9 X143.317 Y148.152 E12.26702
G1 F689.7 X143.642 Y148.144 E12.27454
G1 F655.7 X143.967 Y148.135 E12.28246
G1 F640 X143.966 Y147.69 E12.29356
G1 F654 X143.586 Y147.812 E12.3033
G1 F674.2 X143.227 Y147.812 E12.3118
G1 F685.7 X142.868 Y147.812 E12.32016
G1 F699.7 X142.509 Y147.812 E12.32835
G1 F689.7 X142.22 Y147.79 E12.33506
G1 F672.3 X142.004 Y147.72 E12.34046
G1 X142.007 Y148.141 E12.35045
G0 F6000 X141.624 Y148.65
G1 F600 X142.007 Y148.522 E12.3612
G1 X143.972 Y148.522 E12.41348
G1 X144.353 Y148.647 E12.42415
G1 X144.353 Y147.393 E12.45752
G1 X144.123 Y147.34 E12.4638
G1 X143.942 Y147.211 E12.46971
G1 X143.76 Y147.34 E12.47565
G1 X143.447 Y147.442 E12.48441
G1 X142.363 Y147.442 E12.51325
G1 X142.098 Y147.355 E12.52067
G1 X141.961 Y147.266 E12.52502
G1 X141.824 Y147.355 E12.52937
G1 X141.626 Y147.397 E12.53475
G1 X141.624 Y148.65 E12.56809
G0 F6000 X141.317 Y149.522
G1 F448.6 X141.481 Y149.282 E12.57844
G1 F539.3 X141.645 Y149.042 E12.58704
G1 F600 X142.007 Y148.922 E12.59719
G1 X143.972 Y148.922 E12.64947
G1 X144.335 Y149.041 E12.65964
G1 F539.3 X144.498 Y149.281 E12.66823
G1 F447.8 X144.662 Y149.522 E12.67862
G1 X144.707 Y149.177 E12.69103
G1 F539.3 X144.753 Y148.832 E12.70133
G1 F600 X144.753 Y147.103 E12.74733
G1 X144.717 Y147.042 E12.74922
G1 X144.566 Y147.042 E12.75324
G1 X144.3 Y146.981 E12.7605
G1 X144.144 Y146.87 E12.76559
G1 F562.1 X143.941 Y146.496 E12.77768
G1 X143.74 Y146.87 E12.78974
G1 F600 X143.583 Y146.981 E12.79486
G1 X143.397 Y147.042 E12.80006
G1 X142.422 Y147.042 E12.82601
G1 X142.106 Y146.889 E12.83535
G1 X141.961 Y146.596 E12.84405
G1 X141.816 Y146.889 E12.85275
G1 X141.66 Y146.99 E12.85769
G1 X141.414 Y147.042 E12.86438
G1 X141.262 Y147.042 E12.86843
G1 X141.226 Y147.23 E12.87352
G1 X141.224 Y148.832 E12.91615
G1 F539.3 X141.27 Y149.177 E12.92645
G1 F448.6 X141.317 Y149.522 E12.93884
G1 F1500 E6.43884
G0 F6000 X141.096 Y155.639
G1 F1500 E12.93884
G0 F6000 X140.827 Y155.908
;TYPE:WALL-OUTER
G1 F600 X141.807 Y155.908 E12.96492
G1 X141.807 Y149.522 E13.13484
G1 X141.886 Y149.362 E13.13958
G1 X142.007 Y149.322 E13.14297
G1 X143.972 Y149.322 E13.19526
G1 X144.093 Y149.361 E13.19864
G1 X144.172 Y149.522 E13.20341
G1 X144.173 Y155.908 E13.37333
G1 X145.153 Y155.908 E13.39941
G1 X145.153 Y146.996 E13.63654
G1 X144.948 Y146.642 E13.64743
G1 X144.566 Y146.642 E13.65759
G1 X144.425 Y146.585 E13.66164
G1 X144.366 Y146.46 E13.66531
G1 X144.365 Y143.142 E13.7536
G1 X143.517 Y143.142 E13.77616
G1 X143.517 Y146.46 E13.86445
G1 X143.458 Y146.585 E13.86813
G1 X143.352 Y146.64 E13.8713
G1 X142.466 Y146.638 E13.89488
G1 F506.3 X142.234 Y146.466 E13.90399
G1 F438 X142.234 Y143.215 E14.02249
G1 F438.8 X141.688 Y143.215 E14.04236
G1 F438 X141.688 Y146.466 E14.16087
G1 F506.3 X141.475 Y146.642 E14.16958
G1 F600 X141.031 Y146.642 E14.1814
G1 X140.826 Y146.996 E14.19228
G1 X140.826 Y147.23 E14.19851
G1 X140.827 Y155.908 E14.42941
G0 F6000 X141.317 Y155.418
;TYPE:WALL-INNER
G1 F413.8 X141.317 Y149.522 E14.65689
G0 F6000 X141.579 Y149.094
G0 X144.4 Y149.094
G0 X144.662 Y149.522
G1 F413.1 X144.662 Y152.47 E14.77083
G1 F413.8 X144.663 Y155.418 E14.88457
G0 F6000 X144.4 Y149.094
G0 X143.941 Y147.342
G0 X143.941 Y146.496
G1 F529.8 X143.941 Y145.031 E14.92871
G1 F532.2 X143.941 Y143.566 E14.97266
G1 F1500 E8.47266
G0 F6000 X144.165 Y144.747
G0 X145.23 Y144.746
G0 X146.037 Y144.747
G0 X147.122 Y144.747
G0 X147.704 Y144.746
G1 F1500 E14.97266
G1 F600 X149.18 Y143.27 E15.0282
G1 X147.702 Y143.27 E15.06753
G1 X147.704 Y144.746 E15.1068
G0 F6000 X148.193 Y143.703
G1 F512.8 X148.163 Y143.753 E15.10862
G1 X148.106 Y143.753 E15.11039
G1 X148.077 Y143.703 E15.11219
G1 X148.107 Y143.653 E15.11401
G1 X148.163 Y143.653 E15.11575
G0 F6000 X147.516 Y145.168
G0 X147.54 Y148.798
G0 X147.416 Y149.393
G1 F420.3 X147.56 Y149.181 E15.12549
G1 F525.2 X147.705 Y148.968 E15.13332
G1 F600 X148.205 Y148.467 E15.15215
G1 X147.927 Y148.189 E15.16261
G1 F578.3 X147.745 Y147.87 E15.17275
G1 F559.4 X147.743 Y146.692 E15.20637
G1 F563.4 X147.74 Y145.514 E15.23975
G1 F582.5 X147.927 Y145.089 E15.25248
G1 F600 X149.518 Y143.498 E15.31234
G1 F576.9 X149.837 Y143.315 E15.32252
G1 F556.8 X150.623 Y143.314 E15.34506
G1 F559.4 X151.409 Y143.312 E15.36749
G1 F562.1 X152.195 Y143.31 E15.38981
G1 F581.1 X152.618 Y143.498 E15.40253
G1 F600 X152.897 Y143.776 E15.41301
G1 X153.397 Y143.275 E15.43184
G1 F461.5 X153.698 Y142.99 E15.44618
G1 X153.23 Y142.871 E15.46289
G1 F595.5 X152.971 Y142.874 E15.46983
G1 F586.8 X152.712 Y142.877 E15.47688
G1 F576.9 X152.453 Y142.88 E15.48404
G1 F568.7 X152.194 Y142.884 E15.49131
G1 F562.1 X151.396 Y142.884 E15.51398
G1 F559.4 X150.598 Y142.885 E15.53675
G1 F556.8 X149.8 Y142.886 E15.55963
G1 F566 X149.529 Y142.879 E15.56728
G1 F588.2 X149.258 Y142.871 E15.57464
G1 F600 X147.303 Y142.871 E15.62666
G1 X147.304 Y144.831 E15.67881
G1 F591.1 X147.309 Y145.173 E15.68805
G1 F574.2 X147.314 Y145.515 E15.69756
G1 F563.4 X147.315 Y146.711 E15.73145
