;FLAVOR:Marlin
;TIME:2075
;Filament used: 0.423975m
;Layer height: 0.16
;MINX:143.85
;MINY:139.637
;MINZ:0.16
;MAXX:197.962
;MAXY:176.936
;MAXZ:10.72
;Generated with Cura_SteamEngine main
M82 ;absolute extrusion mode
; Ender 3 Custom Start G-code
G92 E0 ; Reset Extruder
G28 ; Home all axes
M104 S120 ; Start heating up the nozzle most of the way
M190 S72.0 ; Start heating the bed, wait until target temperature reached
M109 S250.0 ; Finish heating the nozzle
G1 Z2.0 F3000 ; Move Z Axis up little to prevent scratching of Heat Bed
G1 X0.1 Y20 Z0.3 F5000.0 ; Move to start position
G1 X0.1 Y200.0 Z0.3 F1500.0 E15 ; Draw the first line
G1 X0.4 Y200.0 Z0.3 F5000.0 ; Move to side a little
G1 X0.4 Y20 Z0.3 F1500.0 E30 ; Draw the second line
G92 E0 ; Reset Extruder
G1 Z2.0 F3000 ; Move Z Axis up little to prevent scratching of Heat Bed
G1 X5 Y20 Z0.3 F5000.0 ; Move over to prevent blob squish
G92 E0
G92 E0
G1 F1500 E-6.5
;LAYER_COUNT:67
;LAYER:0
M107
G0 F6000 X147.845 Y143.563 Z0.16
G0 X144.631 Y150.38
;TYPE:SKIRT
G1 F1500 E0
G1 F600 X144.835 Y149.29 E0.02951
G1 X145.047 Y148.376 E0.05447
G1 X145.336 Y147.484 E0.07942
G1 X145.7 Y146.62 E0.10437
G1 X146.137 Y145.789 E0.12935
G1 X146.642 Y144.999 E0.1543
G1 X147.213 Y144.255 E0.17925
G1 X147.845 Y143.563 E0.20419
G1 X148.534 Y142.926 E0.22916
G1 X149.275 Y142.351 E0.25411
G1 X150.062 Y141.841 E0.27907
G1 X150.889 Y141.399 E0.30402
G1 X151.751 Y141.03 E0.32897
G1 X152.642 Y140.735 E0.35394
G1 X153.554 Y140.518 E0.37888
G1 X154.524 Y140.374 E0.40498
G1 X156.867 Y140.134 E0.46764
G1 X158.942 Y139.872 E0.5233
G1 X159.759 Y139.76 E0.54524
G1 X161.043 Y139.66 E0.57951
G1 X162.246 Y139.639 E0.61152
G1 X175.114 Y139.637 E0.95391
G1 X175.983 Y139.648 E0.97704
G1 X176.92 Y139.701 E1.00201
G1 X177.848 Y139.834 E1.02695
G1 X179.048 Y140.128 E1.05983
G1 X180.84 Y140.686 E1.10977
G1 X183.27 Y141.389 E1.17708
G1 X185.698 Y142.019 E1.24382
G1 X188.129 Y142.577 E1.31019
G1 X189.201 Y142.812 E1.33939
G1 X190.108 Y143.052 E1.36435
G1 X190.991 Y143.368 E1.38931
G1 X191.844 Y143.758 E1.41426
G1 X192.66 Y144.219 E1.4392
G1 X193.435 Y144.749 E1.46418
G1 X194.161 Y145.342 E1.48913
G1 X194.834 Y145.995 E1.51408
G1 X195.666 Y146.975 E1.54828
G1 X196.262 Y147.835 E1.57612
G1 X196.728 Y148.649 E1.60108
G1 X197.124 Y149.499 E1.62603
G1 X197.446 Y150.38 E1.65099
G1 X197.691 Y151.285 E1.67594
G1 X197.859 Y152.208 E1.7009
G1 X197.947 Y153.142 E1.72586
G1 X197.962 Y153.768 E1.74252
G1 X197.96 Y154.145 E1.75255
G1 X197.872 Y155.478 E1.7881
G1 X197.792 Y156.096 E1.80468
G1 X197.551 Y157.782 E1.85
G1 X197.27 Y160.254 E1.9162
G1 X197.057 Y162.757 E1.98304
G1 X197.008 Y163.603 E2.00559
G1 X196.935 Y164.635 E2.03311
G1 X196.829 Y165.567 E2.05807
G1 X196.644 Y166.486 E2.08302
G1 X196.381 Y167.387 E2.10799
G1 X196.043 Y168.262 E2.13295
G1 X195.631 Y169.104 E2.15789
G1 X195.149 Y169.909 E2.18286
G1 X194.6 Y170.669 E2.2078
G1 X193.989 Y171.38 E2.23275
G1 X193.319 Y172.037 E2.25772
G1 X192.595 Y172.634 E2.28269
G1 X191.824 Y173.167 E2.30763
G1 X191.01 Y173.632 E2.33257
G1 X190.159 Y174.027 E2.35753
G1 X189.277 Y174.347 E2.3825
G1 X188.372 Y174.592 E2.40745
G1 X187.828 Y174.7 E2.4222
G1 X187.305 Y174.79 E2.43632
G1 X185.64 Y175.053 E2.48118
G1 X183.16 Y175.515 E2.5483
G1 X180.709 Y176.044 E2.61502
G1 X178.972 Y176.471 E2.66261
G1 X178.212 Y176.647 E2.68337
G1 X177.289 Y176.818 E2.70835
G1 X175.902 Y176.926 E2.74536
G1 X175.198 Y176.936 E2.7641
G1 X161.863 Y176.935 E3.11892
G1 X161.162 Y176.925 E3.13757
G1 X160.226 Y176.872 E3.16252
G1 X159.297 Y176.739 E3.18749
G1 X158.55 Y176.572 E3.20785
G1 X155.841 Y175.867 E3.28234
G1 X153.341 Y175.292 E3.35059
G1 X152.544 Y175.121 E3.37228
G1 X151.637 Y174.885 E3.39722
G1 X150.753 Y174.572 E3.42217
G1 X149.898 Y174.185 E3.44714
G1 X149.08 Y173.727 E3.47209
G1 X148.304 Y173.201 E3.49703
G1 X147.575 Y172.611 E3.52199
G1 X146.899 Y171.96 E3.54696
G1 X146.281 Y171.255 E3.5719
G1 X145.726 Y170.499 E3.59686
G1 X145.237 Y169.699 E3.62181
G1 X144.817 Y168.86 E3.64677
G1 X144.471 Y167.988 E3.67173
G1 X144.2 Y167.09 E3.69669
G1 X144.007 Y166.172 E3.72165
G1 X143.893 Y165.242 E3.74658
G1 X143.862 Y164.669 E3.76185
G1 X143.85 Y164.077 E3.77761
G1 X143.85 Y155.844 E3.99667
G1 X143.861 Y155.138 E4.01546
G1 X143.916 Y154.201 E4.04043
G1 X144.076 Y153.142 E4.06893
G1 X144.631 Y150.38 E4.14389
G1 F1500 E-2.35611
G0 F6000 X144.65 Y155.856
G1 F1500 E4.14389
G1 F600 X144.661 Y155.15 E4.16268
G1 X144.715 Y154.249 E4.1867
G1 X144.86 Y153.299 E4.21227
G1 X145.425 Y150.489 E4.28853
G1 X145.622 Y149.437 E4.31701
G1 X145.827 Y148.558 E4.34103
G1 X146.11 Y147.7 E4.36507
G1 X146.467 Y146.871 E4.38908
G1 X146.896 Y146.076 E4.41312
G1 X147.394 Y145.323 E4.43714
G1 X147.957 Y144.616 E4.46119
G1 X148.58 Y143.962 E4.48522
G1 X149.258 Y143.366 E4.50924
G1 X149.986 Y142.832 E4.53327
G1 X150.759 Y142.364 E4.55731
G1 X151.57 Y141.967 E4.58134
G1 X152.413 Y141.643 E4.60537
G1 X153.281 Y141.395 E4.62939
G1 X154.606 Y141.17 E4.66515
G1 X156.96 Y140.928 E4.72811
G1 X159.051 Y140.665 E4.78419
G1 X159.867 Y140.553 E4.8061
G1 X161.058 Y140.46 E4.83789
G1 X162.246 Y140.439 E4.86951
G1 X175.114 Y140.437 E5.2119
G1 X175.972 Y140.448 E5.23473
G1 X176.874 Y140.501 E5.25877
G1 X177.767 Y140.633 E5.28279
G1 X178.814 Y140.893 E5.3115
G1 X179.938 Y141.238 E5.34278
G1 X180.616 Y141.455 E5.36172
G1 X183.033 Y142.154 E5.42867
G1 X185.529 Y142.801 E5.49728
G1 X187.974 Y143.363 E5.56403
G1 X189.03 Y143.594 E5.59279
G1 X189.903 Y143.826 E5.61683
G1 X190.752 Y144.134 E5.64086
G1 X191.57 Y144.517 E5.66489
G1 X192.351 Y144.97 E5.68892
G1 X193.089 Y145.491 E5.71295
G1 X193.778 Y146.074 E5.73697
G1 X194.413 Y146.717 E5.76102
G1 X195.037 Y147.471 E5.78706
G1 X195.603 Y148.291 E5.81357
G1 X196.049 Y149.076 E5.83759
G1 X196.423 Y149.898 E5.86162
G1 X196.723 Y150.75 E5.88566
G1 X196.947 Y151.625 E5.90969
G1 X197.092 Y152.516 E5.93371
G1 X197.162 Y153.764 E5.96697
G1 X197.16 Y154.141 E5.977
G1 X197.078 Y155.377 E6.00996
G1 X197 Y155.983 E6.02622
G1 X196.762 Y157.648 E6.07097
G1 X196.471 Y160.204 E6.13942
G1 X196.258 Y162.715 E6.20647
G1 X196.21 Y163.547 E6.22865
G1 X196.137 Y164.579 E6.25617
G1 X196.033 Y165.476 E6.2802
G1 X195.851 Y166.36 E6.30422
G1 X195.591 Y167.225 E6.32825
G1 X195.255 Y168.064 E6.3523
G1 X194.847 Y168.869 E6.37631
G1 X194.369 Y169.635 E6.40034
G1 X193.825 Y170.356 E6.42437
G1 X193.219 Y171.026 E6.44841
G1 X192.557 Y171.64 E6.47243
G1 X191.843 Y172.193 E6.49646
G1 X191.083 Y172.681 E6.52049
G1 X190.282 Y173.099 E6.54453
G1 X189.448 Y173.445 E6.56856
G1 X188.586 Y173.716 E6.5926
G1 X187.692 Y173.911 E6.61695
G1 X187.025 Y174.025 E6.63495
G1 X185.518 Y174.262 E6.67555
G1 X182.981 Y174.735 E6.74421
G1 X180.527 Y175.265 E6.81101
G1 X178.781 Y175.694 E6.85885
G1 X178.032 Y175.867 E6.87931
G1 X177.144 Y176.031 E6.90334
G1 X175.891 Y176.126 E6.93677
G1 X175.041 Y176.137 E6.95939
G1 X161.875 Y176.135 E7.30971
G1 X161.174 Y176.125 E7.32837
G1 X160.272 Y176.072 E7.35241
G1 X159.379 Y175.94 E7.37643
G1 X158.751 Y175.798 E7.39356
G1 X156.044 Y175.094 E7.46798
G1 X153.463 Y174.5 E7.53845
G1 X152.713 Y174.339 E7.55887
G1 X151.839 Y174.11 E7.58291
G1 X150.989 Y173.805 E7.60693
G1 X150.17 Y173.426 E7.63095
G1 X149.387 Y172.975 E7.65499
G1 X148.647 Y172.458 E7.67901
G1 X147.955 Y171.877 E7.70305
G1 X147.318 Y171.237 E7.72708
G1 X146.74 Y170.543 E7.75111
G1 X146.226 Y169.8 E7.77515
G1 X145.779 Y169.016 E7.79916
G1 X145.403 Y168.194 E7.82321
G1 X145.102 Y167.343 E7.84723
G1 X144.877 Y166.468 E7.87127
G1 X144.73 Y165.577 E7.8953
G1 X144.662 Y164.647 E7.92011
G1 X144.65 Y164.077 E7.93528
G1 X144.65 Y155.856 E8.15403
G0 F6000 X144.25 Y155.85
G1 F600 X144.261 Y155.144 E8.17281
G1 X144.316 Y154.225 E8.19731
G1 X144.468 Y153.22 E8.22436
G1 X145.042 Y150.364 E8.30187
G1 X145.229 Y149.364 E8.32894
G1 X145.437 Y148.467 E8.35344
G1 X145.723 Y147.592 E8.37793
G1 X146.084 Y146.745 E8.40243
G1 X146.517 Y145.932 E8.42694
G1 X147.018 Y145.16 E8.45143
G1 X147.585 Y144.435 E8.47592
G1 X148.213 Y143.761 E8.50043
G1 X148.896 Y143.144 E8.52492
G1 X149.631 Y142.59 E8.54941
G1 X150.411 Y142.1 E8.57392
G1 X151.231 Y141.681 E8.59842
G1 X152.083 Y141.334 E8.6229
G1 X152.963 Y141.062 E8.64741
G1 X153.863 Y140.868 E8.67191
G1 X154.565 Y140.772 E8.69076
G1 X156.913 Y140.531 E8.75356
G1 X158.951 Y140.274 E8.80822
G1 X159.813 Y140.156 E8.83137
G1 X161.051 Y140.06 E8.86441
G1 X162.246 Y140.039 E8.89621
G1 X175.114 Y140.037 E9.23861
G1 X175.978 Y140.048 E9.2616
G1 X176.897 Y140.101 E9.28609
G1 X177.808 Y140.233 E9.31058
G1 X178.931 Y140.511 E9.34137
G1 X180.06 Y140.857 E9.37279
G1 X180.744 Y141.076 E9.3919
G1 X183.13 Y141.766 E9.45798
G1 X185.614 Y142.41 E9.52626
G1 X188.052 Y142.97 E9.59282
G1 X189.116 Y143.203 E9.62181
G1 X190.006 Y143.439 E9.64631
G1 X190.872 Y143.751 E9.6708
G1 X191.707 Y144.137 E9.69527
G1 X192.506 Y144.595 E9.71978
G1 X193.263 Y145.12 E9.74429
G1 X193.971 Y145.708 E9.76878
G1 X194.625 Y146.356 E9.79328
G1 X195.351 Y147.222 E9.82335
G1 X195.933 Y148.063 E9.85056
G1 X196.389 Y148.863 E9.87506
G1 X196.774 Y149.699 E9.89955
G1 X197.085 Y150.565 E9.92403
G1 X197.32 Y151.456 E9.94855
G1 X197.476 Y152.363 E9.97304
G1 X197.553 Y153.28 E9.99753
G1 X197.562 Y153.766 E10.01046
G1 X197.56 Y154.143 E10.02049
G1 X197.475 Y155.427 E10.05473
G1 X197.396 Y156.039 E10.07115
G1 X197.157 Y157.713 E10.11614
G1 X196.873 Y160.212 E10.18307
G1 X196.658 Y162.736 E10.25047
G1 X196.609 Y163.575 E10.27283
G1 X196.536 Y164.607 E10.30036
G1 X196.431 Y165.522 E10.32486
G1 X196.247 Y166.424 E10.34936
G1 X195.986 Y167.307 E10.37386
G1 X195.649 Y168.163 E10.39834
G1 X195.239 Y168.988 E10.42285
G1 X194.759 Y169.773 E10.44733
G1 X194.212 Y170.514 E10.47184
G1 X193.604 Y171.205 E10.49633
G1 X192.937 Y171.84 E10.52083
G1 X192.219 Y172.416 E10.54533
G1 X191.453 Y172.926 E10.56981
G1 X190.645 Y173.368 E10.59432
G1 X189.802 Y173.739 E10.61883
G1 X188.93 Y174.035 E10.64333
G1 X187.76 Y174.305 E10.67528
G1 X187.088 Y174.42 E10.69342
G1 X185.576 Y174.658 E10.73414
G1 X183.067 Y175.125 E10.80205
G1 X180.609 Y175.656 E10.86896
G1 X178.722 Y176.119 E10.92066
G1 X178.122 Y176.257 E10.93704
G1 X177.217 Y176.424 E10.96153
G1 X175.897 Y176.526 E10.99676
G1 X175.041 Y176.537 E11.01954
G1 X161.869 Y176.535 E11.37002
G1 X161.168 Y176.525 E11.38867
G1 X160.249 Y176.472 E11.41317
G1 X159.338 Y176.339 E11.43766
G1 X158.651 Y176.185 E11.4564
G1 X155.934 Y175.478 E11.5311
G1 X153.421 Y174.9 E11.59971
G1 X152.629 Y174.73 E11.62126
G1 X151.738 Y174.497 E11.64577
G1 X150.871 Y174.188 E11.67026
G1 X150.033 Y173.805 E11.69477
G1 X149.233 Y173.351 E11.71925
G1 X148.474 Y172.829 E11.74376
G1 X147.764 Y172.243 E11.76826
G1 X147.107 Y171.598 E11.79275
G1 X146.509 Y170.898 E11.81725
G1 X145.974 Y170.149 E11.84174
G1 X145.506 Y169.356 E11.86624
G1 X145.108 Y168.526 E11.89074
G1 X144.784 Y167.664 E11.91524
G1 X144.536 Y166.778 E11.93972
G1 X144.366 Y165.873 E11.96422
G1 X144.262 Y164.658 E11.99667
G1 X144.25 Y164.077 E12.01213
G1 X144.25 Y155.85 E12.23104
G1 F1500 E5.73104
;MESH:void_switch-v7.stl
G0 F6000 X154.184 Y155.85
G0 X155.269 Y155.85
G0 X155.847 Y156.888
G1 F1500 E12.23104
G0 F6000 X155.847 Y156.916
;TYPE:WALL-INNER
G1 F600 X156.23 Y156.788 E12.24178
G1 X158.195 Y156.788 E12.29407
G1 X158.576 Y156.913 E12.30473
G1 X158.576 Y155.759 E12.33544
G1 X158.346 Y155.706 E12.34172
G1 X158.165 Y155.577 E12.34763
G1 X157.983 Y155.706 E12.35357
G1 X157.67 Y155.808 E12.36233
G1 X156.546 Y155.808 E12.39224
G1 X156.184 Y155.632 E12.40295
G1 X156.047 Y155.721 E12.40729
G1 X155.849 Y155.763 E12.41268
G1 X155.847 Y156.916 E12.44336
G0 F6000 X156.362 Y156.275
G1 F398.7 X156.731 Y156.298 E12.45816
G1 F413.8 X157.54 Y156.298 E12.48938
G1 F406.1 X157.799 Y156.287 E12.49957
G1 F378.5 X158.043 Y156.255 E12.50995
G0 F6000 X155.802 Y157.36
G0 X155.54 Y157.788
G1 F448.6 X155.704 Y157.548 E12.52029
G1 F539.3 X155.868 Y157.308 E12.5289
G1 F600 X156.23 Y157.188 E12.53904
G1 X158.195 Y157.188 E12.59133
G1 X158.558 Y157.307 E12.60149
G1 F539.3 X158.721 Y157.547 E12.61008
G1 F447.8 X158.885 Y157.788 E12.62048
G1 X158.93 Y157.443 E12.63288
G1 F539.3 X158.976 Y157.098 E12.64318
G1 F600 X158.976 Y155.469 E12.68653
G1 X158.94 Y155.408 E12.68841
G1 X158.789 Y155.408 E12.69243
G1 X158.523 Y155.347 E12.69969
G1 X158.367 Y155.236 E12.70479
G1 F562.1 X158.164 Y154.862 E12.71687
G1 X157.963 Y155.236 E12.72893
G1 F600 X157.806 Y155.347 E12.73405
G1 X157.62 Y155.408 E12.73926
G1 X156.731 Y155.408 E12.76291
G1 X156.485 Y155.356 E12.7696
G1 X156.329 Y155.255 E12.77455
G1 X156.184 Y154.962 E12.78325
G1 X156.039 Y155.255 E12.79195
G1 X155.883 Y155.356 E12.79689
G1 X155.637 Y155.408 E12.80358
G1 X155.485 Y155.408 E12.80762
G1 X155.449 Y155.469 E12.80951
G1 X155.447 Y157.098 E12.85285
G1 F539.3 X155.493 Y157.443 E12.86316
G1 F448.6 X155.54 Y157.788 E12.87555
G1 F1500 E6.37555
G0 F6000 X155.319 Y163.905
G1 F1500 E12.87555
G0 F6000 X155.05 Y164.174
;TYPE:WALL-OUTER
G1 F600 X156.03 Y164.174 E12.90162
G1 X156.03 Y157.788 E13.07154
G1 X156.109 Y157.628 E13.07629
G1 X156.23 Y157.588 E13.07968
G1 X158.195 Y157.588 E13.13197
G1 X158.316 Y157.627 E13.13535
G1 X158.395 Y157.788 E13.14012
G1 X158.396 Y164.174 E13.31004
G1 X159.376 Y164.174 E13.33612
G1 X159.376 Y155.362 E13.57059
G1 X159.171 Y155.008 E13.58147
G1 X158.789 Y155.008 E13.59164
G1 X158.648 Y154.951 E13.59568
G1 X158.589 Y154.826 E13.59936
G1 X158.588 Y151.508 E13.68765
G1 X157.74 Y151.508 E13.71021
G1 X157.74 Y154.826 E13.7985
G1 X157.681 Y154.951 E13.80217
G1 X157.575 Y155.006 E13.80535
G1 X156.682 Y155.003 E13.82911
G1 F506.3 X156.457 Y154.832 E13.83802
G1 F438 X156.457 Y151.581 E13.95653
G1 F438.8 X155.911 Y151.581 E13.9764
G1 F438 X155.911 Y154.832 E14.09491
G1 F506.3 X155.698 Y155.008 E14.10362
G1 F600 X155.254 Y155.008 E14.11544
G1 X155.049 Y155.362 E14.12632
G1 X155.05 Y164.174 E14.36079
G0 F6000 X155.54 Y163.684
;TYPE:WALL-INNER
G1 F413.8 X155.54 Y157.788 E14.58827
G0 F6000 X155.802 Y157.36
G0 X158.623 Y157.36
G0 X158.885 Y157.788
G1 F413.1 X158.885 Y160.736 E14.7022
G1 F413.8 X158.886 Y163.684 E14.81594
G0 F6000 X158.623 Y157.36
G0 X158.164 Y155.708
G0 X158.164 Y154.862
G1 F529.8 X158.164 Y153.397 E14.86009
G1 F532.2 X158.164 Y151.932 E14.90404
G1 F1500 E8.40404
G0 F6000 X158.388 Y153.111
G0 X159.453 Y153.11
G0 X160.26 Y153.111
G0 X161.345 Y153.111
G0 X161.925 Y153.11
G1 F1500 E14.90404
G1 F600 X163.397 Y151.639 E14.95941
G1 X161.925 Y151.639 E14.99858
G1 X161.925 Y153.11 E15.03772
G0 F6000 X162.413 Y152.07
G1 F519.5 X162.384 Y152.119 E15.03947
G1 X162.328 Y152.119 E15.04119
G1 X162.299 Y152.07 E15.04294
G1 X162.328 Y152.021 E15.04469
G1 X162.384 Y152.021 E15.04641
G0 F6000 X161.757 Y153.51
G0 X161.763 Y157.164
G0 X161.639 Y157.759
G1 F420.3 X161.783 Y157.547 E15.05615
G1 F525.2 X161.928 Y157.334 E15.06398
G1 F600 X162.478 Y156.785 E15.08466
G1 X162.168 Y156.475 E15.09632
G1 F571.4 X161.981 Y156.157 E15.10663
G1 F546.7 X161.98 Y155.39 E15.12903
G1 F549.2 X161.978 Y154.623 E15.15132
G1 F551.7 X161.976 Y153.856 E15.17352
G1 F575.5 X162.168 Y153.432 E15.18643
G1 F600 X163.719 Y151.882 E15.24477
G1 F571.4 X164.036 Y151.695 E15.25505
G1 F547.9 X165.187 Y151.693 E15.28859
G1 F551.7 X166.338 Y151.69 E15.3219
G1 F575.5 X166.762 Y151.882 E15.33481
G1 F600 X167.071 Y152.191 E15.34643
G1 X167.62 Y151.642 E15.36709
G1 F462.4 X167.921 Y151.358 E15.38138
G1 X167.454 Y151.239 E15.39802
G1 F600 X167.028 Y151.238 E15.40935
G1 F588.2 X166.682 Y151.247 E15.41875
G1 F564.7 X166.336 Y151.256 E15.42853
G1 F551.7 X165.168 Y151.257 E15.46233
G1 F547.9 X163.999 Y151.259 E15.49639
G1 F558.1 X163.726 Y151.249 E15.5042
G1 F585.4 X163.453 Y151.239 E15.51165
G1 F600 X161.525 Y151.239 E15.56295
G1 X161.525 Y153.166 E15.61423
G1 F588.2 X161.533 Y153.512 E15.62362
G1 F564.7 X161.542 Y153.858 E15.63341
G1 F551.7 X161.542 Y154.636 E15.65592
G1 F549.2 X161.543 Y155.415 E15.67856
G1 F546.7 X161.544 Y156.194 E15.70131
G1 F558.1 X161.535 Y156.49 E15.70978
G1 F585.4 X161.525 Y156.786 E15.71786
G1 F600 X161.527 Y157.168 E15.72803
G1 F525.2 X161.583 Y157.463 E15.73715
G1 F420.3 X161.639 Y157.759 E15.7486
G0 F6000 X161.763 Y157.164
G0 X161.968 Y156.785
G1 F615.4 X161.896 Y156.826 E15.75075
G1 X161.872 Y156.785 E15.75198
