;FLAVOR:Marlin
;TIME:2349
;Filament used: 0.501756m
;Layer height: 0.12
;MINX:86.305
;MINY:94.55
;MINZ:0.12
;MAXX:134.017
;MAXY:125.45
;MAXZ:10.8
;Generated with Cura_SteamEngine 4.12.1
M140 S55
M105
M190 S55
M104 S205
M105
M109 S205
M82 ;absolute extrusion mode
; Ender 3 Custom Start G-code
G92 E0 ; Reset Extruder
G28 ; Home all axes
G1 Z2.0 F3000 ; Move Z Axis up little to prevent scratching of Heat Bed
G1 X0.1 Y20 Z0.3 F5000.0 ; Move to start position
G1 X0.1 Y200.0 Z0.3 F1500.0 E15 ; Draw the first line
G1 X0.4 Y200.0 Z0.3 F5000.0 ; Move to side a little
G1 X0.4 Y20 Z0.3 F1500.0 E30 ; Draw the second line
G92 E0 ; Reset Extruder
G1 Z2.0 F3000 ; Move Z Axis up little to prevent scratching of Heat Bed
G1 X5 Y20 Z0.3 F5000.0 ; Move over to prevent blob squish
G92 E0
G92 E0
G1 F1500 E-6.5
;LAYER_COUNT:90
;LAYER:0
M107
G0 F6000 X89.505 Y97.007 Z0.12
;TYPE:SKIRT
G1 F1500 E0
G1 F1200 X90.091 Y96.477 E0.01577
G1 X90.727 Y96.01 E0.03151
G1 X91.407 Y95.609 E0.04727
G1 X92.125 Y95.279 E0.06304
G1 X92.872 Y95.024 E0.07879
G1 X93.641 Y94.845 E0.09455
G1 X94.425 Y94.745 E0.11032
G1 X95.02 Y94.722 E0.1222
G1 X95.994 Y94.722 E0.14164
G1 X96.473 Y94.746 E0.15121
G1 X97.078 Y94.722 E0.16329
G1 X97.896 Y94.722 E0.17962
G1 X98.685 Y94.762 E0.19538
G1 X98.959 Y94.739 E0.20087
G1 X99.738 Y94.606 E0.21664
G1 X100.667 Y94.55 E0.23521
G1 X114.993 Y94.55 E0.5211
G1 X115.782 Y94.59 E0.53687
G1 X116.378 Y94.674 E0.54888
G1 X117.148 Y94.849 E0.56464
G1 X118 Y95.143 E0.58262
G1 X118.248 Y95.245 E0.58798
G1 X118.962 Y95.582 E0.60373
G1 X119.639 Y95.99 E0.61951
G1 X120.27 Y96.463 E0.63524
G1 X120.576 Y96.732 E0.64337
G1 X120.629 Y96.781 E0.64481
G1 X121.098 Y97.26 E0.65819
G1 X125.903 Y97.26 E0.75408
G1 X126.692 Y97.3 E0.76985
G1 X127.67 Y97.463 E0.78963
G1 X127.713 Y97.473 E0.79051
G1 X128.472 Y97.69 E0.80627
G1 X129.527 Y98.141 E0.82916
G1 X129.705 Y98.233 E0.83316
G1 X130.388 Y98.63 E0.84893
G1 X131.026 Y99.095 E0.86468
G1 X131.615 Y99.622 E0.88046
G1 X132.147 Y100.205 E0.89621
G1 X132.617 Y100.84 E0.91197
G1 X133.021 Y101.518 E0.92772
G1 X133.22 Y101.923 E0.93673
G1 X133.309 Y102.118 E0.941
G1 X133.6 Y102.852 E0.95676
G1 X133.815 Y103.612 E0.97252
G1 X133.939 Y104.282 E0.98612
G1 X134.017 Y105.405 E1.00859
G1 X134.016 Y105.787 E1.01621
G1 X133.974 Y106.576 E1.03198
G1 X133.852 Y107.356 E1.04773
G1 X133.653 Y108.12 E1.06349
G1 X133.376 Y108.86 E1.07925
G1 X133.017 Y109.583 E1.09536
G1 X133.017 Y115.833 E1.22009
G1 X132.977 Y116.622 E1.23585
G1 X132.858 Y117.402 E1.2516
G1 X132.66 Y118.167 E1.26737
G1 X132.386 Y118.907 E1.28312
G1 X132.038 Y119.616 E1.29888
G1 X131.62 Y120.287 E1.31465
G1 X131.137 Y120.911 E1.3304
G1 X130.732 Y121.348 E1.34229
G1 X130.615 Y121.465 E1.34559
G1 X130.029 Y121.995 E1.36136
G1 X129.393 Y122.462 E1.37711
G1 X128.713 Y122.863 E1.39286
G1 X127.995 Y123.193 E1.40863
G1 X127.248 Y123.448 E1.42438
G1 X126.479 Y123.627 E1.44014
G1 X125.695 Y123.727 E1.45591
G1 X125.1 Y123.75 E1.46779
G1 X119.985 Y123.75 E1.56987
G1 X119.73 Y123.945 E1.57628
G1 X118.758 Y124.516 E1.59877
G1 X118.523 Y124.632 E1.604
G1 X117.798 Y124.946 E1.61977
G1 X117.045 Y125.184 E1.63553
G1 X115.973 Y125.386 E1.6573
G1 X115.87 Y125.398 E1.65937
G1 X114.967 Y125.45 E1.67742
G1 X100.645 Y125.45 E1.96323
G1 X99.856 Y125.41 E1.97899
G1 X99.186 Y125.312 E1.99251
G1 X99.144 Y125.304 E1.99336
G1 X98.376 Y125.117 E2.00913
G1 X97.686 Y124.876 E2.02372
G1 X97.443 Y124.778 E2.02895
G1 X96.726 Y124.446 E2.04472
G1 X96.461 Y124.317 E2.0506
G1 X95.933 Y124.384 E2.06122
G1 X95.352 Y124.407 E2.07282
G1 X94.236 Y124.409 E2.09509
G1 X93.447 Y124.37 E2.11086
G1 X92.666 Y124.252 E2.12662
G1 X91.902 Y124.056 E2.14236
G1 X91.161 Y123.783 E2.15812
G1 X90.451 Y123.437 E2.17388
G1 X89.78 Y123.02 E2.18965
G1 X89.154 Y122.538 E2.20542
G1 X88.707 Y122.124 E2.21757
G1 X88.59 Y122.007 E2.22088
G1 X88.06 Y121.421 E2.23664
G1 X87.593 Y120.785 E2.25239
G1 X87.192 Y120.105 E2.26814
G1 X86.862 Y119.387 E2.28391
G1 X86.607 Y118.64 E2.29966
G1 X86.428 Y117.871 E2.31542
G1 X86.328 Y117.087 E2.33119
G1 X86.305 Y116.492 E2.34308
G1 X86.305 Y107.045 E2.5316
G1 X86.345 Y106.256 E2.54737
G1 X86.464 Y105.476 E2.56311
G1 X86.589 Y104.958 E2.57375
G1 X86.834 Y104.207 E2.58951
G1 X87.103 Y103.599 E2.60278
G1 X87.103 Y102.637 E2.62198
G1 X87.143 Y101.848 E2.63774
G1 X87.263 Y101.068 E2.65349
G1 X87.461 Y100.303 E2.66926
G1 X87.735 Y99.563 E2.68501
G1 X88.083 Y98.854 E2.70077
G1 X88.501 Y98.184 E2.71653
G1 X88.984 Y97.559 E2.73229
G1 X89.388 Y97.124 E2.74414
G1 X89.505 Y97.007 E2.74744
G0 F6000 X89.787 Y97.289
G1 F1200 X90.359 Y96.775 E2.76279
G1 X90.981 Y96.322 E2.77814
G1 X91.646 Y95.936 E2.79349
G1 X92.348 Y95.621 E2.80884
G1 X93.079 Y95.381 E2.8242
G1 X93.83 Y95.218 E2.83953
G1 X94.595 Y95.134 E2.85489
G1 X95.02 Y95.122 E2.86338
G1 X95.994 Y95.122 E2.88281
G1 X96.515 Y95.149 E2.89322
G1 X96.653 Y95.134 E2.89599
G1 X97.078 Y95.122 E2.90448
G1 X97.896 Y95.122 E2.9208
G1 X98.664 Y95.162 E2.93615
G1 X98.842 Y95.176 E2.93971
G1 X99.047 Y95.13 E2.94391
G1 X99.805 Y95 E2.95925
G1 X100.667 Y94.95 E2.97648
G1 X114.993 Y94.95 E3.26237
G1 X115.761 Y94.99 E3.27772
G1 X116.309 Y95.068 E3.28877
G1 X117.058 Y95.24 E3.3041
G1 X117.848 Y95.513 E3.32078
G1 X118.096 Y95.615 E3.32614
G1 X118.791 Y95.944 E3.34148
G1 X119.448 Y96.344 E3.35683
G1 X120.305 Y97.025 E3.37867
G1 X120.358 Y97.074 E3.38012
G1 X120.894 Y97.625 E3.39546
G1 X120.922 Y97.66 E3.39635
G1 X125.903 Y97.66 E3.49575
G1 X126.671 Y97.7 E3.5111
G1 X127.579 Y97.852 E3.52947
G1 X127.622 Y97.862 E3.53035
G1 X128.361 Y98.075 E3.5457
G1 X129.344 Y98.496 E3.56704
G1 X129.522 Y98.588 E3.57104
G1 X130.186 Y98.976 E3.58639
G1 X130.806 Y99.431 E3.60173
G1 X131.375 Y99.948 E3.61707
G1 X131.888 Y100.522 E3.63244
G1 X132.339 Y101.145 E3.64779
G1 X132.856 Y102.089 E3.66926
G1 X132.945 Y102.284 E3.67354
G1 X133.228 Y103 E3.68891
G1 X133.434 Y103.741 E3.70425
G1 X133.543 Y104.338 E3.71637
G1 X133.617 Y105.404 E3.73769
G1 X133.616 Y105.786 E3.74531
G1 X133.574 Y106.554 E3.76066
G1 X133.453 Y107.314 E3.77602
G1 X133.253 Y108.057 E3.79138
G1 X132.977 Y108.775 E3.80673
G1 X132.657 Y109.41 E3.82092
G1 X132.617 Y109.481 E3.82254
G1 X132.617 Y115.833 E3.9493
G1 X132.577 Y116.601 E3.96465
G1 X132.458 Y117.361 E3.98
G1 X132.26 Y118.104 E3.99535
G1 X131.986 Y118.823 E4.0107
G1 X131.639 Y119.509 E4.02604
G1 X131.223 Y120.156 E4.04139
G1 X130.742 Y120.756 E4.05674
G1 X130.45 Y121.066 E4.06524
G1 X130.333 Y121.183 E4.06854
G1 X129.761 Y121.697 E4.08389
G1 X129.139 Y122.15 E4.09924
G1 X128.474 Y122.536 E4.11459
G1 X127.772 Y122.851 E4.12994
G1 X127.041 Y123.091 E4.1453
G1 X126.29 Y123.254 E4.16063
G1 X125.525 Y123.338 E4.17599
G1 X125.1 Y123.35 E4.18447
G1 X119.85 Y123.35 E4.28924
G1 X119.47 Y123.639 E4.29877
G1 X118.58 Y124.158 E4.31933
G1 X118.345 Y124.274 E4.32456
G1 X117.639 Y124.578 E4.3399
G1 X116.905 Y124.807 E4.35525
G1 X115.926 Y124.988 E4.37511
G1 X115.823 Y125 E4.37718
G1 X114.967 Y125.05 E4.39429
G1 X100.645 Y125.05 E4.68011
G1 X99.877 Y125.01 E4.69545
G1 X99.26 Y124.919 E4.7079
G1 X99.218 Y124.911 E4.70875
G1 X98.471 Y124.728 E4.7241
G1 X97.835 Y124.505 E4.73755
G1 X97.592 Y124.407 E4.74278
G1 X96.895 Y124.083 E4.75812
G1 X96.662 Y123.944 E4.76353
G1 X96.485 Y123.916 E4.76711
G1 X95.763 Y123.995 E4.7816
G1 X95.351 Y124.007 E4.78983
G1 X94.235 Y124.009 E4.8121
G1 X93.467 Y123.97 E4.82744
G1 X92.707 Y123.852 E4.84279
G1 X91.963 Y123.656 E4.85815
G1 X91.244 Y123.383 E4.87349
G1 X90.557 Y123.038 E4.88884
G1 X89.91 Y122.623 E4.90417
G1 X89.309 Y122.142 E4.91954
G1 X88.989 Y121.842 E4.92829
G1 X88.872 Y121.725 E4.93159
G1 X88.358 Y121.153 E4.94694
G1 X87.905 Y120.531 E4.96229
G1 X87.519 Y119.866 E4.97764
G1 X87.204 Y119.164 E4.99299
G1 X86.964 Y118.433 E5.00835
G1 X86.801 Y117.682 E5.02368
G1 X86.717 Y116.917 E5.03904
G1 X86.705 Y116.492 E5.04753
G1 X86.705 Y107.045 E5.23605
G1 X86.745 Y106.277 E5.2514
G1 X86.864 Y105.517 E5.26675
G1 X86.975 Y105.063 E5.27608
G1 X87.215 Y104.332 E5.29143
G1 X87.503 Y103.688 E5.30551
G1 X87.503 Y102.637 E5.32648
G1 X87.543 Y101.869 E5.34183
G1 X87.663 Y101.109 E5.35718
G1 X87.861 Y100.366 E5.37253
G1 X88.135 Y99.647 E5.38788
G1 X88.482 Y98.961 E5.40323
G1 X88.898 Y98.314 E5.41858
G1 X89.38 Y97.714 E5.43394
G1 X89.67 Y97.406 E5.44238
G1 X89.787 Y97.289 E5.44568
G0 F6000 X90.07 Y97.572
G1 F1200 X90.627 Y97.072 E5.46062
G1 X91.233 Y96.635 E5.47553
G1 X91.883 Y96.264 E5.49046
G1 X92.569 Y95.965 E5.5054
G1 X93.283 Y95.741 E5.52033
G1 X94.016 Y95.594 E5.53525
G1 X95.02 Y95.522 E5.55534
G1 X95.994 Y95.522 E5.57477
G1 X96.615 Y95.555 E5.58718
G1 X97.078 Y95.522 E5.59645
G1 X97.896 Y95.522 E5.61277
G1 X98.643 Y95.562 E5.6277
G1 X98.836 Y95.593 E5.6316
G1 X99.134 Y95.52 E5.63772
G1 X99.872 Y95.395 E5.65266
G1 X100.667 Y95.35 E5.66855
G1 X114.993 Y95.35 E5.95444
G1 X115.74 Y95.39 E5.96937
G1 X116.24 Y95.462 E5.97945
G1 X116.969 Y95.63 E5.99438
G1 X117.696 Y95.883 E6.00974
G1 X117.944 Y95.985 E6.01509
G1 X118.619 Y96.306 E6.03001
G1 X119.257 Y96.698 E6.04495
G1 X120.033 Y97.319 E6.06479
G1 X120.086 Y97.368 E6.06623
G1 X120.607 Y97.905 E6.08116
G1 X120.728 Y98.06 E6.08508
G1 X125.903 Y98.06 E6.18835
G1 X126.65 Y98.1 E6.20328
G1 X127.489 Y98.242 E6.22026
G1 X127.532 Y98.252 E6.22115
G1 X128.25 Y98.46 E6.23606
G1 X129.16 Y98.851 E6.25583
G1 X129.338 Y98.943 E6.25983
G1 X129.983 Y99.322 E6.27476
G1 X130.584 Y99.767 E6.28968
G1 X131.135 Y100.274 E6.30462
G1 X131.628 Y100.837 E6.31956
G1 X132.058 Y101.449 E6.33448
G1 X132.492 Y102.256 E6.35277
G1 X132.581 Y102.451 E6.35705
G1 X132.855 Y103.147 E6.37197
G1 X133.053 Y103.868 E6.38689
G1 X133.147 Y104.395 E6.39758
G1 X133.217 Y105.403 E6.41774
G1 X133.216 Y105.785 E6.42536
G1 X133.174 Y106.532 E6.44029
G1 X133.053 Y107.27 E6.45522
G1 X132.853 Y107.991 E6.47015
G1 X132.578 Y108.687 E6.48508
G1 X132.309 Y109.213 E6.49687
G1 X132.217 Y109.376 E6.50061
G1 X132.217 Y115.833 E6.62947
G1 X132.177 Y116.58 E6.64439
G1 X132.058 Y117.318 E6.65931
G1 X131.86 Y118.04 E6.67425
G1 X131.587 Y118.736 E6.68917
G1 X131.24 Y119.399 E6.70411
G1 X130.825 Y120.022 E6.71904
G1 X130.167 Y120.783 E6.73912
G1 X130.05 Y120.9 E6.74242
G1 X129.493 Y121.4 E6.75736
G1 X128.887 Y121.837 E6.77227
G1 X128.237 Y122.208 E6.78721
G1 X127.551 Y122.507 E6.80214
G1 X126.837 Y122.731 E6.81707
G1 X126.104 Y122.878 E6.83199
G1 X125.1 Y122.95 E6.85208
G1 X119.717 Y122.95 E6.9595
G1 X119.211 Y123.331 E6.97214
G1 X118.403 Y123.799 E6.99078
G1 X118.168 Y123.915 E6.99601
G1 X117.481 Y124.21 E7.01093
G1 X116.766 Y124.429 E7.02585
G1 X115.88 Y124.591 E7.04382
G1 X115.777 Y124.603 E7.04589
G1 X114.967 Y124.65 E7.06209
G1 X100.645 Y124.65 E7.3479
G1 X99.898 Y124.61 E7.36282
G1 X99.335 Y124.526 E7.37418
G1 X99.293 Y124.518 E7.37504
G1 X98.567 Y124.339 E7.38996
G1 X97.985 Y124.134 E7.40227
G1 X97.742 Y124.036 E7.4075
G1 X97.064 Y123.719 E7.42244
G1 X96.806 Y123.563 E7.42845
G1 X96.473 Y123.509 E7.43519
G1 X96.342 Y123.535 E7.43785
G1 X95.351 Y123.607 E7.45768
G1 X94.235 Y123.609 E7.47995
G1 X93.487 Y123.57 E7.4949
G1 X92.749 Y123.452 E7.50981
G1 X92.027 Y123.256 E7.52474
G1 X91.33 Y122.984 E7.53967
G1 X90.666 Y122.639 E7.55461
G1 X90.043 Y122.225 E7.56953
G1 X89.272 Y121.559 E7.58987
G1 X89.155 Y121.442 E7.59317
G1 X88.655 Y120.885 E7.60811
G1 X88.218 Y120.279 E7.62302
G1 X87.847 Y119.629 E7.63795
G1 X87.548 Y118.943 E7.65288
G1 X87.324 Y118.229 E7.66782
G1 X87.177 Y117.496 E7.68274
G1 X87.105 Y116.492 E7.70282
G1 X87.105 Y107.045 E7.89135
G1 X87.145 Y106.298 E7.90628
G1 X87.348 Y105.215 E7.92827
G1 X87.361 Y105.167 E7.92926
G1 X87.595 Y104.457 E7.94418
G1 X87.903 Y103.821 E7.95828
G1 X87.903 Y102.637 E7.98191
G1 X87.943 Y101.89 E7.99684
G1 X88.063 Y101.152 E8.01176
G1 X88.261 Y100.43 E8.0267
G1 X88.534 Y99.734 E8.04162
G1 X88.881 Y99.071 E8.05655
G1 X89.296 Y98.449 E8.07147
G1 X89.953 Y97.689 E8.09152
G1 X90.07 Y97.572 E8.09482
G0 F6000 X90.353 Y97.855
G1 F1200 X90.894 Y97.371 E8.10931
G1 X91.485 Y96.948 E8.12381
G1 X92.119 Y96.594 E8.1383
G1 X92.788 Y96.311 E8.1528
G1 X93.484 Y96.103 E8.1673
G1 X94.199 Y95.973 E8.1818
G1 X95.02 Y95.922 E8.19821
G1 X95.994 Y95.922 E8.21765
G1 X96.568 Y95.954 E8.22912
G1 X97.078 Y95.922 E8.23932
G1 X97.896 Y95.922 E8.25565
G1 X98.621 Y95.962 E8.27014
G1 X98.859 Y96.002 E8.27495
G1 X99.222 Y95.91 E8.28243
G1 X99.938 Y95.79 E8.29691
G1 X100.667 Y95.75 E8.31148
G1 X114.993 Y95.75 E8.59737
G1 X115.718 Y95.79 E8.61186
G1 X116.171 Y95.856 E8.621
G1 X116.878 Y96.02 E8.63548
G1 X117.543 Y96.253 E8.64954
G1 X117.791 Y96.355 E8.6549
G1 X118.447 Y96.668 E8.6694
G1 X119.064 Y97.051 E8.68389
G1 X119.761 Y97.613 E8.70176
G1 X119.814 Y97.662 E8.7032
G1 X120.32 Y98.183 E8.7177
G1 X120.534 Y98.46 E8.72468
G1 X125.903 Y98.46 E8.83182
G1 X126.628 Y98.5 E8.84631
G1 X127.398 Y98.632 E8.86191
G1 X127.441 Y98.642 E8.86279
G1 X128.138 Y98.845 E8.87727
G1 X128.976 Y99.207 E8.89549
G1 X129.154 Y99.299 E8.89949
G1 X129.78 Y99.667 E8.91398
G1 X130.362 Y100.102 E8.92848
G1 X130.892 Y100.599 E8.94298
G1 X131.365 Y101.15 E8.95747
G1 X131.774 Y101.751 E8.97198
G1 X132.128 Y102.422 E8.98712
G1 X132.217 Y102.617 E8.9914
G1 X132.482 Y103.293 E9.00589
G1 X132.671 Y103.994 E9.02037
G1 X132.751 Y104.452 E9.02965
G1 X132.817 Y105.402 E9.04866
G1 X132.816 Y105.784 E9.05628
G1 X132.774 Y106.509 E9.07077
G1 X132.653 Y107.226 E9.08528
G1 X132.454 Y107.924 E9.09977
G1 X132.179 Y108.596 E9.11426
G1 X131.961 Y109.016 E9.1237
G1 X131.836 Y109.237 E9.12877
G1 X131.817 Y109.267 E9.12948
G1 X131.817 Y115.833 E9.26051
G1 X131.777 Y116.558 E9.275
G1 X131.658 Y117.275 E9.2895
G1 X131.46 Y117.974 E9.304
G1 X131.187 Y118.647 E9.31849
G1 X130.842 Y119.286 E9.33299
G1 X130.428 Y119.883 E9.34748
G1 X129.884 Y120.5 E9.3639
G1 X129.767 Y120.617 E9.3672
G1 X129.226 Y121.101 E9.38169
G1 X128.635 Y121.524 E9.39619
G1 X128.001 Y121.878 E9.41068
G1 X127.332 Y122.161 E9.42518
G1 X126.636 Y122.369 E9.43967
G1 X125.921 Y122.499 E9.45418
G1 X125.1 Y122.55 E9.47059
G1 X119.576 Y122.55 E9.58083
G1 X119.535 Y122.588 E9.58195
G1 X118.953 Y123.022 E9.59643
G1 X118.226 Y123.44 E9.61317
G1 X117.991 Y123.556 E9.6184
G1 X117.323 Y123.841 E9.63289
G1 X116.628 Y124.051 E9.64738
G1 X115.834 Y124.194 E9.66348
G1 X115.731 Y124.206 E9.66555
G1 X114.967 Y124.25 E9.68082
G1 X100.645 Y124.25 E9.96663
G1 X99.92 Y124.21 E9.98112
G1 X99.41 Y124.133 E9.99142
G1 X99.368 Y124.125 E9.99227
G1 X98.663 Y123.95 E10.00677
G1 X98.134 Y123.763 E10.01796
G1 X97.891 Y123.665 E10.02319
G1 X97.234 Y123.357 E10.03767
G1 X96.929 Y123.171 E10.0448
G1 X96.847 Y123.166 E10.04644
G1 X96.46 Y123.101 E10.05427
G1 X96.159 Y123.156 E10.06038
G1 X95.35 Y123.207 E10.07655
G1 X94.234 Y123.209 E10.09883
G1 X93.508 Y123.17 E10.11333
G1 X92.792 Y123.052 E10.12782
G1 X92.092 Y122.856 E10.14232
G1 X91.419 Y122.584 E10.15681
G1 X90.779 Y122.24 E10.17131
G1 X90.181 Y121.828 E10.1858
G1 X89.555 Y121.276 E10.20246
G1 X89.438 Y121.159 E10.20576
G1 X88.954 Y120.618 E10.22024
G1 X88.531 Y120.027 E10.23475
G1 X88.177 Y119.393 E10.24924
G1 X87.894 Y118.724 E10.26373
G1 X87.686 Y118.028 E10.27823
G1 X87.556 Y117.313 E10.29273
G1 X87.505 Y116.492 E10.30915
G1 X87.505 Y107.045 E10.49767
G1 X87.545 Y106.32 E10.51216
G1 X87.735 Y105.32 E10.53248
G1 X87.748 Y105.272 E10.53347
G1 X87.976 Y104.582 E10.54797
G1 X88.303 Y103.909 E10.5629
G1 X88.303 Y102.637 E10.58829
G1 X88.343 Y101.912 E10.60278
G1 X88.463 Y101.196 E10.61727
G1 X88.66 Y100.497 E10.63176
G1 X88.934 Y99.824 E10.64626
G1 X89.279 Y99.185 E10.66075
G1 X89.693 Y98.588 E10.67525
G1 X90.236 Y97.972 E10.69164
G1 X90.353 Y97.855 E10.69494
G0 F6000 X90.636 Y98.138
G1 F1200 X91.161 Y97.669 E10.70899
G1 X91.736 Y97.263 E10.72303
G1 X92.354 Y96.925 E10.73709
G1 X93.005 Y96.658 E10.75113
G1 X93.683 Y96.468 E10.76518
G1 X94.378 Y96.355 E10.77923
G1 X95.02 Y96.322 E10.79206
G1 X95.994 Y96.322 E10.8115
G1 X96.508 Y96.351 E10.82177
G1 X97.078 Y96.322 E10.83316
G1 X97.896 Y96.322 E10.84949
G1 X98.599 Y96.362 E10.86354
G1 X98.879 Y96.41 E10.86921
G1 X99.31 Y96.3 E10.87809
G1 X100.004 Y96.186 E10.89212
G1 X100.667 Y96.15 E10.90537
G1 X114.993 Y96.15 E11.19126
G1 X115.696 Y96.19 E11.20531
G1 X116.102 Y96.25 E11.2135
G1 X116.787 Y96.41 E11.22754
G1 X117.391 Y96.623 E11.24032
