;FLAVOR:Marlin
;TIME:2209
;Filament used: 0.497252m
;Layer height: 0.16
;MINX:83.085
;MINY:89.532
;MINZ:0.2
;MAXX:137.203
;MAXY:129.794
;MAXZ:10.92
;Generated with Cura_SteamEngine 4.12.1
M140 S70
M105
M190 S70
M104 S250
M105
M109 S250
M82 ;absolute extrusion mode
; Ender 3 Custom Start G-code
G92 E0 ; Reset Extruder
G28 ; Home all axes
G1 Z2.0 F3000 ; Move Z Axis up little to prevent scratching of Heat Bed
G1 X0.1 Y20 Z0.3 F5000.0 ; Move to start position
G1 X0.1 Y200.0 Z0.3 F1500.0 E15 ; Draw the first line
G1 X0.4 Y200.0 Z0.3 F5000.0 ; Move to side a little
G1 X0.4 Y20 Z0.3 F1500.0 E30 ; Draw the second line
G92 E0 ; Reset Extruder
G1 Z2.0 F3000 ; Move Z Axis up little to prevent scratching of Heat Bed
G1 X5 Y20 Z0.3 F5000.0 ; Move over to prevent blob squish
G92 E0
G92 E0
G1 F1500 E-6.5
;LAYER_COUNT:68
;LAYER:0
M107
G0 F6000 X87.524 Y94.161 Z0.2
;TYPE:SKIRT
G1 F1500 E0
G1 F600 X88.248 Y93.565 E0.03119
G1 X89.02 Y93.033 E0.06237
G1 X89.834 Y92.568 E0.09355
G1 X90.686 Y92.174 E0.12477
G1 X91.567 Y91.854 E0.15595
G1 X92.473 Y91.611 E0.18715
G1 X93.396 Y91.446 E0.21833
G1 X94.543 Y91.351 E0.25661
G1 X94.876 Y91.341 E0.26769
G1 X95.331 Y91.335 E0.28283
G1 X95.444 Y91.327 E0.2866
G1 X97.421 Y91.299 E0.35236
G1 X99.059 Y91.237 E0.40688
G1 X100.002 Y91.192 E0.43828
G1 X100.345 Y91.181 E0.44969
G1 X101.34 Y91.165 E0.48279
G1 X101.794 Y91.164 E0.49789
G1 X104.402 Y91.127 E0.58464
G1 X106.924 Y91.02 E0.6686
G1 X109.419 Y90.843 E0.75179
G1 X111.917 Y90.595 E0.83528
G1 X114.406 Y90.277 E0.91874
G1 X116.958 Y89.876 E1.00466
G1 X117.509 Y89.778 E1.02328
G1 X118.081 Y89.685 E1.04255
G1 X119.012 Y89.574 E1.07374
G1 X119.637 Y89.544 E1.09455
G1 X120.217 Y89.533 E1.11384
G1 X120.602 Y89.532 E1.12665
G1 X120.914 Y89.537 E1.13703
G1 X121.851 Y89.592 E1.16824
G1 X122.779 Y89.727 E1.19943
G1 X123.692 Y89.94 E1.23062
G1 X124.584 Y90.23 E1.26181
G1 X125.448 Y90.595 E1.29301
G1 X126.277 Y91.033 E1.32419
G1 X127.067 Y91.539 E1.3554
G1 X127.539 Y91.871 E1.37459
G1 X127.798 Y92.059 E1.38523
G1 X128.028 Y92.231 E1.39479
G1 X128.28 Y92.425 E1.40536
G1 X129.205 Y93.161 E1.44468
G1 X129.76 Y93.614 E1.46851
G1 X131.654 Y95.078 E1.54813
G1 X132.426 Y95.659 E1.58026
G1 X132.709 Y95.88 E1.59221
G1 X133.016 Y96.127 E1.60531
G1 X133.721 Y96.745 E1.63649
G1 X134.371 Y97.421 E1.66769
G1 X134.961 Y98.151 E1.6989
G1 X135.486 Y98.927 E1.73007
G1 X135.96 Y99.778 E1.76246
G1 X136.037 Y99.932 E1.76819
G1 X136.42 Y100.788 E1.79938
G1 X136.729 Y101.673 E1.83056
G1 X136.961 Y102.582 E1.86176
G1 X137.116 Y103.507 E1.89296
G1 X137.196 Y104.669 E1.9317
G1 X137.203 Y105.091 E1.94573
G1 X137.179 Y106.028 E1.97691
G1 X137.114 Y106.682 E1.99877
G1 X137.01 Y107.487 E2.02577
G1 X136.932 Y108.026 E2.04388
G1 X136.631 Y110.531 E2.1278
G1 X136.403 Y113.021 E2.21096
G1 X136.211 Y116.213 E2.31732
G1 X136.196 Y116.545 E2.32837
G1 X136.114 Y117.479 E2.35956
G1 X135.953 Y118.403 E2.39075
G1 X135.714 Y119.31 E2.42195
G1 X135.399 Y120.193 E2.45313
G1 X135.009 Y121.046 E2.48432
G1 X134.548 Y121.863 E2.51553
G1 X134.019 Y122.638 E2.54673
G1 X133.426 Y123.364 E2.57791
G1 X132.774 Y124.038 E2.6091
G1 X132.066 Y124.653 E2.64029
G1 X131.309 Y125.207 E2.67149
G1 X130.507 Y125.693 E2.70268
G1 X129.667 Y126.109 E2.73386
G1 X128.794 Y126.453 E2.76507
G1 X127.895 Y126.721 E2.79627
G1 X126.977 Y126.911 E2.82745
G1 X126.309 Y126.999 E2.84986
G1 X123.531 Y127.279 E2.94273
G1 X121.036 Y127.602 E3.0264
G1 X118.568 Y127.993 E3.10951
G1 X117.455 Y128.197 E3.14715
G1 X116.854 Y128.298 E3.16742
G1 X115.994 Y128.408 E3.19625
G1 X115.305 Y128.449 E3.21921
G1 X114.832 Y128.46 E3.23495
G1 X114.529 Y128.463 E3.24503
G1 X113.069 Y128.463 E3.29359
G1 X110.461 Y128.5 E3.38034
G1 X107.94 Y128.607 E3.46426
G1 X105.445 Y128.784 E3.54745
G1 X102.945 Y129.032 E3.63101
G1 X100.432 Y129.353 E3.71527
G1 X98.373 Y129.669 E3.78456
G1 X97.441 Y129.771 E3.81574
G1 X96.503 Y129.794 E3.84695
G1 X95.567 Y129.737 E3.87814
G1 X94.639 Y129.6 E3.90934
G1 X93.726 Y129.385 E3.94054
G1 X92.835 Y129.093 E3.97172
G1 X92.147 Y128.807 E3.9965
G1 X92.024 Y128.751 E4.001
G1 X91.523 Y128.507 E4.01953
G1 X91.245 Y128.363 E4.02994
G1 X90.076 Y127.663 E4.07526
G1 X89.022 Y126.939 E4.11779
G1 X88.792 Y126.766 E4.12737
G1 X87.825 Y126.095 E4.16651
G1 X87.078 Y125.528 E4.19771
G1 X86.382 Y124.899 E4.22891
G1 X85.742 Y124.214 E4.26009
G1 X85.162 Y123.476 E4.29131
G1 X84.648 Y122.692 E4.32249
G1 X84.203 Y121.866 E4.35369
G1 X83.829 Y121.006 E4.38488
G1 X83.53 Y120.117 E4.41608
G1 X83.308 Y119.206 E4.44727
G1 X83.164 Y118.279 E4.47847
G1 X83.101 Y117.406 E4.50758
G1 X83.09 Y117.058 E4.51916
G1 X83.085 Y116.71 E4.53074
G1 X83.086 Y107.372 E4.84132
G1 X83.097 Y106.666 E4.8648
G1 X83.152 Y105.729 E4.89602
G1 X83.28 Y104.831 E4.92619
G1 X83.479 Y103.758 E4.96249
G1 X83.912 Y101.233 E5.0477
G1 X84.008 Y100.628 E5.06807
G1 X84.194 Y99.709 E5.09926
G1 X84.457 Y98.808 E5.13047
G1 X84.797 Y97.934 E5.16167
G1 X85.209 Y97.092 E5.19284
G1 X85.692 Y96.288 E5.22404
G1 X86.241 Y95.528 E5.25522
G1 X86.853 Y94.817 E5.28642
G1 X87.524 Y94.161 E5.31763
G0 F6000 X87.892 Y94.369
G1 F600 X88.611 Y93.794 E5.34826
G1 X89.376 Y93.282 E5.37887
G1 X90.184 Y92.84 E5.4095
G1 X91.026 Y92.469 E5.44011
G1 X91.898 Y92.172 E5.47075
G1 X92.792 Y91.952 E5.50137
G1 X93.702 Y91.811 E5.532
G1 X94.555 Y91.751 E5.56044
G1 X94.888 Y91.741 E5.57152
G1 X95.304 Y91.735 E5.58536
G1 X95.449 Y91.727 E5.59019
G1 X97.442 Y91.698 E5.65648
G1 X99.088 Y91.636 E5.71127
G1 X100.02 Y91.592 E5.7423
G1 X100.352 Y91.581 E5.75335
G1 X101.347 Y91.565 E5.78644
G1 X101.8 Y91.564 E5.80151
G1 X104.425 Y91.527 E5.88883
G1 X106.933 Y91.42 E5.97232
G1 X109.45 Y91.242 E6.05625
G1 X111.974 Y90.992 E6.1406
G1 X114.482 Y90.671 E6.2247
G1 X116.964 Y90.281 E6.30827
G1 X117.573 Y90.172 E6.32884
G1 X118.145 Y90.079 E6.34812
G1 X119.059 Y89.971 E6.37873
G1 X119.645 Y89.944 E6.39824
G1 X120.225 Y89.933 E6.41753
G1 X120.596 Y89.932 E6.42987
G1 X120.908 Y89.937 E6.44025
G1 X121.827 Y89.992 E6.47087
G1 X122.738 Y90.126 E6.5015
G1 X123.633 Y90.339 E6.5321
G1 X124.507 Y90.629 E6.56273
G1 X125.353 Y90.993 E6.59336
G1 X126.163 Y91.43 E6.62397
G1 X126.836 Y91.866 E6.65064
G1 X127.308 Y92.198 E6.66983
G1 X127.558 Y92.379 E6.6801
G1 X127.788 Y92.551 E6.68965
G1 X128.032 Y92.739 E6.6999
G1 X128.952 Y93.471 E6.739
G1 X129.503 Y93.921 E6.76266
G1 X131.42 Y95.403 E6.84325
G1 X132.186 Y95.979 E6.87513
G1 X132.459 Y96.191 E6.88663
G1 X132.766 Y96.438 E6.89973
G1 X133.457 Y97.046 E6.93034
G1 X134.094 Y97.711 E6.96097
G1 X134.67 Y98.43 E6.99161
G1 X135.181 Y99.195 E7.02221
G1 X135.602 Y99.957 E7.05117
G1 X135.679 Y100.111 E7.05689
G1 X136.055 Y100.951 E7.0875
G1 X136.356 Y101.821 E7.11812
G1 X136.58 Y102.714 E7.14874
G1 X136.727 Y103.623 E7.17937
G1 X136.797 Y104.675 E7.21444
G1 X136.804 Y105.097 E7.22848
G1 X136.779 Y106.018 E7.25912
G1 X136.718 Y106.631 E7.27961
G1 X136.614 Y107.436 E7.30661
G1 X136.534 Y107.991 E7.32526
G1 X136.234 Y110.48 E7.40864
G1 X136.004 Y112.993 E7.49257
G1 X135.812 Y116.178 E7.5987
G1 X135.796 Y116.527 E7.61032
G1 X135.715 Y117.444 E7.64094
G1 X135.555 Y118.351 E7.67157
G1 X135.317 Y119.24 E7.70218
G1 X135.002 Y120.105 E7.7328
G1 X134.614 Y120.94 E7.76342
G1 X134.154 Y121.738 E7.79406
G1 X133.627 Y122.493 E7.82468
G1 X133.037 Y123.199 E7.85528
G1 X132.387 Y123.851 E7.8859
G1 X131.684 Y124.445 E7.91651
G1 X130.931 Y124.975 E7.94714
G1 X130.136 Y125.439 E7.97776
G1 X129.303 Y125.831 E8.00838
G1 X128.439 Y126.149 E8.039
G1 X127.551 Y126.392 E8.06962
G1 X126.269 Y126.601 E8.11282
G1 X123.477 Y126.882 E8.20615
G1 X120.989 Y127.204 E8.28959
G1 X118.48 Y127.602 E8.37409
G1 X117.389 Y127.802 E8.41098
G1 X116.788 Y127.903 E8.43125
G1 X115.958 Y128.009 E8.45908
G1 X115.293 Y128.049 E8.48124
G1 X114.827 Y128.06 E8.49674
G1 X114.529 Y128.063 E8.50665
G1 X113.063 Y128.063 E8.55541
G1 X110.438 Y128.1 E8.64273
G1 X107.93 Y128.207 E8.72622
G1 X105.41 Y128.385 E8.81024
G1 X102.895 Y128.634 E8.8943
G1 X100.354 Y128.96 E8.97951
G1 X98.312 Y129.273 E9.04822
G1 X97.397 Y129.373 E9.07883
G1 X96.476 Y129.394 E9.10947
G1 X95.558 Y129.334 E9.14007
G1 X94.648 Y129.194 E9.17069
G1 X93.753 Y128.977 E9.20132
G1 X92.881 Y128.682 E9.23194
G1 X92.313 Y128.443 E9.25244
G1 X92.19 Y128.387 E9.25693
G1 X91.707 Y128.152 E9.2748
G1 X91.429 Y128.008 E9.28521
G1 X90.302 Y127.333 E9.32891
G1 X89.248 Y126.609 E9.37144
G1 X89.013 Y126.432 E9.38122
G1 X88.053 Y125.766 E9.42008
G1 X87.32 Y125.209 E9.4507
G1 X86.638 Y124.59 E9.48133
G1 X86.013 Y123.915 E9.51193
G1 X85.448 Y123.188 E9.54255
G1 X84.949 Y122.414 E9.57318
G1 X84.519 Y121.6 E9.6038
G1 X84.16 Y120.752 E9.63443
G1 X83.877 Y119.876 E9.66505
G1 X83.671 Y118.979 E9.69566
G1 X83.544 Y118.067 E9.72629
G1 X83.501 Y117.393 E9.74875
G1 X83.49 Y117.045 E9.76033
G1 X83.485 Y116.71 E9.77147
G1 X83.486 Y107.378 E10.08186
G1 X83.497 Y106.672 E10.10534
G1 X83.552 Y105.753 E10.13596
G1 X83.674 Y104.904 E10.16449
G1 X83.86 Y103.901 E10.19842
G1 X84.307 Y101.297 E10.2863
G1 X84.403 Y100.69 E10.30674
G1 X84.586 Y99.788 E10.33735
G1 X84.847 Y98.905 E10.36797
G1 X85.183 Y98.048 E10.39859
G1 X85.593 Y97.224 E10.4292
G1 X86.072 Y96.438 E10.45981
G1 X86.618 Y95.696 E10.49045
G1 X87.226 Y95.005 E10.52107
G1 X87.892 Y94.369 E10.5517
G0 F6000 X88.26 Y94.58
G1 F600 X88.973 Y94.026 E10.58173
G1 X89.732 Y93.536 E10.61178
G1 X90.531 Y93.116 E10.6418
G1 X91.365 Y92.768 E10.67186
G1 X92.226 Y92.496 E10.70189
G1 X93.107 Y92.3 E10.73191
G1 X94.003 Y92.183 E10.76196
G1 X94.567 Y92.151 E10.78075
G1 X95.103 Y92.137 E10.79858
G1 X95.455 Y92.127 E10.8103
G1 X97.42 Y92.099 E10.87566
G1 X99.123 Y92.034 E10.93234
G1 X100.039 Y91.991 E10.96284
G1 X100.358 Y91.981 E10.97346
G1 X101.517 Y91.964 E11.01201
G1 X101.806 Y91.964 E11.02162
G1 X104.412 Y91.927 E11.10831
G1 X106.98 Y91.818 E11.19379
G1 X109.482 Y91.641 E11.27722
G1 X111.994 Y91.392 E11.36118
G1 X114.557 Y91.064 E11.44712
G1 X117.059 Y90.67 E11.53136
G1 X117.637 Y90.567 E11.55089
G1 X118.209 Y90.474 E11.57016
G1 X119.106 Y90.369 E11.6002
G1 X119.653 Y90.344 E11.61841
G1 X120.233 Y90.333 E11.63771
G1 X120.589 Y90.332 E11.64955
G1 X120.901 Y90.337 E11.65993
G1 X121.803 Y90.392 E11.68998
G1 X122.696 Y90.526 E11.72002
G1 X123.574 Y90.738 E11.75006
G1 X124.429 Y91.027 E11.78008
G1 X125.256 Y91.391 E11.81013
G1 X126.047 Y91.827 E11.84017
G1 X126.606 Y92.193 E11.86239
G1 X127.078 Y92.525 E11.88159
G1 X127.319 Y92.699 E11.89147
G1 X127.549 Y92.871 E11.90103
G1 X127.783 Y93.052 E11.91087
G1 X128.699 Y93.781 E11.9498
G1 X129.251 Y94.232 E11.97351
G1 X131.164 Y95.71 E12.05392
G1 X131.945 Y96.298 E12.08643
G1 X132.208 Y96.503 E12.09752
G1 X132.515 Y96.75 E12.11063
G1 X133.193 Y97.347 E12.14067
G1 X133.815 Y98.001 E12.17069
G1 X134.377 Y98.708 E12.20073
G1 X134.875 Y99.462 E12.23079
G1 X135.244 Y100.135 E12.25631
G1 X135.321 Y100.289 E12.26204
G1 X135.689 Y101.114 E12.29209
G1 X135.982 Y101.968 E12.32212
G1 X136.199 Y102.845 E12.35216
G1 X136.337 Y103.738 E12.38222
G1 X136.397 Y104.682 E12.41368
G1 X136.404 Y105.104 E12.42772
G1 X136.379 Y106.007 E12.45776
G1 X136.321 Y106.58 E12.47692
G1 X136.217 Y107.385 E12.50391
G1 X136.139 Y107.92 E12.5219
G1 X135.833 Y110.466 E12.60719
G1 X135.607 Y112.932 E12.68955
G1 X135.411 Y116.195 E12.79827
G1 X135.397 Y116.509 E12.80873
G1 X135.317 Y117.409 E12.83878
G1 X135.157 Y118.298 E12.86882
G1 X134.92 Y119.169 E12.89885
G1 X134.606 Y120.016 E12.92889
G1 X134.219 Y120.832 E12.95893
G1 X133.761 Y121.61 E12.98896
G1 X133.236 Y122.345 E13.019
G1 X132.648 Y123.03 E13.04902
G1 X132.002 Y123.661 E13.07906
G1 X131.302 Y124.232 E13.1091
G1 X130.555 Y124.74 E13.13915
G1 X129.766 Y125.179 E13.16918
G1 X128.941 Y125.546 E13.19921
G1 X128.087 Y125.839 E13.22924
G1 X127.21 Y126.055 E13.25928
G1 X126.228 Y126.203 E13.29231
G1 X123.46 Y126.482 E13.38484
G1 X120.912 Y126.811 E13.47029
G1 X118.417 Y127.207 E13.55432
G1 X117.322 Y127.408 E13.59135
G1 X116.721 Y127.509 E13.61162
G1 X115.921 Y127.611 E13.63844
G1 X115.282 Y127.649 E13.65973
G1 X114.823 Y127.66 E13.675
G1 X114.529 Y127.663 E13.68478
G1 X113.057 Y127.663 E13.73374
G1 X110.451 Y127.7 E13.82042
G1 X107.886 Y127.809 E13.90581
G1 X105.379 Y127.987 E13.98941
G1 X102.838 Y128.238 E14.07433
G1 X100.322 Y128.56 E14.1587
G1 X98.251 Y128.878 E14.22838
G1 X97.354 Y128.975 E14.25839
G1 X96.451 Y128.993 E14.28843
G1 X95.55 Y128.93 E14.31847
G1 X94.658 Y128.788 E14.34852
G1 X93.782 Y128.568 E14.37856
G1 X92.929 Y128.271 E14.4086
G1 X92.479 Y128.079 E14.42487
G1 X92.356 Y128.023 E14.42936
G1 X91.891 Y127.797 E14.44656
G1 X91.613 Y127.653 E14.45697
G1 X90.529 Y127.004 E14.499
G1 X89.475 Y126.28 E14.54153
G1 X89.254 Y126.113 E14.55074
G1 X88.281 Y125.438 E14.59013
G1 X87.562 Y124.891 E14.62017
G1 X86.895 Y124.282 E14.65021
G1 X86.284 Y123.617 E14.68025
G1 X85.735 Y122.9 E14.71029
G1 X85.251 Y122.138 E14.74031
G1 X84.836 Y121.335 E14.77037
G1 X84.494 Y120.499 E14.80042
G1 X84.227 Y119.637 E14.83043
G1 X84.038 Y118.754 E14.86046
G1 X83.927 Y117.857 E14.89053
G1 X83.901 Y117.38 E14.90642
G1 X83.89 Y117.032 E14.918
G1 X83.885 Y116.71 E14.92871
G1 X83.886 Y107.384 E15.23889
G1 X83.897 Y106.678 E15.26237
G1 X83.951 Y105.777 E15.2924
G1 X84.067 Y104.977 E15.31928
G1 X84.253 Y103.976 E15.35315
G1 X84.706 Y101.337 E15.4422
G1 X84.798 Y100.753 E15.46187
G1 X84.979 Y99.868 E15.49191
G1 X85.237 Y99.002 E15.52197
G1 X85.57 Y98.163 E15.55199
G1 X85.977 Y97.357 E15.58202
G1 X86.453 Y96.589 E15.61207
G1 X86.995 Y95.867 E15.6421
G1 X87.599 Y95.196 E15.67213
G1 X88.26 Y94.58 E15.70218
G1 F1500 E9.20218
G0 F6000 X120.017 Y101.66
G1 F1500 E15.70218
G1 F600 X120.201 Y101.526 E15.70975
G1 X120.425 Y101.526 E15.7172
G1 X120.609 Y101.66 E15.72477
G1 X120.679 Y101.874 E15.73226
G1 X120.609 Y102.088 E15.73975
G1 X120.425 Y102.222 E15.74732
G1 X120.201 Y102.222 E15.75477
G1 X120.017 Y102.088 E15.76234
G1 X119.947 Y101.874 E15.76983
G1 X120.017 Y101.66 E15.77732
G0 F6000 X119.676 Y101.413
G1 F600 X120.07 Y101.126 E15.79353
G1 X120.556 Y101.126 E15.80969
G1 X120.95 Y101.413 E15.82591
G1 X121.1 Y101.874 E15.84203
G1 X120.95 Y102.335 E15.85815
G1 X120.556 Y102.622 E15.87437
G1 X120.07 Y102.622 E15.89053
G1 X119.676 Y102.335 E15.90674
G1 X119.526 Y101.874 E15.92287
G1 X119.676 Y101.413 E15.93899
G0 F6000 X119.336 Y101.166
G1 F600 X119.941 Y100.726 E15.96387
G1 X120.685 Y100.726 E15.98862
G1 X121.29 Y101.166 E16.0135
G1 X121.521 Y101.874 E16.03827
G1 X121.29 Y102.582 E16.06304
G1 X120.685 Y103.022 E16.08792
G1 X119.941 Y103.022 E16.11267
G1 X119.336 Y102.582 E16.13755
G1 X119.105 Y101.874 E16.16232
G1 X119.336 Y101.166 E16.18709
G0 F6000 X105.976 Y105.97
G1 F600 X106.148 Y106.498 E16.20556
G1 X105.984 Y107.002 E16.22319
G1 X104.984 Y107.428 E16.25934
G1 X103.931 Y107.545 E16.29458
G1 X103.49 Y107.224 E16.31272
G1 X103.318 Y106.696 E16.33119
G1 X103.485 Y106.183 E16.34913
G1 X104.4 Y105.708 E16.38342
G1 X105.53 Y105.645 E16.42106
G1 X105.976 Y105.97 E16.43942
G0 F6000 X105.635 Y106.216
G1 F600 X105.727 Y106.498 E16.44928
G1 X105.659 Y106.705 E16.45653
G1 X104.879 Y107.038 E16.48474
G1 X104.041 Y107.131 E16.51278
G1 X103.831 Y106.978 E16.52142
G1 X103.739 Y106.696 E16.53129
G1 X103.815 Y106.463 E16.53944
G1 X104.51 Y106.102 E16.56549
G1 X105.41 Y106.052 E16.59547
G1 X105.635 Y106.216 E16.60473
G0 F6000 X105.207 Y106.463
G1 F600 X104.778 Y106.646 E16.62024
G1 X104.207 Y106.71 E16.63935
G1 X104.618 Y106.496 E16.65477
G1 X105.207 Y106.463 E16.67439
G1 F1500 E10.17439
;MESH:void_switch_4x2mm_0.6_magnet_gap.stl
G0 F6000 X102.684 Y107.528
G0 X101.932 Y108.282
G0 X100.769 Y109.161
;TYPE:WALL-INNER
G1 F1500 E16.67439
G1 F600 X100.769 Y107.766 E16.72078
G1 X100.769 Y105.048 E16.81119
G1 X100.769 Y102.764 E16.88715
G1 X103.052 Y102.764 E16.96308
G1 X105.77 Y102.764 E17.05349
G1 X107.165 Y102.764 E17.09988
G1 X106.286 Y103.645 E17.14128
G1 X105.77 Y103.128 E17.16557
G1 X103.052 Y103.128 E17.24804
G1 X101.132 Y105.048 E17.33835
G1 X101.132 Y107.766 E17.4206
G1 X101.649 Y108.282 E17.44489
G1 X100.769 Y109.161 E17.48626
G0 F6000 X100.769 Y109.306
G1 F600 X107.237 Y115.775 E17.79052
G1 X110.508 Y112.504 E17.94438
G1 X113.779 Y109.233 E18.09824
G1 X107.649 Y103.104 E18.38655
G1 X107.309 Y102.764 E18.40254
G1 X107.79 Y102.764 E18.41115
